P3
# Created by GIMP version 2.10.36 PNM plug-in
16 16
255
117
105
77
117
105
77
117
105
78
117
105
78
117
105
78
117
105
79
117
106
79
117
106
80
118
107
81
119
108
82
120
109
83
121
111
84
122
112
85
124
114
86
125
115
88
126
117
89
119
107
78
119
106
78
118
106
79
118
106
79
118
106
79
118
107
80
118
107
80
119
108
81
119
108
82
120
109
83
121
111
84
122
112
85
123
113
86
124
115
87
126
116
88
127
118
89
120
108
79
120
108
79
120
108
79
119
108
80
119
108
80
119
108
80
119
109
81
120
109
82
120
110
82
121
111
83
122
112
84
123
113
85
124
114
86
125
116
87
126
117
89
128
119
90
122
110
80
121
110
80
121
110
80
121
110
80
120
110
81
120
110
81
120
110
82
121
110
82
121
111
83
122
112
84
122
113
85
123
114
86
125
115
87
126
117
88
127
118
89
128
119
90
123
111
81
122
111
81
122
111
81
122
111
81
121
111
81
121
111
82
121
111
82
121
112
83
122
112
84
122
113
84
123
114
85
124
115
86
125
116
87
126
117
88
128
119
89
129
120
90
124
113
81
123
112
82
123
112
82
123
112
82
122
112
82
122
112
82
122
113
83
122
113
83
123
113
84
123
114
85
124
115
86
125
116
86
126
117
87
127
118
88
128
119
90
129
121
91
125
114
82
124
114
82
124
113
82
123
113
82
123
113
83
123
113
83
123
114
83
123
114
84
123
114
84
124
115
85
125
116
86
125
117
87
126
118
88
127
119
89
129
120
90
130
121
91
125
115
82
125
114
82
124
114
83
124
114
83
124
114
83
123
114
83
123
114
84
124
115
84
124
115
85
124
116
86
125
117
86
126
117
87
127
118
88
128
120
89
129
121
90
130
122
91
126
115
83
125
115
83
125
115
83
124
115
83
124
115
83
124
115
84
124
115
84
124
115
85
124
116
85
125
116
86
125
117
86
126
118
87
127
119
88
128
120
89
129
121
90
130
122
91
126
116
83
125
115
83
125
115
83
125
115
83
124
115
83
124
115
84
124
116
84
124
116
85
124
116
85
125
117
86
126
118
87
126
118
87
127
119
88
128
120
89
129
121
90
130
122
91
126
116
83
125
116
83
125
116
83
125
116
83
124
116
84
124
116
84
124
116
84
124
116
85
125
117
85
125
117
86
126
118
87
127
119
88
127
120
88
128
121
89
129
121
90
130
122
91
126
116
83
125
116
83
125
116
83
125
116
83
124
116
84
124
116
84
124
116
84
124
117
85
125
117
85
125
118
86
126
118
87
127
119
88
127
120
88
128
121
89
129
122
90
130
123
91
125
116
83
125
116
83
125
116
83
125
116
83
124
116
83
124
116
84
124
116
84
124
117
85
125
117
85
125
118
86
126
118
87
127
119
88
127
120
88
128
121
89
129
122
90
130
123
91
125
116
82
125
116
82
125
116
83
124
116
83
124
116
83
124
116
84
124
117
84
124
117
85
125
117
85
125
118
86
126
119
87
126
119
88
127
120
88
128
121
89
129
122
90
130
123
91
125
115
82
124
115
82
124
116
82
124
116
83
124
116
83
124
116
84
124
117
84
124
117
85
125
118
85
125
118
86
126
119
87
126
119
87
127
120
88
128
121
89
129
122
90
130
122
91
124
115
81
124
115
82
124
115
82
124
116
83
124
116
83
124
116
83
124
117
84
124
117
85
124
118
85
125
118
86
126
119
87
126
119
87
127
120
88
128
121
89
128
122
90
129
122
91
