P3
# Created by GIMP version 2.10.36 PNM plug-in
16 16
255
183
183
183
156
156
156
156
156
156
122
122
122
175
175
175
183
183
183
183
183
183
175
175
175
156
156
156
183
183
183
183
183
183
183
183
183
183
183
183
183
183
183
183
183
183
156
156
156
183
183
183
175
175
175
175
175
175
122
122
122
175
175
175
175
175
175
156
156
156
145
145
145
145
145
145
145
145
145
156
156
156
156
156
156
156
156
156
175
175
175
183
183
183
156
156
156
175
175
175
175
175
175
156
156
156
122
122
122
156
156
156
156
156
156
175
175
175
175
175
175
156
156
156
175
175
175
175
175
175
175
175
175
163
163
163
163
163
163
163
163
163
156
156
156
110
110
110
110
110
110
110
110
110
122
122
122
122
122
122
122
122
122
122
122
122
122
122
122
122
122
122
122
122
122
110
110
110
110
110
110
110
110
110
110
110
110
122
122
122
122
122
122
183
183
183
156
156
156
156
156
156
156
156
156
156
156
156
183
183
183
183
183
183
156
156
156
183
183
183
156
156
156
156
156
156
122
122
122
175
175
175
175
175
175
175
175
175
183
183
183
156
156
156
156
156
156
156
156
156
175
175
175
175
175
175
175
175
175
183
183
183
156
156
156
175
175
175
175
175
175
175
175
175
122
122
122
156
156
156
156
156
156
156
156
156
156
156
156
183
183
183
183
183
183
183
183
183
175
175
175
145
145
145
145
145
145
145
145
145
145
145
145
145
145
145
163
163
163
163
163
163
122
122
122
183
183
183
183
183
183
183
183
183
183
183
183
122
122
122
122
122
122
110
110
110
110
110
110
110
110
110
110
110
110
110
110
110
122
122
122
122
122
122
122
122
122
110
110
110
110
110
110
110
110
110
110
110
110
122
122
122
122
122
122
175
175
175
175
175
175
175
175
175
122
122
122
156
156
156
156
156
156
156
156
156
183
183
183
183
183
183
175
175
175
175
175
175
175
175
175
175
175
175
156
156
156
156
156
156
156
156
156
156
156
156
156
156
156
175
175
175
122
122
122
175
175
175
183
183
183
175
175
175
175
175
175
156
156
156
145
145
145
145
145
145
145
145
145
145
145
145
145
145
145
145
145
145
156
156
156
175
175
175
175
175
175
175
175
175
122
122
122
175
175
175
183
183
183
156
156
156
156
156
156
156
156
156
156
156
156
175
175
175
175
175
175
175
175
175
175
175
175
175
175
175
175
175
175
122
122
122
110
110
110
122
122
122
122
122
122
110
110
110
110
110
110
110
110
110
122
122
122
122
122
122
122
122
122
122
122
122
122
122
122
110
110
110
110
110
110
110
110
110
122
122
122
183
183
183
183
183
183
183
183
183
183
183
183
183
183
183
156
156
156
183
183
183
145
145
145
145
145
145
145
145
145
145
145
145
122
122
122
175
175
175
183
183
183
183
183
183
183
183
183
175
175
175
156
156
156
156
156
156
183
183
183
183
183
183
183
183
183
183
183
183
156
156
156
183
183
183
175
175
175
175
175
175
122
122
122
156
156
156
156
156
156
156
156
156
175
175
175
183
183
183
183
183
183
156
156
156
156
156
156
156
156
156
183
183
183
183
183
183
156
156
156
183
183
183
183
183
183
156
156
156
122
122
122
183
183
183
183
183
183
183
183
183
183
183
183
122
122
122
122
122
122
122
122
122
124
124
124
110
110
110
110
110
110
124
124
124
110
110
110
122
122
122
122
122
122
122
122
122
110
110
110
87
87
87
110
110
110
110
110
110
122
122
122
