P3
# Created by GIMP version 2.10.36 PNM plug-in
16 16
255
115
115
115
115
115
115
131
131
131
115
115
115
115
115
115
115
115
115
131
131
131
131
131
131
131
131
131
131
131
131
131
131
131
131
131
131
115
115
115
115
115
115
115
115
115
115
115
115
115
115
115
177
177
177
175
175
175
174
174
174
178
178
178
178
178
178
180
180
180
178
178
178
171
171
171
177
177
177
178
178
178
178
178
178
193
193
193
192
192
192
177
177
177
115
115
115
131
131
131
182
182
182
132
132
132
139
139
139
140
140
140
122
122
122
133
133
133
128
128
128
149
149
149
138
138
138
144
144
144
147
147
147
142
142
142
139
139
139
181
181
181
115
115
115
115
115
115
177
177
177
146
146
146
182
182
182
193
193
193
194
194
194
201
201
201
201
201
201
196
196
196
186
186
186
186
186
186
187
187
187
194
194
194
133
133
133
176
176
176
131
131
131
131
131
131
178
178
178
136
136
136
188
188
188
178
178
178
188
188
188
180
180
180
187
187
187
187
187
187
188
188
188
181
181
181
188
188
188
192
192
192
133
133
133
175
175
175
115
115
115
131
131
131
180
180
180
131
131
131
186
186
186
183
183
183
142
142
142
145
145
145
145
145
145
135
135
135
134
134
134
135
135
135
184
184
184
187
187
187
126
126
126
176
176
176
115
115
115
131
131
131
178
178
178
134
134
134
192
192
192
186
186
186
132
132
132
194
194
194
196
196
196
210
210
210
196
196
196
134
134
134
180
180
180
186
186
186
133
133
133
176
176
176
131
131
131
131
131
131
183
183
183
133
133
133
197
197
197
181
181
181
144
144
144
189
189
189
180
180
180
180
180
180
198
198
198
137
137
137
170
170
170
180
180
180
136
136
136
185
185
185
115
115
115
117
117
117
178
178
178
148
148
148
195
195
195
180
180
180
142
142
142
186
186
186
180
180
180
180
180
180
197
197
197
135
135
135
178
178
178
177
177
177
128
128
128
187
187
187
115
115
115
123
123
123
172
172
172
131
131
131
197
197
197
182
182
182
134
134
134
188
188
188
194
194
194
194
194
194
190
190
190
135
135
135
177
177
177
196
196
196
131
131
131
180
180
180
115
115
115
119
119
119
173
173
173
145
145
145
182
182
182
180
180
180
132
132
132
133
133
133
133
133
133
136
136
136
135
135
135
135
135
135
188
188
188
194
194
194
133
133
133
180
180
180
115
115
115
131
131
131
181
181
181
142
142
142
187
187
187
188
188
188
187
187
187
175
175
175
176
176
176
174
174
174
178
178
178
180
180
180
188
188
188
186
186
186
145
145
145
177
177
177
115
115
115
131
131
131
177
177
177
134
134
134
193
193
193
192
192
192
187
187
187
184
184
184
177
177
177
192
192
192
193
193
193
195
195
195
190
190
190
187
187
187
133
133
133
185
185
185
131
131
131
131
131
131
177
177
177
123
123
123
135
135
135
152
152
152
146
146
146
136
136
136
143
143
143
139
139
139
139
139
139
134
134
134
144
144
144
150
150
150
140
140
140
172
172
172
131
131
131
131
131
131
185
185
185
185
185
185
185
185
185
185
185
185
187
187
187
164
164
164
170
170
170
181
181
181
176
176
176
166
166
166
180
180
180
185
185
185
185
185
185
185
185
185
115
115
115
115
115
115
115
115
115
131
131
131
115
115
115
115
115
115
115
115
115
131
131
131
115
115
115
115
115
115
115
115
115
115
115
115
115
115
115
131
131
131
131
131
131
131
131
131
115
115
115
