P3
# Created by GIMP version 2.10.36 PNM plug-in
16 16
255
210
210
210
199
199
199
199
199
199
199
199
199
199
199
199
210
210
210
226
226
226
226
226
226
187
187
187
226
226
226
210
210
210
199
199
199
199
199
199
199
199
199
199
199
199
210
210
210
86
86
86
86
86
86
102
102
102
102
102
102
102
102
102
102
102
102
75
75
75
75
75
75
75
75
75
102
102
102
102
102
102
102
102
102
63
63
63
86
86
86
86
86
86
75
75
75
210
210
210
187
187
187
199
199
199
199
199
199
187
187
187
199
199
199
199
199
199
199
199
199
226
226
226
199
199
199
210
210
210
210
210
210
210
210
210
226
226
226
210
210
210
210
210
210
210
210
210
226
226
226
210
210
210
210
210
210
210
210
210
187
187
187
210
210
210
226
226
226
210
210
210
210
210
210
199
199
199
199
199
199
199
199
199
199
199
199
199
199
199
210
210
210
86
86
86
102
102
102
102
102
102
75
75
75
75
75
75
75
75
75
75
75
75
75
75
75
75
75
75
75
75
75
102
102
102
102
102
102
102
102
102
102
102
102
102
102
102
63
63
63
199
199
199
199
199
199
210
210
210
210
210
210
210
210
210
199
199
199
199
199
199
199
199
199
210
210
210
187
187
187
210
210
210
210
210
210
199
199
199
199
199
199
187
187
187
210
210
210
226
226
226
226
226
226
210
210
210
211
211
211
210
210
210
199
199
199
226
226
226
226
226
226
210
210
210
210
210
210
210
210
210
210
210
210
226
226
226
226
226
226
226
226
226
187
187
187
210
210
210
210
210
210
210
210
210
199
199
199
199
199
199
199
199
199
199
199
199
199
199
199
199
199
199
187
187
187
199
199
199
199
199
199
199
199
199
199
199
199
210
210
210
210
210
210
86
86
86
102
102
102
102
102
102
63
63
63
102
102
102
75
75
75
86
86
86
86
86
86
86
86
86
102
102
102
102
102
102
102
102
102
102
102
102
102
102
102
102
102
102
102
102
102
86
86
86
75
75
75
75
75
75
75
75
75
75
75
75
75
75
75
75
75
75
86
86
86
63
63
63
86
86
86
86
86
86
75
75
75
75
75
75
75
75
75
102
102
102
86
86
86
86
86
86
86
86
86
102
102
102
75
75
75
75
75
75
102
102
102
102
102
102
75
75
75
63
63
63
75
75
75
102
102
102
102
102
102
102
102
102
86
86
86
86
86
86
86
86
86
187
187
187
210
210
210
210
210
210
210
210
210
199
199
199
210
210
210
210
210
210
210
210
210
226
226
226
226
226
226
210
210
210
210
210
210
210
210
210
226
226
226
226
226
226
187
187
187
210
210
210
199
199
199
199
199
199
199
199
199
199
199
199
199
199
199
199
199
199
199
199
199
226
226
226
226
226
226
199
199
199
199
199
199
199
199
199
199
199
199
199
199
199
210
210
210
86
86
86
102
102
102
102
102
102
102
102
102
102
102
102
102
102
102
86
86
86
75
75
75
75
75
75
75
75
75
63
63
63
75
75
75
86
86
86
86
86
86
102
102
102
102
102
102
210
210
210
210
210
210
210
210
210
199
199
199
199
199
199
199
199
199
199
199
199
199
199
199
210
210
210
210
210
210
226
226
226
226
226
226
210
210
210
199
199
199
199
199
199
210
210
210
75
75
75
75
75
75
75
75
75
75
75
75
63
63
63
102
102
102
102
102
102
86
86
86
86
86
86
86
86
86
86
86
86
75
75
75
75
75
75
75
75
75
86
86
86
86
86
86
