P3
# Created by GIMP version 2.10.36 PNM plug-in
16 16
255
188
188
188
182
182
182
182
182
182
182
182
182
182
182
182
188
188
188
198
198
198
198
198
198
176
176
176
198
198
198
188
188
188
182
182
182
182
182
182
182
182
182
182
182
182
188
188
188
132
132
132
132
132
132
137
137
137
137
137
137
137
137
137
137
137
137
129
129
129
129
129
129
129
129
129
137
137
137
137
137
137
137
137
137
126
126
126
132
132
132
132
132
132
129
129
129
188
188
188
176
176
176
182
182
182
182
182
182
176
176
176
182
182
182
182
182
182
182
182
182
198
198
198
182
182
182
188
188
188
188
188
188
188
188
188
198
198
198
188
188
188
188
188
188
188
188
188
198
198
198
188
188
188
188
188
188
188
188
188
176
176
176
188
188
188
198
198
198
188
188
188
188
188
188
182
182
182
182
182
182
182
182
182
182
182
182
182
182
182
188
188
188
132
132
132
137
137
137
137
137
137
129
129
129
129
129
129
129
129
129
129
129
129
129
129
129
129
129
129
129
129
129
137
137
137
137
137
137
137
137
137
137
137
137
137
137
137
126
126
126
182
182
182
182
182
182
188
188
188
188
188
188
188
188
188
182
182
182
182
182
182
182
182
182
188
188
188
176
176
176
188
188
188
188
188
188
182
182
182
182
182
182
176
176
176
188
188
188
198
198
198
198
198
198
188
188
188
189
189
189
188
188
188
182
182
182
198
198
198
198
198
198
188
188
188
188
188
188
188
188
188
188
188
188
198
198
198
198
198
198
198
198
198
176
176
176
188
188
188
188
188
188
188
188
188
182
182
182
182
182
182
182
182
182
182
182
182
182
182
182
182
182
182
176
176
176
182
182
182
182
182
182
182
182
182
182
182
182
188
188
188
188
188
188
132
132
132
137
137
137
137
137
137
126
126
126
137
137
137
129
129
129
132
132
132
132
132
132
132
132
132
137
137
137
137
137
137
137
137
137
137
137
137
137
137
137
137
137
137
137
137
137
132
132
132
129
129
129
129
129
129
129
129
129
129
129
129
129
129
129
129
129
129
132
132
132
126
126
126
132
132
132
132
132
132
129
129
129
129
129
129
129
129
129
137
137
137
132
132
132
132
132
132
132
132
132
137
137
137
129
129
129
129
129
129
137
137
137
137
137
137
129
129
129
126
126
126
129
129
129
137
137
137
137
137
137
137
137
137
132
132
132
132
132
132
132
132
132
176
176
176
188
188
188
188
188
188
188
188
188
182
182
182
188
188
188
188
188
188
188
188
188
198
198
198
198
198
198
188
188
188
188
188
188
188
188
188
198
198
198
198
198
198
176
176
176
188
188
188
182
182
182
182
182
182
182
182
182
182
182
182
182
182
182
182
182
182
182
182
182
198
198
198
198
198
198
182
182
182
182
182
182
182
182
182
182
182
182
182
182
182
188
188
188
132
132
132
137
137
137
137
137
137
137
137
137
137
137
137
137
137
137
132
132
132
129
129
129
129
129
129
129
129
129
126
126
126
129
129
129
132
132
132
132
132
132
137
137
137
137
137
137
188
188
188
188
188
188
188
188
188
182
182
182
182
182
182
182
182
182
182
182
182
182
182
182
188
188
188
188
188
188
198
198
198
198
198
198
188
188
188
182
182
182
182
182
182
188
188
188
129
129
129
129
129
129
129
129
129
129
129
129
126
126
126
137
137
137
137
137
137
132
132
132
132
132
132
132
132
132
132
132
132
129
129
129
129
129
129
129
129
129
132
132
132
132
132
132
