P3
# Created by GIMP version 2.10.30 PNM plug-in
16 16
255
101
100
96
101
100
96
101
100
96
101
100
96
101
100
96
101
100
96
101
100
96
101
100
96
101
100
96
101
100
96
101
100
96
101
100
96
101
100
96
101
100
96
101
100
96
101
100
96
101
100
96
101
100
96
101
100
96
101
100
96
101
100
96
101
100
96
101
100
96
101
100
96
101
100
96
101
100
96
101
100
96
101
100
96
101
100
96
101
100
96
101
100
96
101
100
96
101
100
96
101
100
96
101
100
96
101
100
96
101
100
96
101
100
96
101
100
96
101
100
96
101
100
96
101
100
96
101
100
96
101
100
96
101
100
96
101
100
96
101
100
96
101
100
96
101
100
96
101
100
96
101
100
96
101
100
96
101
100
96
101
100
96
101
100
96
101
100
96
101
100
96
101
100
96
101
100
96
101
100
96
101
100
96
101
100
96
101
100
96
101
100
96
101
100
96
101
100
96
101
100
96
101
100
96
101
100
96
101
100
96
101
100
96
101
100
96
101
100
96
101
100
96
101
100
96
101
100
96
101
100
96
101
100
96
101
100
96
101
100
96
101
100
96
101
100
96
101
100
96
101
100
96
101
100
96
101
100
96
101
100
96
101
100
96
101
100
96
101
100
96
101
100
96
101
100
96
101
100
96
101
100
96
101
100
96
101
100
96
101
100
96
101
100
96
101
100
96
101
100
96
101
100
96
101
100
96
101
100
96
101
100
96
101
100
96
101
100
96
101
100
96
101
100
96
101
100
96
101
100
96
101
100
96
101
100
96
101
100
96
101
100
96
101
100
96
101
100
96
101
100
96
101
100
96
101
100
96
101
100
96
101
100
96
101
100
96
101
100
96
101
100
96
101
100
96
101
100
96
101
100
96
101
100
96
101
100
96
101
100
96
101
100
96
101
100
96
101
100
96
101
100
96
101
100
96
101
100
96
101
100
96
101
100
96
101
100
96
101
100
96
101
100
96
101
100
96
101
100
96
101
100
96
101
100
96
101
100
96
101
100
96
101
100
96
101
100
96
101
100
96
101
100
96
101
100
96
101
100
96
101
100
96
101
100
96
101
100
96
101
100
96
101
100
96
101
100
96
101
100
96
101
100
96
101
100
96
101
100
96
101
100
96
101
100
96
101
100
96
101
100
96
101
100
96
101
100
96
101
100
96
101
100
96
101
100
96
101
100
96
101
100
96
101
100
96
101
100
96
101
100
96
101
100
96
101
100
96
101
100
96
101
100
96
101
100
96
101
100
96
101
100
96
101
100
96
101
100
96
101
100
96
101
100
96
101
100
96
101
100
96
101
100
96
101
100
96
101
100
96
101
100
96
101
100
96
101
100
96
101
100
96
101
100
96
101
100
96
101
100
96
101
100
96
101
100
96
101
100
96
101
100
96
101
100
96
101
100
96
101
100
96
101
100
96
101
100
96
101
100
96
101
100
96
101
100
96
101
100
96
101
100
96
101
100
96
101
100
96
101
100
96
101
100
96
101
100
96
101
100
96
101
100
96
101
100
96
101
100
96
101
100
96
101
100
96
101
100
96
101
100
96
101
100
96
101
100
96
101
100
96
101
100
96
101
100
96
101
100
96
101
100
96
101
100
96
101
100
96
101
100
96
101
100
96
101
100
96
101
100
96
101
100
96
101
100
96
101
100
96
101
100
96
101
100
96
101
100
96
101
100
96
101
100
96
101
100
96
101
100
96
101
100
96
101
100
96
101
100
96
101
100
96
101
100
96
101
100
96
