P3
# Created by GIMP version 2.10.30 PNM plug-in
16 16
255
117
133
84
117
133
84
117
133
84
117
133
84
117
133
84
117
133
84
117
133
84
117
133
84
117
133
84
117
133
84
117
133
84
117
133
84
117
133
84
117
133
84
117
133
84
117
133
84
117
133
84
117
133
84
117
133
84
117
133
84
117
133
84
117
133
84
117
133
84
117
133
84
117
133
84
117
133
84
117
133
84
117
133
84
117
133
84
117
133
84
117
133
84
117
133
84
117
133
84
117
133
84
117
133
84
117
133
84
117
133
84
117
133
84
117
133
84
117
133
84
117
133
84
117
133
84
117
133
84
117
133
84
117
133
84
117
133
84
117
133
84
117
133
84
117
133
84
117
133
84
117
133
84
117
133
84
117
133
84
117
133
84
117
133
84
117
133
84
117
133
84
117
133
84
117
133
84
117
133
84
117
133
84
117
133
84
117
133
84
117
133
84
117
133
84
117
133
84
117
133
84
117
133
84
117
133
84
117
133
84
117
133
84
117
133
84
117
133
84
117
133
84
117
133
84
117
133
84
117
133
84
117
133
84
117
133
84
117
133
84
117
133
84
117
133
84
117
133
84
117
133
84
117
133
84
117
133
84
117
133
84
117
133
84
117
133
84
117
133
84
117
133
84
117
133
84
117
133
84
117
133
84
117
133
84
117
133
84
117
133
84
117
133
84
117
133
84
117
133
84
117
133
84
117
133
84
117
133
84
117
133
84
117
133
84
117
133
84
117
133
84
117
133
84
117
133
84
117
133
84
117
133
84
117
133
84
117
133
84
117
133
84
117
133
84
117
133
84
117
133
84
117
133
84
117
133
84
117
133
84
117
133
84
117
133
84
117
133
84
117
133
84
117
133
84
117
133
84
117
133
84
117
133
84
117
133
84
117
133
84
117
133
84
117
133
84
117
133
84
117
133
84
117
133
84
117
133
84
117
133
84
117
133
84
117
133
84
117
133
84
117
133
84
117
133
84
117
133
84
117
133
84
117
133
84
117
133
84
117
133
84
117
133
84
117
133
84
117
133
84
117
133
84
117
133
84
117
133
84
117
133
84
117
133
84
117
133
84
117
133
84
117
133
84
117
133
84
117
133
84
117
133
84
117
133
84
117
133
84
117
133
84
117
133
84
117
133
84
117
133
84
117
133
84
117
133
84
117
133
84
117
133
84
117
133
84
117
133
84
117
133
84
117
133
84
117
133
84
117
133
84
117
133
84
117
133
84
117
133
84
117
133
84
117
133
84
117
133
84
117
133
84
117
133
84
117
133
84
117
133
84
117
133
84
117
133
84
117
133
84
117
133
84
117
133
84
117
133
84
117
133
84
117
133
84
117
133
84
117
133
84
117
133
84
117
133
84
117
133
84
117
133
84
117
133
84
117
133
84
117
133
84
117
133
84
117
133
84
117
133
84
117
133
84
117
133
84
117
133
84
117
133
84
117
133
84
117
133
84
117
133
84
117
133
84
117
133
84
117
133
84
117
133
84
117
133
84
117
133
84
117
133
84
117
133
84
117
133
84
117
133
84
117
133
84
117
133
84
117
133
84
117
133
84
117
133
84
117
133
84
117
133
84
117
133
84
117
133
84
117
133
84
117
133
84
117
133
84
117
133
84
117
133
84
117
133
84
117
133
84
117
133
84
117
133
84
117
133
84
117
133
84
117
133
84
117
133
84
117
133
84
117
133
84
117
133
84
117
133
84
117
133
84
117
133
84
117
133
84
117
133
84
117
133
84
117
133
84
