P3
# Created by GIMP version 2.10.30 PNM plug-in
16 16
255
141
142
131
141
142
131
141
142
131
141
142
131
141
142
131
141
142
131
141
142
131
141
142
131
141
142
131
141
142
131
141
142
131
141
142
131
141
142
131
141
142
131
141
142
131
141
142
131
141
142
131
141
142
131
141
142
131
141
142
131
141
142
131
141
142
131
141
142
131
141
142
131
141
142
131
141
142
131
141
142
131
141
142
131
141
142
131
141
142
131
141
142
131
141
142
131
141
142
131
141
142
131
141
142
131
141
142
131
141
142
131
141
142
131
141
142
131
141
142
131
141
142
131
141
142
131
141
142
131
141
142
131
141
142
131
141
142
131
141
142
131
141
142
131
141
142
131
141
142
131
141
142
131
141
142
131
141
142
131
141
142
131
141
142
131
141
142
131
141
142
131
141
142
131
141
142
131
141
142
131
141
142
131
141
142
131
141
142
131
141
142
131
141
142
131
141
142
131
141
142
131
141
142
131
141
142
131
141
142
131
141
142
131
141
142
131
141
142
131
141
142
131
141
142
131
141
142
131
141
142
131
141
142
131
141
142
131
141
142
131
141
142
131
141
142
131
141
142
131
141
142
131
141
142
131
141
142
131
141
142
131
141
142
131
141
142
131
141
142
131
141
142
131
141
142
131
141
142
131
141
142
131
141
142
131
141
142
131
141
142
131
141
142
131
141
142
131
141
142
131
141
142
131
141
142
131
141
142
131
141
142
131
141
142
131
141
142
131
141
142
131
141
142
131
141
142
131
141
142
131
141
142
131
141
142
131
141
142
131
141
142
131
141
142
131
141
142
131
141
142
131
141
142
131
141
142
131
141
142
131
141
142
131
141
142
131
141
142
131
141
142
131
141
142
131
141
142
131
141
142
131
141
142
131
141
142
131
141
142
131
141
142
131
141
142
131
141
142
131
141
142
131
141
142
131
141
142
131
141
142
131
141
142
131
141
142
131
141
142
131
141
142
131
141
142
131
141
142
131
141
142
131
141
142
131
141
142
131
141
142
131
141
142
131
141
142
131
141
142
131
141
142
131
141
142
131
141
142
131
141
142
131
141
142
131
141
142
131
141
142
131
141
142
131
141
142
131
141
142
131
141
142
131
141
142
131
141
142
131
141
142
131
141
142
131
141
142
131
141
142
131
141
142
131
141
142
131
141
142
131
141
142
131
141
142
131
141
142
131
141
142
131
141
142
131
141
142
131
141
142
131
141
142
131
141
142
131
141
142
131
141
142
131
141
142
131
141
142
131
141
142
131
141
142
131
141
142
131
141
142
131
141
142
131
141
142
131
141
142
131
141
142
131
141
142
131
141
142
131
141
142
131
141
142
131
141
142
131
141
142
131
141
142
131
141
142
131
141
142
131
141
142
131
141
142
131
141
142
131
141
142
131
141
142
131
141
142
131
141
142
131
141
142
131
141
142
131
141
142
131
141
142
131
141
142
131
141
142
131
141
142
131
141
142
131
141
142
131
141
142
131
141
142
131
141
142
131
141
142
131
141
142
131
141
142
131
141
142
131
141
142
131
141
142
131
141
142
131
141
142
131
141
142
131
141
142
131
141
142
131
141
142
131
141
142
131
141
142
131
141
142
131
141
142
131
141
142
131
141
142
131
141
142
131
141
142
131
141
142
131
141
142
131
141
142
131
141
142
131
141
142
131
141
142
131
141
142
131
141
142
131
141
142
131
141
142
131
141
142
131
141
142
131
141
142
131
141
142
131
141
142
131
141
142
131
141
142
131
