P3
# Created by GIMP version 2.10.30 PNM plug-in
16 16
255
153
107
101
153
107
101
153
107
101
153
107
101
153
107
101
153
107
101
153
107
101
153
107
101
153
107
101
153
107
101
153
107
101
153
107
101
153
107
101
153
107
101
153
107
101
153
107
101
153
107
101
153
107
101
153
107
101
153
107
101
153
107
101
153
107
101
153
107
101
153
107
101
153
107
101
153
107
101
153
107
101
153
107
101
153
107
101
153
107
101
153
107
101
153
107
101
153
107
101
153
107
101
153
107
101
153
107
101
153
107
101
153
107
101
153
107
101
153
107
101
153
107
101
153
107
101
153
107
101
153
107
101
153
107
101
153
107
101
153
107
101
153
107
101
153
107
101
153
107
101
153
107
101
153
107
101
153
107
101
153
107
101
153
107
101
153
107
101
153
107
101
153
107
101
153
107
101
153
107
101
153
107
101
153
107
101
153
107
101
153
107
101
153
107
101
153
107
101
153
107
101
153
107
101
153
107
101
153
107
101
153
107
101
153
107
101
153
107
101
153
107
101
153
107
101
153
107
101
153
107
101
153
107
101
153
107
101
153
107
101
153
107
101
153
107
101
153
107
101
153
107
101
153
107
101
153
107
101
153
107
101
153
107
101
153
107
101
153
107
101
153
107
101
153
107
101
153
107
101
153
107
101
153
107
101
153
107
101
153
107
101
153
107
101
153
107
101
153
107
101
153
107
101
153
107
101
153
107
101
153
107
101
153
107
101
153
107
101
153
107
101
153
107
101
153
107
101
153
107
101
153
107
101
153
107
101
153
107
101
153
107
101
153
107
101
153
107
101
153
107
101
153
107
101
153
107
101
153
107
101
153
107
101
153
107
101
153
107
101
153
107
101
153
107
101
153
107
101
153
107
101
153
107
101
153
107
101
153
107
101
153
107
101
153
107
101
153
107
101
153
107
101
153
107
101
153
107
101
153
107
101
153
107
101
153
107
101
153
107
101
153
107
101
153
107
101
153
107
101
153
107
101
153
107
101
153
107
101
153
107
101
153
107
101
153
107
101
153
107
101
153
107
101
153
107
101
153
107
101
153
107
101
153
107
101
153
107
101
153
107
101
153
107
101
153
107
101
153
107
101
153
107
101
153
107
101
153
107
101
153
107
101
153
107
101
153
107
101
153
107
101
153
107
101
153
107
101
153
107
101
153
107
101
153
107
101
153
107
101
153
107
101
153
107
101
153
107
101
153
107
101
153
107
101
153
107
101
153
107
101
153
107
101
153
107
101
153
107
101
153
107
101
153
107
101
153
107
101
153
107
101
153
107
101
153
107
101
153
107
101
153
107
101
153
107
101
153
107
101
153
107
101
153
107
101
153
107
101
153
107
101
153
107
101
153
107
101
153
107
101
153
107
101
153
107
101
153
107
101
153
107
101
153
107
101
153
107
101
153
107
101
153
107
101
153
107
101
153
107
101
153
107
101
153
107
101
153
107
101
153
107
101
153
107
101
153
107
101
153
107
101
153
107
101
153
107
101
153
107
101
153
107
101
153
107
101
153
107
101
153
107
101
153
107
101
153
107
101
153
107
101
153
107
101
153
107
101
153
107
101
153
107
101
153
107
101
153
107
101
153
107
101
153
107
101
153
107
101
153
107
101
153
107
101
153
107
101
153
107
101
153
107
101
153
107
101
153
107
101
153
107
101
153
107
101
153
107
101
153
107
101
153
107
101
153
107
101
153
107
101
153
107
101
153
107
101
153
107
101
153
107
101
153
107
101
153
107
101
