P3
# Created by GIMP version 2.10.30 PNM plug-in
16 16
255
125
108
56
125
108
56
125
108
56
125
108
56
125
108
56
125
108
56
125
108
56
125
108
56
125
108
56
125
108
56
125
108
56
125
108
56
125
108
56
125
108
56
125
108
56
125
108
56
125
108
56
125
108
56
125
108
56
125
108
56
125
108
56
125
108
56
125
108
56
125
108
56
125
108
56
125
108
56
125
108
56
125
108
56
125
108
56
125
108
56
125
108
56
125
108
56
125
108
56
125
108
56
125
108
56
125
108
56
125
108
56
125
108
56
125
108
56
125
108
56
125
108
56
125
108
56
125
108
56
125
108
56
125
108
56
125
108
56
125
108
56
125
108
56
125
108
56
125
108
56
125
108
56
125
108
56
125
108
56
125
108
56
125
108
56
125
108
56
125
108
56
125
108
56
125
108
56
125
108
56
125
108
56
125
108
56
125
108
56
125
108
56
125
108
56
125
108
56
125
108
56
125
108
56
125
108
56
125
108
56
125
108
56
125
108
56
125
108
56
125
108
56
125
108
56
125
108
56
125
108
56
125
108
56
125
108
56
125
108
56
125
108
56
125
108
56
125
108
56
125
108
56
125
108
56
125
108
56
125
108
56
125
108
56
125
108
56
125
108
56
125
108
56
125
108
56
125
108
56
125
108
56
125
108
56
125
108
56
125
108
56
125
108
56
125
108
56
125
108
56
125
108
56
125
108
56
125
108
56
125
108
56
125
108
56
125
108
56
125
108
56
125
108
56
125
108
56
125
108
56
125
108
56
125
108
56
125
108
56
125
108
56
125
108
56
125
108
56
125
108
56
125
108
56
125
108
56
125
108
56
125
108
56
125
108
56
125
108
56
125
108
56
125
108
56
125
108
56
125
108
56
125
108
56
125
108
56
125
108
56
125
108
56
125
108
56
125
108
56
125
108
56
125
108
56
125
108
56
125
108
56
125
108
56
125
108
56
125
108
56
125
108
56
125
108
56
125
108
56
125
108
56
125
108
56
125
108
56
125
108
56
125
108
56
125
108
56
125
108
56
125
108
56
125
108
56
125
108
56
125
108
56
125
108
56
125
108
56
125
108
56
125
108
56
125
108
56
125
108
56
125
108
56
125
108
56
125
108
56
125
108
56
125
108
56
125
108
56
125
108
56
125
108
56
125
108
56
125
108
56
125
108
56
125
108
56
125
108
56
125
108
56
125
108
56
125
108
56
125
108
56
125
108
56
125
108
56
125
108
56
125
108
56
125
108
56
125
108
56
125
108
56
125
108
56
125
108
56
125
108
56
125
108
56
125
108
56
125
108
56
125
108
56
125
108
56
125
108
56
125
108
56
125
108
56
125
108
56
125
108
56
125
108
56
125
108
56
125
108
56
125
108
56
125
108
56
125
108
56
125
108
56
125
108
56
125
108
56
125
108
56
125
108
56
125
108
56
125
108
56
125
108
56
125
108
56
125
108
56
125
108
56
125
108
56
125
108
56
125
108
56
125
108
56
125
108
56
125
108
56
125
108
56
125
108
56
125
108
56
125
108
56
125
108
56
125
108
56
125
108
56
125
108
56
125
108
56
125
108
56
125
108
56
125
108
56
125
108
56
125
108
56
125
108
56
125
108
56
125
108
56
125
108
56
125
108
56
125
108
56
125
108
56
125
108
56
125
108
56
125
108
56
125
108
56
125
108
56
125
108
56
125
108
56
125
108
56
125
108
56
125
108
56
125
108
56
125
108
56
125
108
56
125
108
56
125
108
56
