P3
# Created by GIMP version 2.10.30 PNM plug-in
16 16
255
158
111
54
158
111
54
158
111
54
158
111
54
158
111
54
158
111
54
158
111
54
158
111
54
158
111
54
158
111
54
158
111
54
158
111
54
158
111
54
158
111
54
158
111
54
158
111
54
158
111
54
158
111
54
158
111
54
158
111
54
158
111
54
158
111
54
158
111
54
158
111
54
158
111
54
158
111
54
158
111
54
158
111
54
158
111
54
158
111
54
158
111
54
158
111
54
158
111
54
158
111
54
158
111
54
158
111
54
158
111
54
158
111
54
158
111
54
158
111
54
158
111
54
158
111
54
158
111
54
158
111
54
158
111
54
158
111
54
158
111
54
158
111
54
158
111
54
158
111
54
158
111
54
158
111
54
158
111
54
158
111
54
158
111
54
158
111
54
158
111
54
158
111
54
158
111
54
158
111
54
158
111
54
158
111
54
158
111
54
158
111
54
158
111
54
158
111
54
158
111
54
158
111
54
158
111
54
158
111
54
158
111
54
158
111
54
158
111
54
158
111
54
158
111
54
158
111
54
158
111
54
158
111
54
158
111
54
158
111
54
158
111
54
158
111
54
158
111
54
158
111
54
158
111
54
158
111
54
158
111
54
158
111
54
158
111
54
158
111
54
158
111
54
158
111
54
158
111
54
158
111
54
158
111
54
158
111
54
158
111
54
158
111
54
158
111
54
158
111
54
158
111
54
158
111
54
158
111
54
158
111
54
158
111
54
158
111
54
158
111
54
158
111
54
158
111
54
158
111
54
158
111
54
158
111
54
158
111
54
158
111
54
158
111
54
158
111
54
158
111
54
158
111
54
158
111
54
158
111
54
158
111
54
158
111
54
158
111
54
158
111
54
158
111
54
158
111
54
158
111
54
158
111
54
158
111
54
158
111
54
158
111
54
158
111
54
158
111
54
158
111
54
158
111
54
158
111
54
158
111
54
158
111
54
158
111
54
158
111
54
158
111
54
158
111
54
158
111
54
158
111
54
158
111
54
158
111
54
158
111
54
158
111
54
158
111
54
158
111
54
158
111
54
158
111
54
158
111
54
158
111
54
158
111
54
158
111
54
158
111
54
158
111
54
158
111
54
158
111
54
158
111
54
158
111
54
158
111
54
158
111
54
158
111
54
158
111
54
158
111
54
158
111
54
158
111
54
158
111
54
158
111
54
158
111
54
158
111
54
158
111
54
158
111
54
158
111
54
158
111
54
158
111
54
158
111
54
158
111
54
158
111
54
158
111
54
158
111
54
158
111
54
158
111
54
158
111
54
158
111
54
158
111
54
158
111
54
158
111
54
158
111
54
158
111
54
158
111
54
158
111
54
158
111
54
158
111
54
158
111
54
158
111
54
158
111
54
158
111
54
158
111
54
158
111
54
158
111
54
158
111
54
158
111
54
158
111
54
158
111
54
158
111
54
158
111
54
158
111
54
158
111
54
158
111
54
158
111
54
158
111
54
158
111
54
158
111
54
158
111
54
158
111
54
158
111
54
158
111
54
158
111
54
158
111
54
158
111
54
158
111
54
158
111
54
158
111
54
158
111
54
158
111
54
158
111
54
158
111
54
158
111
54
158
111
54
158
111
54
158
111
54
158
111
54
158
111
54
158
111
54
158
111
54
158
111
54
158
111
54
158
111
54
158
111
54
158
111
54
158
111
54
158
111
54
158
111
54
158
111
54
158
111
54
158
111
54
158
111
54
158
111
54
158
111
54
158
111
54
158
111
54
158
111
54
158
111
54
