P3
# Created by GIMP version 2.10.30 PNM plug-in
16 16
255
152
132
134
152
132
134
152
132
134
152
132
134
152
132
134
152
132
134
152
132
134
152
132
134
152
132
134
152
132
134
152
132
134
152
132
134
152
132
134
152
132
134
152
132
134
152
132
134
152
132
134
152
132
134
152
132
134
152
132
134
152
132
134
152
132
134
152
132
134
152
132
134
152
132
134
152
132
134
152
132
134
152
132
134
152
132
134
152
132
134
152
132
134
152
132
134
152
132
134
152
132
134
152
132
134
152
132
134
152
132
134
152
132
134
152
132
134
152
132
134
152
132
134
152
132
134
152
132
134
152
132
134
152
132
134
152
132
134
152
132
134
152
132
134
152
132
134
152
132
134
152
132
134
152
132
134
152
132
134
152
132
134
152
132
134
152
132
134
152
132
134
152
132
134
152
132
134
152
132
134
152
132
134
152
132
134
152
132
134
152
132
134
152
132
134
152
132
134
152
132
134
152
132
134
152
132
134
152
132
134
152
132
134
152
132
134
152
132
134
152
132
134
152
132
134
152
132
134
152
132
134
152
132
134
152
132
134
152
132
134
152
132
134
152
132
134
152
132
134
152
132
134
152
132
134
152
132
134
152
132
134
152
132
134
152
132
134
152
132
134
152
132
134
152
132
134
152
132
134
152
132
134
152
132
134
152
132
134
152
132
134
152
132
134
152
132
134
152
132
134
152
132
134
152
132
134
152
132
134
152
132
134
152
132
134
152
132
134
152
132
134
152
132
134
152
132
134
152
132
134
152
132
134
152
132
134
152
132
134
152
132
134
152
132
134
152
132
134
152
132
134
152
132
134
152
132
134
152
132
134
152
132
134
152
132
134
152
132
134
152
132
134
152
132
134
152
132
134
152
132
134
152
132
134
152
132
134
152
132
134
152
132
134
152
132
134
152
132
134
152
132
134
152
132
134
152
132
134
152
132
134
152
132
134
152
132
134
152
132
134
152
132
134
152
132
134
152
132
134
152
132
134
152
132
134
152
132
134
152
132
134
152
132
134
152
132
134
152
132
134
152
132
134
152
132
134
152
132
134
152
132
134
152
132
134
152
132
134
152
132
134
152
132
134
152
132
134
152
132
134
152
132
134
152
132
134
152
132
134
152
132
134
152
132
134
152
132
134
152
132
134
152
132
134
152
132
134
152
132
134
152
132
134
152
132
134
152
132
134
152
132
134
152
132
134
152
132
134
152
132
134
152
132
134
152
132
134
152
132
134
152
132
134
152
132
134
152
132
134
152
132
134
152
132
134
152
132
134
152
132
134
152
132
134
152
132
134
152
132
134
152
132
134
152
132
134
152
132
134
152
132
134
152
132
134
152
132
134
152
132
134
152
132
134
152
132
134
152
132
134
152
132
134
152
132
134
152
132
134
152
132
134
152
132
134
152
132
134
152
132
134
152
132
134
152
132
134
152
132
134
152
132
134
152
132
134
152
132
134
152
132
134
152
132
134
152
132
134
152
132
134
152
132
134
152
132
134
152
132
134
152
132
134
152
132
134
152
132
134
152
132
134
152
132
134
152
132
134
152
132
134
152
132
134
152
132
134
152
132
134
152
132
134
152
132
134
152
132
134
152
132
134
152
132
134
152
132
134
152
132
134
152
132
134
152
132
134
152
132
134
152
132
134
152
132
134
152
132
134
152
132
134
152
132
134
152
132
134
152
132
134
152
132
134
152
132
134
152
132
134
152
132
134
152
132
134
152
132
134
152
132
134
152
132
134
152
132
134
