P3
# Created by GIMP version 2.10.30 PNM plug-in
16 16
255
154
125
109
154
125
109
154
125
109
154
125
109
154
125
109
154
125
109
154
125
109
154
125
109
154
125
109
154
125
109
154
125
109
154
125
109
154
125
109
154
125
109
154
125
109
154
125
109
154
125
109
154
125
109
154
125
109
154
125
109
154
125
109
154
125
109
154
125
109
154
125
109
154
125
109
154
125
109
154
125
109
154
125
109
154
125
109
154
125
109
154
125
109
154
125
109
154
125
109
154
125
109
154
125
109
154
125
109
154
125
109
154
125
109
154
125
109
154
125
109
154
125
109
154
125
109
154
125
109
154
125
109
154
125
109
154
125
109
154
125
109
154
125
109
154
125
109
154
125
109
154
125
109
154
125
109
154
125
109
154
125
109
154
125
109
154
125
109
154
125
109
154
125
109
154
125
109
154
125
109
154
125
109
154
125
109
154
125
109
154
125
109
154
125
109
154
125
109
154
125
109
154
125
109
154
125
109
154
125
109
154
125
109
154
125
109
154
125
109
154
125
109
154
125
109
154
125
109
154
125
109
154
125
109
154
125
109
154
125
109
154
125
109
154
125
109
154
125
109
154
125
109
154
125
109
154
125
109
154
125
109
154
125
109
154
125
109
154
125
109
154
125
109
154
125
109
154
125
109
154
125
109
154
125
109
154
125
109
154
125
109
154
125
109
154
125
109
154
125
109
154
125
109
154
125
109
154
125
109
154
125
109
154
125
109
154
125
109
154
125
109
154
125
109
154
125
109
154
125
109
154
125
109
154
125
109
154
125
109
154
125
109
154
125
109
154
125
109
154
125
109
154
125
109
154
125
109
154
125
109
154
125
109
154
125
109
154
125
109
154
125
109
154
125
109
154
125
109
154
125
109
154
125
109
154
125
109
154
125
109
154
125
109
154
125
109
154
125
109
154
125
109
154
125
109
154
125
109
154
125
109
154
125
109
154
125
109
154
125
109
154
125
109
154
125
109
154
125
109
154
125
109
154
125
109
154
125
109
154
125
109
154
125
109
154
125
109
154
125
109
154
125
109
154
125
109
154
125
109
154
125
109
154
125
109
154
125
109
154
125
109
154
125
109
154
125
109
154
125
109
154
125
109
154
125
109
154
125
109
154
125
109
154
125
109
154
125
109
154
125
109
154
125
109
154
125
109
154
125
109
154
125
109
154
125
109
154
125
109
154
125
109
154
125
109
154
125
109
154
125
109
154
125
109
154
125
109
154
125
109
154
125
109
154
125
109
154
125
109
154
125
109
154
125
109
154
125
109
154
125
109
154
125
109
154
125
109
154
125
109
154
125
109
154
125
109
154
125
109
154
125
109
154
125
109
154
125
109
154
125
109
154
125
109
154
125
109
154
125
109
154
125
109
154
125
109
154
125
109
154
125
109
154
125
109
154
125
109
154
125
109
154
125
109
154
125
109
154
125
109
154
125
109
154
125
109
154
125
109
154
125
109
154
125
109
154
125
109
154
125
109
154
125
109
154
125
109
154
125
109
154
125
109
154
125
109
154
125
109
154
125
109
154
125
109
154
125
109
154
125
109
154
125
109
154
125
109
154
125
109
154
125
109
154
125
109
154
125
109
154
125
109
154
125
109
154
125
109
154
125
109
154
125
109
154
125
109
154
125
109
154
125
109
154
125
109
154
125
109
154
125
109
154
125
109
154
125
109
154
125
109
154
125
109
154
125
109
154
125
109
154
125
109
154
125
109
154
125
109
154
125
109
154
125
109
154
125
109
