P3
# Created by GIMP version 2.10.30 PNM plug-in
16 16
255
172
90
127
172
90
127
172
90
127
172
90
127
172
90
127
172
90
127
172
90
127
172
90
127
172
90
127
172
90
127
172
90
127
172
90
127
172
90
127
172
90
127
172
90
127
172
90
127
172
90
127
172
90
127
172
90
127
172
90
127
172
90
127
172
90
127
172
90
127
172
90
127
172
90
127
172
90
127
172
90
127
172
90
127
172
90
127
172
90
127
172
90
127
172
90
127
172
90
127
172
90
127
172
90
127
172
90
127
172
90
127
172
90
127
172
90
127
172
90
127
172
90
127
172
90
127
172
90
127
172
90
127
172
90
127
172
90
127
172
90
127
172
90
127
172
90
127
172
90
127
172
90
127
172
90
127
172
90
127
172
90
127
172
90
127
172
90
127
172
90
127
172
90
127
172
90
127
172
90
127
172
90
127
172
90
127
172
90
127
172
90
127
172
90
127
172
90
127
172
90
127
172
90
127
172
90
127
172
90
127
172
90
127
172
90
127
172
90
127
172
90
127
172
90
127
172
90
127
172
90
127
172
90
127
172
90
127
172
90
127
172
90
127
172
90
127
172
90
127
172
90
127
172
90
127
172
90
127
172
90
127
172
90
127
172
90
127
172
90
127
172
90
127
172
90
127
172
90
127
172
90
127
172
90
127
172
90
127
172
90
127
172
90
127
172
90
127
172
90
127
172
90
127
172
90
127
172
90
127
172
90
127
172
90
127
172
90
127
172
90
127
172
90
127
172
90
127
172
90
127
172
90
127
172
90
127
172
90
127
172
90
127
172
90
127
172
90
127
172
90
127
172
90
127
172
90
127
172
90
127
172
90
127
172
90
127
172
90
127
172
90
127
172
90
127
172
90
127
172
90
127
172
90
127
172
90
127
172
90
127
172
90
127
172
90
127
172
90
127
172
90
127
172
90
127
172
90
127
172
90
127
172
90
127
172
90
127
172
90
127
172
90
127
172
90
127
172
90
127
172
90
127
172
90
127
172
90
127
172
90
127
172
90
127
172
90
127
172
90
127
172
90
127
172
90
127
172
90
127
172
90
127
172
90
127
172
90
127
172
90
127
172
90
127
172
90
127
172
90
127
172
90
127
172
90
127
172
90
127
172
90
127
172
90
127
172
90
127
172
90
127
172
90
127
172
90
127
172
90
127
172
90
127
172
90
127
172
90
127
172
90
127
172
90
127
172
90
127
172
90
127
172
90
127
172
90
127
172
90
127
172
90
127
172
90
127
172
90
127
172
90
127
172
90
127
172
90
127
172
90
127
172
90
127
172
90
127
172
90
127
172
90
127
172
90
127
172
90
127
172
90
127
172
90
127
172
90
127
172
90
127
172
90
127
172
90
127
172
90
127
172
90
127
172
90
127
172
90
127
172
90
127
172
90
127
172
90
127
172
90
127
172
90
127
172
90
127
172
90
127
172
90
127
172
90
127
172
90
127
172
90
127
172
90
127
172
90
127
172
90
127
172
90
127
172
90
127
172
90
127
172
90
127
172
90
127
172
90
127
172
90
127
172
90
127
172
90
127
172
90
127
172
90
127
172
90
127
172
90
127
172
90
127
172
90
127
172
90
127
172
90
127
172
90
127
172
90
127
172
90
127
172
90
127
172
90
127
172
90
127
172
90
127
172
90
127
172
90
127
172
90
127
172
90
127
172
90
127
172
90
127
172
90
127
172
90
127
172
90
127
172
90
127
172
90
127
172
90
127
172
90
127
172
90
127
172
90
127
