P3
# Created by GIMP version 2.10.30 PNM plug-in
16 16
255
167
82
94
167
82
94
167
82
94
167
82
94
167
82
94
167
82
94
167
82
94
167
82
94
167
82
94
167
82
94
167
82
94
167
82
94
167
82
94
167
82
94
167
82
94
167
82
94
167
82
94
167
82
94
167
82
94
167
82
94
167
82
94
167
82
94
167
82
94
167
82
94
167
82
94
167
82
94
167
82
94
167
82
94
167
82
94
167
82
94
167
82
94
167
82
94
167
82
94
167
82
94
167
82
94
167
82
94
167
82
94
167
82
94
167
82
94
167
82
94
167
82
94
167
82
94
167
82
94
167
82
94
167
82
94
167
82
94
167
82
94
167
82
94
167
82
94
167
82
94
167
82
94
167
82
94
167
82
94
167
82
94
167
82
94
167
82
94
167
82
94
167
82
94
167
82
94
167
82
94
167
82
94
167
82
94
167
82
94
167
82
94
167
82
94
167
82
94
167
82
94
167
82
94
167
82
94
167
82
94
167
82
94
167
82
94
167
82
94
167
82
94
167
82
94
167
82
94
167
82
94
167
82
94
167
82
94
167
82
94
167
82
94
167
82
94
167
82
94
167
82
94
167
82
94
167
82
94
167
82
94
167
82
94
167
82
94
167
82
94
167
82
94
167
82
94
167
82
94
167
82
94
167
82
94
167
82
94
167
82
94
167
82
94
167
82
94
167
82
94
167
82
94
167
82
94
167
82
94
167
82
94
167
82
94
167
82
94
167
82
94
167
82
94
167
82
94
167
82
94
167
82
94
167
82
94
167
82
94
167
82
94
167
82
94
167
82
94
167
82
94
167
82
94
167
82
94
167
82
94
167
82
94
167
82
94
167
82
94
167
82
94
167
82
94
167
82
94
167
82
94
167
82
94
167
82
94
167
82
94
167
82
94
167
82
94
167
82
94
167
82
94
167
82
94
167
82
94
167
82
94
167
82
94
167
82
94
167
82
94
167
82
94
167
82
94
167
82
94
167
82
94
167
82
94
167
82
94
167
82
94
167
82
94
167
82
94
167
82
94
167
82
94
167
82
94
167
82
94
167
82
94
167
82
94
167
82
94
167
82
94
167
82
94
167
82
94
167
82
94
167
82
94
167
82
94
167
82
94
167
82
94
167
82
94
167
82
94
167
82
94
167
82
94
167
82
94
167
82
94
167
82
94
167
82
94
167
82
94
167
82
94
167
82
94
167
82
94
167
82
94
167
82
94
167
82
94
167
82
94
167
82
94
167
82
94
167
82
94
167
82
94
167
82
94
167
82
94
167
82
94
167
82
94
167
82
94
167
82
94
167
82
94
167
82
94
167
82
94
167
82
94
167
82
94
167
82
94
167
82
94
167
82
94
167
82
94
167
82
94
167
82
94
167
82
94
167
82
94
167
82
94
167
82
94
167
82
94
167
82
94
167
82
94
167
82
94
167
82
94
167
82
94
167
82
94
167
82
94
167
82
94
167
82
94
167
82
94
167
82
94
167
82
94
167
82
94
167
82
94
167
82
94
167
82
94
167
82
94
167
82
94
167
82
94
167
82
94
167
82
94
167
82
94
167
82
94
167
82
94
167
82
94
167
82
94
167
82
94
167
82
94
167
82
94
167
82
94
167
82
94
167
82
94
167
82
94
167
82
94
167
82
94
167
82
94
167
82
94
167
82
94
167
82
94
167
82
94
167
82
94
167
82
94
167
82
94
167
82
94
167
82
94
167
82
94
167
82
94
167
82
94
167
82
94
167
82
94
