P3
# Created by GIMP version 2.10.36 PNM plug-in
16 16
255
77
77
77
77
77
77
77
77
77
77
77
77
77
77
77
77
77
77
77
77
77
77
77
77
77
77
77
77
77
77
77
77
77
77
77
77
107
107
107
77
77
77
77
77
77
77
77
77
77
77
77
77
77
77
77
77
77
77
77
77
77
77
77
77
77
77
77
77
77
77
77
77
77
77
77
77
77
77
79
79
79
46
46
46
24
24
24
103
103
103
77
77
77
77
77
77
77
77
77
77
77
77
77
77
77
77
77
77
91
91
91
77
77
77
77
77
77
77
77
77
77
77
77
77
77
77
32
32
32
106
106
106
127
127
127
81
81
81
77
77
77
77
77
77
77
77
77
77
77
77
77
77
77
25
25
25
96
96
96
77
77
77
77
77
77
77
77
77
77
77
77
99
99
99
46
46
46
117
117
117
77
77
77
77
77
77
77
77
77
77
77
77
77
77
77
77
77
77
77
77
77
86
86
86
32
32
32
77
77
77
86
86
86
77
77
77
77
77
77
32
32
32
77
77
77
83
83
83
77
77
77
116
116
116
77
77
77
77
77
77
77
77
77
77
77
77
79
79
79
109
109
109
30
30
30
106
106
106
37
37
37
77
77
77
77
77
77
30
30
30
77
77
77
116
116
116
31
31
31
26
26
26
77
77
77
77
77
77
77
77
77
87
87
87
43
43
43
115
115
115
117
117
117
15
15
15
77
77
77
77
77
77
77
77
77
31
31
31
120
120
120
32
32
32
116
116
116
103
103
103
93
93
93
77
77
77
77
77
77
91
91
91
95
95
95
19
19
19
20
20
20
38
38
38
89
89
89
77
77
77
77
77
77
77
77
77
35
35
35
119
119
119
84
84
84
32
32
32
26
26
26
92
92
92
77
77
77
77
77
77
77
77
77
109
109
109
77
77
77
15
15
15
131
131
131
77
77
77
77
77
77
87
87
87
36
36
36
23
23
23
29
29
29
88
88
88
77
77
77
81
81
81
77
77
77
77
77
77
106
106
106
116
116
116
111
111
111
77
77
77
34
34
34
77
77
77
77
77
77
109
109
109
25
25
25
77
77
77
77
77
77
77
77
77
77
77
77
77
77
77
77
77
77
111
111
111
14
14
14
19
19
19
80
80
80
119
119
119
34
34
34
77
77
77
77
77
77
27
27
27
77
77
77
95
95
95
77
77
77
104
104
104
77
77
77
77
77
77
77
77
77
77
77
77
89
89
89
109
109
109
33
33
33
26
26
26
17
17
17
77
77
77
77
77
77
22
22
22
110
110
110
106
106
106
18
18
18
73
73
73
77
77
77
77
77
77
77
77
77
77
77
77
77
77
77
90
90
90
113
113
113
77
77
77
21
21
21
119
119
119
77
77
77
26
26
26
33
33
33
20
20
20
115
115
115
77
77
77
77
77
77
77
77
77
77
77
77
77
77
77
77
77
77
77
77
77
10
10
10
79
79
79
77
77
77
19
19
19
77
77
77
9
9
9
113
113
113
95
95
95
77
77
77
77
77
77
77
77
77
77
77
77
77
77
77
77
77
77
77
77
77
91
91
91
120
120
120
25
25
25
28
28
28
19
19
19
77
77
77
11
11
11
77
77
77
77
77
77
77
77
77
77
77
77
77
77
77
77
77
77
77
77
77
77
77
77
77
77
77
77
77
77
77
77
77
77
77
77
77
77
77
20
20
20
14
14
14
77
77
77
77
77
77
77
77
77
77
77
77
77
77
77
77
77
77
77
77
77
