P3
# Created by GIMP version 2.10.36 PNM plug-in
16 16
255
32
138
171
36
142
175
22
128
161
22
128
161
39
145
178
60
166
199
18
124
157
37
143
176
31
137
170
48
154
187
18
124
157
37
143
176
19
125
158
6
112
145
42
148
181
67
173
206
39
145
178
46
152
185
47
153
186
29
135
168
37
143
176
42
148
181
47
153
186
15
121
154
20
126
159
71
177
210
13
119
152
8
114
147
116
222
255
105
211
244
35
141
174
29
135
168
37
143
176
78
184
217
39
145
178
82
188
255
12
118
151
16
122
155
42
148
181
61
167
200
61
167
200
17
123
156
39
145
178
78
184
217
37
143
176
47
153
186
12
118
151
38
144
177
23
129
162
33
139
172
7
113
146
37
143
176
36
142
175
39
145
178
29
135
168
20
126
159
22
128
161
84
190
223
16
122
155
40
146
179
22
128
161
48
154
187
40
146
179
38
144
177
8
114
147
16
122
155
78
184
217
35
141
174
55
161
194
35
141
174
19
125
158
86
192
225
91
197
230
33
139
172
43
149
182
34
140
173
64
170
203
35
141
174
16
122
155
14
120
153
103
209
242
72
178
211
8
114
147
42
148
181
13
119
152
55
161
194
81
187
220
38
144
177
42
148
181
34
140
173
35
141
174
42
148
181
16
122
155
15
121
154
78
184
217
75
181
214
33
139
172
8
114
147
42
148
181
9
115
148
73
179
212
38
144
177
43
149
182
42
148
181
64
170
203
61
167
200
16
122
155
10
116
149
76
182
215
77
183
216
31
137
170
36
142
175
42
148
181
36
142
175
40
146
179
19
125
158
61
167
200
39
145
178
41
147
180
24
130
163
19
125
158
14
120
153
47
153
186
29
135
168
23
129
162
15
121
154
46
152
185
62
168
201
16
122
155
34
140
173
75
181
214
42
148
181
12
118
151
23
129
162
9
115
148
81
187
220
83
189
222
53
159
192
37
143
176
16
122
155
47
153
186
35
141
174
36
142
175
12
118
151
82
188
255
36
142
175
18
124
157
15
121
154
72
178
211
87
193
226
77
183
216
22
128
161
42
148
181
38
144
177
81
187
220
39
145
178
17
123
156
51
157
190
38
144
177
62
168
201
46
152
185
44
150
183
58
164
197
71
177
210
31
137
170
37
143
176
58
164
197
33
139
172
18
124
157
23
129
162
44
150
183
8
114
147
40
146
179
22
128
161
75
181
214
35
141
174
18
124
157
91
197
230
33
139
172
41
147
180
23
129
162
42
148
181
14
120
153
76
182
215
38
144
177
30
136
169
35
141
174
44
150
183
74
180
213
62
168
201
24
130
163
35
141
174
82
188
255
6
112
145
75
181
214
63
169
202
45
151
184
42
148
181
38
144
177
65
171
204
60
166
199
63
169
202
38
144
177
31
137
170
38
144
177
41
147
180
71
177
210
15
121
154
87
193
226
39
145
178
6
112
145
41
147
180
41
147
180
42
148
181
35
141
174
18
124
157
23
129
162
43
149
182
20
126
159
47
153
186
29
135
168
10
116
149
30
136
169
0
105
138
40
146
179
35
141
174
33
139
172
27
133
166
14
120
153
10
116
149
0
104
137
83
189
222
103
209
242
38
144
177
15
121
154
17
123
156
73
179
212
87
193
226
19
125
158
80
186
219
52
158
191
58
164
197
16
122
155
87
193
226
86
192
225
14
120
153
81
187
220
43
149
182
36
142
175
62
168
201
88
194
227
43
149
182
23
129
162
35
141
174
10
116
149
31
137
170
