P3
# Created by GIMP version 2.10.36 PNM plug-in
16 16
255
147
147
140
151
151
144
137
137
130
137
137
130
154
154
147
175
175
168
133
133
126
152
152
145
146
146
139
163
163
156
133
133
126
152
152
145
134
134
127
121
121
114
157
157
150
182
182
175
154
154
147
161
161
154
162
162
155
144
144
137
152
152
145
157
157
150
162
162
155
130
130
123
135
135
128
186
186
179
128
128
121
123
123
116
231
231
224
220
220
213
150
150
143
144
144
137
152
152
145
193
193
186
154
154
147
197
197
190
127
127
120
131
131
124
157
157
150
176
176
169
176
176
169
132
132
125
154
154
147
193
193
186
152
152
145
162
162
155
127
127
120
153
153
146
138
138
131
148
148
141
122
122
115
152
152
145
151
151
144
154
154
147
144
144
137
135
135
128
137
137
130
199
199
192
131
131
124
155
155
148
137
137
130
163
163
156
155
155
148
153
153
146
123
123
116
131
131
124
193
193
186
150
150
143
170
170
163
150
150
143
134
134
127
201
201
194
206
206
199
148
148
141
158
158
151
149
149
142
179
179
172
150
150
143
131
131
124
129
129
122
218
218
211
187
187
180
123
123
116
157
157
150
128
128
121
170
170
163
196
196
189
153
153
146
157
157
150
149
149
142
150
150
143
157
157
150
131
131
124
130
130
123
193
193
186
190
190
183
148
148
141
123
123
116
157
157
150
124
124
117
188
188
181
153
153
146
158
158
151
157
157
150
179
179
172
176
176
169
131
131
124
125
125
118
191
191
184
192
192
185
146
146
139
151
151
144
157
157
150
151
151
144
155
155
148
134
134
127
176
176
169
154
154
147
156
156
149
139
139
132
134
134
127
129
129
122
162
162
155
144
144
137
138
138
131
130
130
123
161
161
154
177
177
170
131
131
124
149
149
142
190
190
183
157
157
150
127
127
120
138
138
131
124
124
117
196
196
189
198
198
191
168
168
161
152
152
145
131
131
124
162
162
155
150
150
143
151
151
144
127
127
120
197
197
190
151
151
144
133
133
126
130
130
123
187
187
180
202
202
195
192
192
185
137
137
130
157
157
150
153
153
146
196
196
189
154
154
147
132
132
125
166
166
159
153
153
146
177
177
170
161
161
154
159
159
152
173
173
166
186
186
179
146
146
139
152
152
145
173
173
166
148
148
141
133
133
126
138
138
131
159
159
152
123
123
116
155
155
148
137
137
130
190
190
183
150
150
143
133
133
126
206
206
199
148
148
141
156
156
149
138
138
131
157
157
150
129
129
122
191
191
184
153
153
146
145
145
138
150
150
143
159
159
152
189
189
182
177
177
170
139
139
132
150
150
143
197
197
190
121
121
114
190
190
183
178
178
171
160
160
153
157
157
150
153
153
146
180
180
173
175
175
168
178
178
171
153
153
146
146
146
139
153
153
146
156
156
149
186
186
179
130
130
123
202
202
195
154
154
147
121
121
114
156
156
149
156
156
149
157
157
150
150
150
143
133
133
126
138
138
131
158
158
151
135
135
128
162
162
155
144
144
137
125
125
118
145
145
138
114
114
107
155
155
148
150
150
143
148
148
141
142
142
135
129
129
122
125
125
118
113
113
106
198
198
191
218
218
211
153
153
146
130
130
123
132
132
125
188
188
181
202
202
195
134
134
127
195
195
188
167
167
160
173
173
166
131
131
124
202
202
195
201
201
194
129
129
122
196
196
189
158
158
151
151
151
144
177
177
170
203
203
196
158
158
151
138
138
131
150
150
143
125
125
118
146
146
139
