P3
# Created by GIMP version 2.10.36 PNM plug-in
16 16
255
171
77
0
175
81
0
161
67
0
161
67
0
178
84
0
255
105
6
157
63
0
176
82
0
170
76
0
187
93
0
157
63
0
176
82
0
158
64
0
145
51
0
181
87
0
206
112
13
178
84
0
185
91
0
186
92
0
168
74
0
176
82
0
181
87
0
186
92
0
154
60
0
159
65
0
210
116
17
152
58
0
147
53
0
255
161
62
244
150
51
174
80
0
168
74
0
176
82
0
217
123
24
178
84
0
221
127
28
151
57
0
155
61
0
181
87
0
200
106
7
200
106
7
156
62
0
178
84
0
217
123
24
176
82
0
186
92
0
151
57
0
177
83
0
162
68
0
172
78
0
146
52
0
176
82
0
175
81
0
178
84
0
168
74
0
159
65
0
161
67
0
223
129
30
155
61
0
179
85
0
161
67
0
187
93
0
179
85
0
177
83
0
147
53
0
155
61
0
217
123
24
174
80
0
194
100
1
174
80
0
158
64
0
225
131
32
230
136
37
172
78
0
182
88
0
173
79
0
203
109
10
174
80
0
155
61
0
153
59
0
242
148
49
211
117
18
147
53
0
181
87
0
152
58
0
194
100
1
220
126
27
177
83
0
181
87
0
173
79
0
174
80
0
181
87
0
155
61
0
154
60
0
217
123
24
214
120
21
172
78
0
147
53
0
181
87
0
148
54
0
212
118
19
177
83
0
182
88
0
181
87
0
203
109
10
200
106
7
155
61
0
149
55
0
215
121
22
216
122
23
170
76
0
175
81
0
181
87
0
175
81
0
179
85
0
158
64
0
200
106
7
178
84
0
180
86
0
163
69
0
158
64
0
153
59
0
186
92
0
168
74
0
162
68
0
154
60
0
185
91
0
201
107
8
155
61
0
173
79
0
214
120
21
181
87
0
151
57
0
162
68
0
148
54
0
220
126
27
222
128
29
192
98
0
176
82
0
155
61
0
186
92
0
174
80
0
175
81
0
151
57
0
221
127
28
175
81
0
157
63
0
154
60
0
211
117
18
226
132
33
216
122
23
161
67
0
181
87
0
177
83
0
220
126
27
178
84
0
156
62
0
190
96
0
177
83
0
201
107
8
185
91
0
183
89
0
197
103
4
210
116
17
170
76
0
176
82
0
197
103
4
172
78
0
157
63
0
162
68
0
183
89
0
147
53
0
179
85
0
161
67
0
214
120
21
174
80
0
157
63
0
230
136
37
172
78
0
180
86
0
162
68
0
181
87
0
153
59
0
215
121
22
177
83
0
169
75
0
174
80
0
183
89
0
213
119
20
201
107
8
163
69
0
174
80
0
221
127
28
145
51
0
214
120
21
202
108
9
184
90
0
181
87
0
177
83
0
204
110
11
255
105
6
202
108
9
177
83
0
170
76
0
177
83
0
180
86
0
210
116
17
154
60
0
226
132
33
178
84
0
145
51
0
180
86
0
180
86
0
181
87
0
174
80
0
157
63
0
162
68
0
182
88
0
159
65
0
186
92
0
168
74
0
149
55
0
169
75
0
138
44
0
179
85
0
174
80
0
172
78
0
166
72
0
153
59
0
149
55
0
137
43
0
222
128
29
242
148
49
177
83
0
154
60
0
156
62
0
212
118
19
226
132
33
158
64
0
219
125
26
191
97
0
197
103
4
155
61
0
226
132
33
225
131
32
153
59
0
220
126
27
182
88
0
175
81
0
201
107
8
227
133
34
182
88
0
162
68
0
174
80
0
149
55
0
170
76
0
