P3
# Created by GIMP version 2.10.36 PNM plug-in
16 16
255
139
249
83
40
164
183
137
133
13
4
121
228
149
72
242
108
30
242
171
57
210
67
121
218
219
154
106
238
144
174
211
97
246
162
192
133
175
118
248
236
86
160
121
68
34
61
178
114
11
185
130
173
94
173
71
140
146
111
75
134
195
24
19
23
188
156
181
211
171
91
249
73
175
51
182
121
237
122
204
10
39
141
27
10
189
214
132
137
125
97
4
5
168
165
181
236
177
179
211
233
91
145
21
243
80
93
78
95
244
189
169
161
68
1
223
31
20
38
204
109
220
242
93
104
247
41
251
166
199
119
12
220
193
192
27
61
89
151
99
41
174
97
89
22
148
222
154
200
59
127
187
172
30
189
115
24
170
128
95
238
200
26
107
32
249
34
101
204
22
84
244
146
94
225
156
53
60
132
28
200
49
235
162
220
142
162
158
51
207
243
116
244
184
196
17
85
236
147
181
48
246
70
204
31
204
171
145
216
188
199
244
10
94
142
98
33
160
244
65
191
252
249
126
19
171
55
92
237
243
72
223
155
140
208
43
48
206
154
116
217
50
128
13
27
192
45
204
122
250
136
46
173
158
76
204
232
36
16
10
117
208
186
116
28
44
236
238
42
234
106
234
1
105
200
223
171
243
116
82
47
127
194
243
222
162
141
211
198
148
142
175
10
37
27
13
198
229
255
120
199
45
130
78
234
184
123
140
82
123
246
225
70
112
84
70
148
152
124
102
216
37
70
177
9
127
15
200
142
135
82
191
253
41
146
244
48
151
227
235
155
93
90
69
209
28
44
72
164
231
236
164
224
91
182
213
118
198
43
181
122
210
13
65
185
227
106
216
54
165
92
207
228
168
160
77
38
141
253
211
214
84
203
112
186
95
86
125
89
167
145
116
228
106
68
86
225
92
225
11
165
204
202
159
9
175
54
12
230
76
200
123
208
250
40
213
33
126
116
225
31
93
15
199
170
109
230
22
194
6
196
25
184
53
225
146
25
57
201
198
171
8
46
91
41
150
191
39
247
145
229
180
237
68
227
118
93
232
245
179
138
224
236
249
134
237
64
43
25
76
65
7
182
27
158
139
138
192
55
39
164
85
163
24
216
0
157
188
61
249
122
190
178
142
25
151
246
59
47
86
168
194
65
156
6
109
88
135
247
145
165
243
86
37
212
1
212
204
254
231
141
26
153
247
131
251
228
207
6
115
215
52
120
50
35
241
116
36
14
118
119
136
220
191
34
213
253
74
124
254
55
205
7
211
191
149
95
229
150
110
235
29
219
140
171
246
125
65
38
51
194
211
33
213
235
115
212
172
128
181
179
146
192
32
198
160
156
219
4
27
228
110
50
135
46
71
85
192
85
218
209
67
187
6
16
189
241
220
156
51
47
240
55
187
91
46
203
17
217
138
60
193
109
81
143
222
137
56
231
225
139
209
101
60
92
43
12
137
30
216
3
113
243
141
166
84
182
134
219
143
237
239
35
131
254
6
138
253
186
97
123
203
176
40
111
81
98
72
165
39
151
252
3
120
111
236
44
121
47
115
199
60
255
136
28
96
218
184
162
223
49
195
227
224
65
240
9
29
22
112
250
154
110
147
91
181
116
71
22
127
21
134
251
106
68
126
245
153
113
41
209
242
29
136
45
119
208
211
80
132
184
246
202
144
125
56
207
248
159
202
2
4
91
94
189
0
250
251
150
141
99
187
137
190
82
177
52
222
103
127
214
188
86
34
29
32
41
171
42
