P3
# Created by GIMP version 2.10.30 PNM plug-in
16 16
255
147
71
193
147
71
193
148
72
194
102
26
148
132
56
178
132
56
178
132
56
178
132
56
178
132
56
178
132
56
178
132
56
178
132
56
178
147
71
193
147
71
193
147
71
193
102
26
148
147
71
193
148
72
194
148
72
194
82
6
128
132
56
178
132
56
178
132
56
178
132
56
178
132
56
178
132
56
178
132
56
178
132
56
178
148
72
194
148
72
194
148
72
194
82
6
128
147
71
193
148
72
194
132
56
178
82
6
128
132
56
178
132
56
178
132
56
178
132
56
178
132
56
178
132
56
178
132
56
178
132
56
178
148
72
194
144
68
190
122
46
168
82
6
128
144
68
190
144
68
190
132
56
178
82
6
128
132
56
178
132
56
178
132
56
178
132
56
178
132
56
178
132
56
178
132
56
178
132
56
178
148
72
194
148
72
194
144
68
190
82
6
128
144
68
190
132
56
178
144
68
190
82
6
128
132
56
178
132
56
178
132
56
178
132
56
178
132
56
178
132
56
178
132
56
178
132
56
178
147
71
193
132
56
178
144
68
190
82
6
128
148
72
194
132
56
178
144
68
190
82
6
128
132
56
178
132
56
178
132
56
178
132
56
178
132
56
178
132
56
178
132
56
178
132
56
178
147
71
193
122
46
168
144
68
190
82
6
128
148
72
194
122
46
168
132
56
178
102
26
148
132
56
178
132
56
178
132
56
178
132
56
178
132
56
178
132
56
178
132
56
178
132
56
178
144
68
190
122
46
168
132
56
178
82
6
128
147
71
193
132
56
178
132
56
178
122
46
168
132
56
178
132
56
178
132
56
178
132
56
178
132
56
178
132
56
178
132
56
178
132
56
178
144
68
190
122
46
168
122
46
168
82
6
128
147
71
193
132
56
178
122
46
168
102
26
148
132
56
178
132
56
178
132
56
178
132
56
178
132
56
178
132
56
178
132
56
178
132
56
178
148
72
194
132
56
178
122
46
168
82
6
128
147
71
193
132
56
178
122
46
168
82
6
128
132
56
178
132
56
178
132
56
178
132
56
178
132
56
178
132
56
178
132
56
178
132
56
178
148
72
194
122
46
168
132
56
178
82
6
128
147
71
193
122
46
168
132
56
178
82
6
128
132
56
178
132
56
178
132
56
178
132
56
178
132
56
178
132
56
178
132
56
178
132
56
178
147
71
193
122
46
168
132
56
178
82
6
128
144
68
190
122
46
168
132
56
178
82
6
128
132
56
178
132
56
178
132
56
178
132
56
178
132
56
178
132
56
178
132
56
178
132
56
178
148
72
194
122
46
168
132
56
178
82
6
128
144
68
190
122
46
168
122
46
168
82
6
128
132
56
178
132
56
178
132
56
178
132
56
178
132
56
178
132
56
178
132
56
178
132
56
178
148
72
194
132
56
178
132
56
178
82
6
128
148
72
194
132
56
178
122
46
168
82
6
128
132
56
178
132
56
178
132
56
178
132
56
178
132
56
178
132
56
178
132
56
178
132
56
178
132
56
178
122
46
168
148
72
194
102
26
148
122
46
168
132
56
178
132
56
178
82
6
128
132
56
178
132
56
178
132
56
178
132
56
178
132
56
178
132
56
178
132
56
178
132
56
178
132
56
178
122
46
168
122
46
168
82
6
128
82
6
128
82
6
128
82
6
128
82
6
128
132
56
178
132
56
178
132
56
178
132
56
178
132
56
178
132
56
178
132
56
178
132
56
178
82
6
128
82
6
128
82
6
128
82
6
128
