P3
# Created by GIMP version 2.10.30 PNM plug-in
16 16
255
185
70
66
185
70
66
186
71
67
140
25
21
170
55
51
170
55
51
170
55
51
170
55
51
170
55
51
170
55
51
170
55
51
170
55
51
185
70
66
185
70
66
185
70
66
140
25
21
185
70
66
186
71
67
186
71
67
120
5
1
170
55
51
170
55
51
170
55
51
170
55
51
170
55
51
170
55
51
170
55
51
170
55
51
186
71
67
186
71
67
186
71
67
120
5
1
185
70
66
186
71
67
170
55
51
120
5
1
170
55
51
170
55
51
170
55
51
170
55
51
170
55
51
170
55
51
170
55
51
170
55
51
186
71
67
182
67
63
160
45
41
120
5
1
182
67
63
182
67
63
170
55
51
120
5
1
170
55
51
170
55
51
170
55
51
170
55
51
170
55
51
170
55
51
170
55
51
170
55
51
186
71
67
186
71
67
182
67
63
120
5
1
182
67
63
170
55
51
182
67
63
120
5
1
170
55
51
170
55
51
170
55
51
170
55
51
170
55
51
170
55
51
170
55
51
170
55
51
185
70
66
170
55
51
182
67
63
120
5
1
186
71
67
170
55
51
182
67
63
120
5
1
170
55
51
170
55
51
170
55
51
170
55
51
170
55
51
170
55
51
170
55
51
170
55
51
185
70
66
160
45
41
182
67
63
120
5
1
186
71
67
160
45
41
170
55
51
140
25
21
170
55
51
170
55
51
170
55
51
170
55
51
170
55
51
170
55
51
170
55
51
170
55
51
182
67
63
160
45
41
170
55
51
120
5
1
185
70
66
170
55
51
170
55
51
160
45
41
170
55
51
170
55
51
170
55
51
170
55
51
170
55
51
170
55
51
170
55
51
170
55
51
182
67
63
160
45
41
160
45
41
120
5
1
185
70
66
170
55
51
160
45
41
140
25
21
170
55
51
170
55
51
170
55
51
170
55
51
170
55
51
170
55
51
170
55
51
170
55
51
186
71
67
170
55
51
160
45
41
120
5
1
185
70
66
170
55
51
160
45
41
120
5
1
170
55
51
170
55
51
170
55
51
170
55
51
170
55
51
170
55
51
170
55
51
170
55
51
186
71
67
160
45
41
170
55
51
120
5
1
185
70
66
160
45
41
170
55
51
120
5
1
170
55
51
170
55
51
170
55
51
170
55
51
170
55
51
170
55
51
170
55
51
170
55
51
185
70
66
160
45
41
170
55
51
120
5
1
182
67
63
160
45
41
170
55
51
120
5
1
170
55
51
170
55
51
170
55
51
170
55
51
170
55
51
170
55
51
170
55
51
170
55
51
186
71
67
160
45
41
170
55
51
120
5
1
182
67
63
160
45
41
160
45
41
120
5
1
170
55
51
170
55
51
170
55
51
170
55
51
170
55
51
170
55
51
170
55
51
170
55
51
186
71
67
170
55
51
170
55
51
120
5
1
186
71
67
170
55
51
160
45
41
120
5
1
170
55
51
170
55
51
170
55
51
170
55
51
170
55
51
170
55
51
170
55
51
170
55
51
170
55
51
160
45
41
186
71
67
140
25
21
160
45
41
170
55
51
170
55
51
120
5
1
170
55
51
170
55
51
170
55
51
170
55
51
170
55
51
170
55
51
170
55
51
170
55
51
170
55
51
160
45
41
160
45
41
120
5
1
120
5
1
120
5
1
120
5
1
120
5
1
170
55
51
170
55
51
170
55
51
170
55
51
170
55
51
170
55
51
170
55
51
170
55
51
120
5
1
120
5
1
120
5
1
120
5
1
