P3
# Created by GIMP version 2.10.36 PNM plug-in
16 16
255
218
218
218
218
218
218
219
219
219
174
174
174
203
203
203
203
203
203
203
203
203
203
203
203
203
203
203
203
203
203
203
203
203
203
203
203
218
218
218
218
218
218
218
218
218
174
174
174
218
218
218
219
219
219
219
219
219
154
154
154
203
203
203
203
203
203
203
203
203
203
203
203
203
203
203
203
203
203
203
203
203
203
203
203
219
219
219
219
219
219
219
219
219
154
154
154
218
218
218
219
219
219
203
203
203
154
154
154
203
203
203
203
203
203
203
203
203
203
203
203
203
203
203
203
203
203
203
203
203
203
203
203
219
219
219
215
215
215
193
193
193
154
154
154
215
215
215
215
215
215
203
203
203
154
154
154
203
203
203
203
203
203
203
203
203
203
203
203
203
203
203
203
203
203
203
203
203
203
203
203
219
219
219
219
219
219
215
215
215
154
154
154
215
215
215
203
203
203
215
215
215
154
154
154
203
203
203
203
203
203
203
203
203
203
203
203
203
203
203
203
203
203
203
203
203
203
203
203
218
218
218
203
203
203
215
215
215
154
154
154
219
219
219
203
203
203
215
215
215
154
154
154
203
203
203
203
203
203
203
203
203
203
203
203
203
203
203
203
203
203
203
203
203
203
203
203
218
218
218
193
193
193
215
215
215
154
154
154
219
219
219
193
193
193
203
203
203
174
174
174
203
203
203
203
203
203
203
203
203
203
203
203
203
203
203
203
203
203
203
203
203
203
203
203
215
215
215
193
193
193
203
203
203
154
154
154
218
218
218
203
203
203
203
203
203
193
193
193
203
203
203
203
203
203
203
203
203
203
203
203
203
203
203
203
203
203
203
203
203
203
203
203
215
215
215
193
193
193
193
193
193
154
154
154
218
218
218
203
203
203
193
193
193
174
174
174
203
203
203
203
203
203
203
203
203
203
203
203
203
203
203
203
203
203
203
203
203
203
203
203
219
219
219
203
203
203
193
193
193
154
154
154
218
218
218
203
203
203
193
193
193
154
154
154
203
203
203
203
203
203
203
203
203
203
203
203
203
203
203
203
203
203
203
203
203
203
203
203
219
219
219
193
193
193
203
203
203
154
154
154
218
218
218
193
193
193
203
203
203
154
154
154
203
203
203
203
203
203
203
203
203
203
203
203
203
203
203
203
203
203
203
203
203
203
203
203
218
218
218
193
193
193
203
203
203
154
154
154
215
215
215
193
193
193
203
203
203
154
154
154
203
203
203
203
203
203
203
203
203
203
203
203
203
203
203
203
203
203
203
203
203
203
203
203
219
219
219
193
193
193
203
203
203
154
154
154
215
215
215
193
193
193
193
193
193
154
154
154
203
203
203
203
203
203
203
203
203
203
203
203
203
203
203
203
203
203
203
203
203
203
203
203
219
219
219
203
203
203
203
203
203
154
154
154
219
219
219
203
203
203
193
193
193
154
154
154
203
203
203
203
203
203
203
203
203
203
203
203
203
203
203
203
203
203
203
203
203
203
203
203
203
203
203
193
193
193
219
219
219
174
174
174
193
193
193
203
203
203
203
203
203
154
154
154
203
203
203
203
203
203
203
203
203
203
203
203
203
203
203
203
203
203
203
203
203
203
203
203
203
203
203
193
193
193
193
193
193
154
154
154
154
154
154
154
154
154
154
154
154
154
154
154
203
203
203
203
203
203
203
203
203
203
203
203
203
203
203
203
203
203
203
203
203
203
203
203
154
154
154
154
154
154
154
154
154
154
154
154
