P3
# Created by GIMP version 2.10.30 PNM plug-in
16 16
255
248
215
77
248
215
77
249
216
78
203
170
32
233
200
62
233
200
62
233
200
62
233
200
62
233
200
62
233
200
62
233
200
62
233
200
62
248
215
77
248
215
77
248
215
77
203
170
32
248
215
77
249
216
78
249
216
78
183
150
12
233
200
62
233
200
62
233
200
62
233
200
62
233
200
62
233
200
62
233
200
62
233
200
62
249
216
78
249
216
78
249
216
78
183
150
12
248
215
77
249
216
78
233
200
62
183
150
12
233
200
62
233
200
62
233
200
62
233
200
62
233
200
62
233
200
62
233
200
62
233
200
62
249
216
78
245
212
74
223
190
52
183
150
12
245
212
74
245
212
74
233
200
62
183
150
12
233
200
62
233
200
62
233
200
62
233
200
62
233
200
62
233
200
62
233
200
62
233
200
62
249
216
78
249
216
78
245
212
74
183
150
12
245
212
74
233
200
62
245
212
74
183
150
12
233
200
62
233
200
62
233
200
62
233
200
62
233
200
62
233
200
62
233
200
62
233
200
62
248
215
77
233
200
62
245
212
74
183
150
12
249
216
78
233
200
62
245
212
74
183
150
12
233
200
62
233
200
62
233
200
62
233
200
62
233
200
62
233
200
62
233
200
62
233
200
62
248
215
77
223
190
52
245
212
74
183
150
12
249
216
78
223
190
52
233
200
62
203
170
32
233
200
62
233
200
62
233
200
62
233
200
62
233
200
62
233
200
62
233
200
62
233
200
62
245
212
74
223
190
52
233
200
62
183
150
12
248
215
77
233
200
62
233
200
62
223
190
52
233
200
62
233
200
62
233
200
62
233
200
62
233
200
62
233
200
62
233
200
62
233
200
62
245
212
74
223
190
52
223
190
52
183
150
12
248
215
77
233
200
62
223
190
52
203
170
32
233
200
62
233
200
62
233
200
62
233
200
62
233
200
62
233
200
62
233
200
62
233
200
62
249
216
78
233
200
62
223
190
52
183
150
12
248
215
77
233
200
62
223
190
52
183
150
12
233
200
62
233
200
62
233
200
62
233
200
62
233
200
62
233
200
62
233
200
62
233
200
62
249
216
78
223
190
52
233
200
62
183
150
12
248
215
77
223
190
52
233
200
62
183
150
12
233
200
62
233
200
62
233
200
62
233
200
62
233
200
62
233
200
62
233
200
62
233
200
62
248
215
77
223
190
52
233
200
62
183
150
12
245
212
74
223
190
52
233
200
62
183
150
12
233
200
62
233
200
62
233
200
62
233
200
62
233
200
62
233
200
62
233
200
62
233
200
62
249
216
78
223
190
52
233
200
62
183
150
12
245
212
74
223
190
52
223
190
52
183
150
12
233
200
62
233
200
62
233
200
62
233
200
62
233
200
62
233
200
62
233
200
62
233
200
62
249
216
78
233
200
62
233
200
62
183
150
12
249
216
78
233
200
62
223
190
52
183
150
12
233
200
62
233
200
62
233
200
62
233
200
62
233
200
62
233
200
62
233
200
62
233
200
62
233
200
62
223
190
52
249
216
78
203
170
32
223
190
52
233
200
62
233
200
62
183
150
12
233
200
62
233
200
62
233
200
62
233
200
62
233
200
62
233
200
62
233
200
62
233
200
62
233
200
62
223
190
52
223
190
52
183
150
12
183
150
12
183
150
12
183
150
12
183
150
12
233
200
62
233
200
62
233
200
62
233
200
62
233
200
62
233
200
62
233
200
62
233
200
62
183
150
12
183
150
12
183
150
12
183
150
12
