P3
# Created by GIMP version 2.10.36 PNM plug-in
16 16
255
211
157
102
213
159
104
219
165
110
214
160
105
216
162
107
213
159
104
223
169
114
215
161
106
216
162
107
212
158
103
203
149
94
215
161
106
215
161
106
216
162
107
212
158
103
218
164
109
220
166
111
205
151
96
209
155
100
215
161
106
215
161
106
211
157
102
218
164
109
216
162
107
215
161
106
213
159
104
213
159
104
205
151
96
204
150
95
204
150
95
207
153
98
215
161
106
216
162
107
215
161
106
209
155
100
215
161
106
207
153
98
207
153
98
210
156
101
209
155
100
212
158
103
205
151
96
209
155
100
212
158
103
207
153
98
202
148
93
197
143
88
214
160
105
216
162
107
212
158
103
203
149
94
213
159
104
213
159
104
213
159
104
204
150
95
200
146
91
212
158
103
212
158
103
202
148
93
206
152
97
209
155
100
208
154
99
200
146
91
214
160
105
214
160
105
213
159
104
212
158
103
204
150
95
203
149
94
209
155
100
203
149
94
203
149
94
216
162
107
215
161
106
205
151
96
204
150
95
196
142
87
201
147
92
213
159
104
214
160
105
214
160
105
205
151
96
207
153
98
211
157
102
205
151
96
203
149
94
207
153
98
224
170
115
227
173
118
235
181
126
232
178
123
224
170
115
213
159
104
208
154
99
210
156
101
207
153
98
218
164
109
216
162
107
201
147
92
202
148
93
205
151
96
202
148
93
199
145
90
224
170
115
236
182
127
241
187
132
252
198
143
247
193
138
226
172
117
220
166
111
222
168
113
214
160
105
225
171
116
220
166
111
208
154
99
205
151
96
199
145
90
200
146
91
206
152
97
198
144
89
215
161
106
238
184
129
241
187
132
253
199
144
252
198
143
227
173
118
217
163
108
225
171
116
230
176
121
228
174
119
230
176
121
221
167
112
223
169
114
213
159
104
209
155
100
207
153
98
202
148
93
206
152
97
220
166
111
232
178
123
255
201
146
234
180
125
225
171
116
239
185
130
232
178
123
254
200
145
255
183
128
227
173
118
230
176
121
225
171
116
223
169
114
217
163
108
211
157
102
206
152
97
207
153
98
212
158
103
218
164
109
216
162
107
224
170
115
238
184
129
224
170
115
225
171
116
242
188
133
234
180
125
218
164
109
219
165
110
227
173
118
227
173
118
215
161
106
212
158
103
211
157
102
205
151
96
201
147
92
199
145
90
202
148
93
224
170
115
217
163
108
224
170
115
247
193
138
230
176
121
221
167
112
219
165
110
215
161
106
216
162
107
217
163
108
214
160
105
224
170
115
218
164
109
210
156
101
202
148
93
203
149
94
209
155
100
207
153
98
219
165
110
234
180
125
223
169
114
211
157
102
218
164
109
212
158
103
205
151
96
207
153
98
207
153
98
208
154
99
215
161
106
216
162
107
213
159
104
216
162
107
213
159
104
207
153
98
205
151
96
203
149
94
193
139
84
199
145
90
202
148
93
214
160
105
219
165
110
226
172
117
221
167
112
204
150
95
202
148
93
204
150
95
217
163
108
228
174
119
222
168
113
203
149
94
191
137
82
200
146
91
201
147
92
206
152
97
203
149
94
213
159
104
210
156
101
211
157
102
224
170
115
223
169
114
216
162
107
201
147
92
204
150
95
212
158
103
201
147
92
201
147
92
213
159
104
203
149
94
195
141
86
198
144
89
211
157
102
219
165
110
215
161
106
205
151
96
213
159
104
221
167
112
215
161
106
215
161
106
200
146
91
209
155
100
201
147
92
