P3
# Created by GIMP version 2.10.36 PNM plug-in
16 16
255
95
39
39
97
41
41
103
47
47
98
42
42
100
44
44
97
41
41
107
51
51
99
43
43
100
44
44
96
40
40
87
31
31
99
43
43
99
43
43
100
44
44
96
40
40
102
46
46
104
48
48
89
33
33
93
37
37
99
43
43
99
43
43
95
39
39
102
46
46
100
44
44
99
43
43
97
41
41
97
41
41
89
33
33
88
32
32
88
32
32
91
35
35
99
43
43
100
44
44
99
43
43
93
37
37
99
43
43
91
35
35
91
35
35
94
38
38
93
37
37
96
40
40
89
33
33
93
37
37
96
40
40
91
35
35
86
30
30
81
25
25
98
42
42
100
44
44
96
40
40
87
31
31
97
41
41
97
41
41
97
41
41
88
32
32
84
28
28
96
40
40
96
40
40
86
30
30
90
34
34
93
37
37
92
36
36
84
28
28
98
42
42
98
42
42
97
41
41
96
40
40
88
32
32
87
31
31
93
37
37
87
31
31
87
31
31
100
44
44
99
43
43
89
33
33
88
32
32
80
24
24
85
29
29
97
41
41
98
42
42
98
42
42
89
33
33
91
35
35
95
39
39
89
33
33
87
31
31
91
35
35
108
52
52
111
55
55
119
63
63
116
60
60
108
52
52
97
41
41
92
36
36
94
38
38
91
35
35
102
46
46
100
44
44
85
29
29
86
30
30
89
33
33
86
30
30
83
27
27
108
52
52
120
64
64
125
69
69
136
80
80
131
75
75
110
54
54
104
48
48
106
50
50
98
42
42
109
53
53
104
48
48
92
36
36
89
33
33
83
27
27
84
28
28
90
34
34
82
26
26
99
43
43
122
66
66
125
69
69
137
81
81
136
80
80
111
55
55
101
45
45
109
53
53
114
58
58
112
56
56
114
58
58
105
49
49
107
51
51
97
41
41
93
37
37
91
35
35
86
30
30
90
34
34
104
48
48
116
60
60
139
83
83
118
62
62
109
53
53
123
67
67
116
60
60
138
82
82
121
65
65
111
55
55
114
58
58
109
53
53
107
51
51
101
45
45
95
39
39
90
34
34
91
35
35
96
40
40
102
46
46
100
44
44
108
52
52
122
66
66
108
52
52
109
53
53
126
70
70
118
62
62
102
46
46
103
47
47
111
55
55
111
55
55
99
43
43
96
40
40
95
39
39
89
33
33
85
29
29
83
27
27
86
30
30
108
52
52
101
45
45
108
52
52
131
75
75
114
58
58
105
49
49
103
47
47
99
43
43
100
44
44
101
45
45
98
42
42
108
52
52
102
46
46
94
38
38
86
30
30
87
31
31
93
37
37
91
35
35
103
47
47
118
62
62
107
51
51
95
39
39
102
46
46
96
40
40
89
33
33
91
35
35
91
35
35
92
36
36
99
43
43
100
44
44
97
41
41
100
44
44
97
41
41
91
35
35
89
33
33
87
31
31
77
21
21
83
27
27
86
30
30
98
42
42
103
47
47
110
54
54
105
49
49
88
32
32
86
30
30
88
32
32
101
45
45
112
56
56
106
50
50
87
31
31
75
19
19
84
28
28
85
29
29
90
34
34
87
31
31
97
41
41
94
38
38
95
39
39
108
52
52
107
51
51
100
44
44
85
29
29
88
32
32
96
40
40
85
29
29
85
29
29
97
41
41
87
31
31
79
23
23
82
26
26
95
39
39
103
47
47
99
43
43
89
33
33
97
41
41
105
49
49
99
43
43
99
43
43
84
28
28
93
37
37
85
29
29
