P3
# Created by GIMP version 2.10.36 PNM plug-in
16 16
255
48
102
121
50
104
123
56
110
129
51
105
124
53
107
126
50
104
123
60
114
133
52
106
125
53
107
126
49
103
122
40
94
113
52
106
125
52
106
125
53
107
126
49
103
122
55
109
128
57
111
130
42
96
115
46
100
119
52
106
125
52
106
125
48
102
121
55
109
128
53
107
126
52
106
125
50
104
123
50
104
123
42
96
115
41
95
114
41
95
114
44
98
117
52
106
125
53
107
126
52
106
125
46
100
119
52
106
125
44
98
117
44
98
117
47
101
120
46
100
119
49
103
122
42
96
115
46
100
119
49
103
122
44
98
117
39
93
112
34
88
107
51
105
124
53
107
126
49
103
122
40
94
113
50
104
123
50
104
123
50
104
123
41
95
114
37
91
110
49
103
122
49
103
122
39
93
112
43
97
116
46
100
119
45
99
118
37
91
110
51
105
124
51
105
124
50
104
123
49
103
122
41
95
114
40
94
113
46
100
119
40
94
113
40
94
113
53
107
126
52
106
125
42
96
115
41
95
114
33
87
106
38
92
111
50
104
123
51
105
124
51
105
124
42
96
115
44
98
117
48
102
121
42
96
115
40
94
113
44
98
117
61
115
134
64
118
137
72
126
145
69
123
142
61
115
134
50
104
123
45
99
118
47
101
120
44
98
117
55
109
128
53
107
126
38
92
111
39
93
112
42
96
115
39
93
112
36
90
109
61
115
134
73
127
146
78
132
151
89
143
162
84
138
157
63
117
136
57
111
130
59
113
132
51
105
124
62
116
135
57
111
130
45
99
118
42
96
115
36
90
109
37
91
110
43
97
116
35
89
108
52
106
125
75
129
148
78
132
151
90
144
163
89
143
162
64
118
137
54
108
127
62
116
135
67
121
140
65
119
138
67
121
140
58
112
131
60
114
133
50
104
123
46
100
119
44
98
117
39
93
112
43
97
116
57
111
130
69
123
142
92
146
165
71
125
144
62
116
135
76
130
149
69
123
142
91
145
164
74
128
147
64
118
137
67
121
140
62
116
135
60
114
133
54
108
127
48
102
121
43
97
116
44
98
117
49
103
122
55
109
128
53
107
126
61
115
134
75
129
148
61
115
134
62
116
135
79
133
152
71
125
144
55
109
128
56
110
129
64
118
137
64
118
137
52
106
125
49
103
122
48
102
121
42
96
115
38
92
111
36
90
109
39
93
112
61
115
134
54
108
127
61
115
134
84
138
157
67
121
140
58
112
131
56
110
129
52
106
125
53
107
126
54
108
127
51
105
124
61
115
134
55
109
128
47
101
120
39
93
112
40
94
113
46
100
119
44
98
117
56
110
129
71
125
144
60
114
133
48
102
121
55
109
128
49
103
122
42
96
115
44
98
117
44
98
117
45
99
118
52
106
125
53
107
126
50
104
123
53
107
126
50
104
123
44
98
117
42
96
115
40
94
113
30
84
103
36
90
109
39
93
112
51
105
124
56
110
129
63
117
136
58
112
131
41
95
114
39
93
112
41
95
114
54
108
127
65
119
138
59
113
132
40
94
113
28
82
101
37
91
110
38
92
111
43
97
116
40
94
113
50
104
123
47
101
120
48
102
121
61
115
134
60
114
133
53
107
126
38
92
111
41
95
114
49
103
122
38
92
111
38
92
111
50
104
123
40
94
113
32
86
105
35
89
108
48
102
121
56
110
129
52
106
125
42
96
115
50
104
123
58
112
131
52
106
125
52
106
125
37
91
110
46
100
119
38
92
111
