P3
# Created by GIMP version 2.10.36 PNM plug-in
16 16
255
211
147
29
213
149
31
219
155
37
214
150
32
216
152
34
213
149
31
223
159
41
215
151
33
216
152
34
212
148
30
203
139
21
215
151
33
215
151
33
216
152
34
212
148
30
218
154
36
220
156
38
205
141
23
209
145
27
215
151
33
215
151
33
211
147
29
218
154
36
216
152
34
215
151
33
213
149
31
213
149
31
205
141
23
204
140
22
204
140
22
207
143
25
215
151
33
216
152
34
215
151
33
209
145
27
215
151
33
207
143
25
207
143
25
210
146
28
209
145
27
212
148
30
205
141
23
209
145
27
212
148
30
207
143
25
202
138
20
197
133
15
214
150
32
216
152
34
212
148
30
203
139
21
213
149
31
213
149
31
213
149
31
204
140
22
200
136
18
212
148
30
212
148
30
202
138
20
206
142
24
209
145
27
208
144
26
200
136
18
214
150
32
214
150
32
213
149
31
212
148
30
204
140
22
203
139
21
209
145
27
203
139
21
203
139
21
216
152
34
215
151
33
205
141
23
204
140
22
196
132
14
201
137
19
213
149
31
214
150
32
214
150
32
205
141
23
207
143
25
211
147
29
205
141
23
203
139
21
207
143
25
224
160
42
227
163
45
235
171
53
232
168
50
224
160
42
213
149
31
208
144
26
210
146
28
207
143
25
218
154
36
216
152
34
201
137
19
202
138
20
205
141
23
202
138
20
199
135
17
224
160
42
236
172
54
241
177
59
252
188
70
247
183
65
226
162
44
220
156
38
222
158
40
214
150
32
225
161
43
220
156
38
208
144
26
205
141
23
199
135
17
200
136
18
206
142
24
198
134
16
215
151
33
255
174
56
241
177
59
253
189
71
252
188
70
227
163
45
217
153
35
225
161
43
230
166
48
228
164
46
230
166
48
221
157
39
223
159
41
213
149
31
209
145
27
207
143
25
202
138
20
206
142
24
220
156
38
232
168
50
255
191
73
234
170
52
225
161
43
239
175
57
232
168
50
254
190
72
237
173
55
227
163
45
230
166
48
225
161
43
223
159
41
217
153
35
211
147
29
206
142
24
207
143
25
212
148
30
218
154
36
216
152
34
224
160
42
255
174
56
224
160
42
225
161
43
242
178
60
234
170
52
218
154
36
219
155
37
227
163
45
227
163
45
215
151
33
212
148
30
211
147
29
205
141
23
201
137
19
199
135
17
202
138
20
224
160
42
217
153
35
224
160
42
247
183
65
230
166
48
221
157
39
219
155
37
215
151
33
216
152
34
217
153
35
214
150
32
224
160
42
218
154
36
210
146
28
202
138
20
203
139
21
209
145
27
207
143
25
219
155
37
234
170
52
223
159
41
211
147
29
218
154
36
212
148
30
205
141
23
207
143
25
207
143
25
208
144
26
215
151
33
216
152
34
213
149
31
216
152
34
213
149
31
207
143
25
205
141
23
203
139
21
193
129
11
199
135
17
202
138
20
214
150
32
219
155
37
226
162
44
221
157
39
204
140
22
202
138
20
204
140
22
217
153
35
228
164
46
222
158
40
203
139
21
191
127
9
200
136
18
201
137
19
206
142
24
203
139
21
213
149
31
210
146
28
211
147
29
224
160
42
223
159
41
216
152
34
201
137
19
204
140
22
212
148
30
201
137
19
201
137
19
213
149
31
203
139
21
195
131
13
198
134
16
211
147
29
219
155
37
215
151
33
205
141
23
213
149
31
221
157
39
215
151
33
215
151
33
200
136
18
209
145
27
201
137
19
