P3
# Created by GIMP version 2.10.36 PNM plug-in
16 16
255
211
175
188
213
177
190
219
183
196
214
178
191
216
180
193
213
177
190
223
187
200
215
179
192
216
180
193
212
176
189
203
167
180
215
179
192
215
179
192
216
180
193
212
176
189
218
182
195
220
184
197
205
169
182
209
173
186
215
179
192
215
179
192
211
175
188
218
182
195
216
180
193
215
179
192
213
177
190
213
177
190
205
169
182
204
168
181
204
168
181
207
171
184
215
179
192
216
180
193
215
179
192
209
173
186
215
179
192
207
171
184
207
171
184
210
174
187
209
173
186
212
176
189
205
169
182
209
173
186
212
176
189
207
171
184
202
166
179
197
161
174
214
178
191
216
180
193
212
176
189
203
167
180
213
177
190
213
177
190
213
177
190
204
168
181
200
164
177
212
176
189
212
176
189
202
166
179
206
170
183
209
173
186
208
172
185
200
164
177
214
178
191
214
178
191
213
177
190
212
176
189
204
168
181
203
167
180
209
173
186
203
167
180
203
167
180
216
180
193
215
179
192
205
169
182
204
168
181
196
160
173
201
165
178
213
177
190
214
178
191
214
178
191
205
169
182
207
171
184
211
175
188
205
169
182
203
167
180
207
171
184
224
188
201
227
191
204
235
199
212
232
196
209
224
188
201
213
177
190
208
172
185
210
174
187
207
171
184
218
182
195
216
180
193
201
165
178
202
166
179
205
169
182
202
166
179
199
163
176
224
188
201
236
200
213
255
205
218
252
216
229
247
211
224
226
190
203
220
184
197
222
186
199
214
178
191
225
189
202
220
184
197
208
172
185
205
169
182
199
163
176
200
164
177
206
170
183
198
162
175
215
179
192
238
202
215
255
205
218
253
217
230
252
216
229
227
191
204
217
181
194
225
189
202
230
194
207
228
192
205
230
194
207
221
185
198
223
187
200
213
177
190
209
173
186
207
171
184
202
166
179
206
170
183
220
184
197
232
196
209
255
219
232
234
198
211
225
189
202
239
203
216
232
196
209
254
218
231
237
201
214
227
191
204
230
194
207
225
189
202
223
187
200
217
181
194
211
175
188
206
170
183
207
171
184
212
176
189
218
182
195
216
180
193
224
188
201
238
202
215
224
188
201
225
189
202
242
206
219
234
198
211
218
182
195
219
183
196
227
191
204
227
191
204
215
179
192
212
176
189
211
175
188
205
169
182
201
165
178
199
163
176
202
166
179
224
188
201
217
181
194
224
188
201
247
211
224
230
194
207
221
185
198
219
183
196
215
179
192
216
180
193
217
181
194
214
178
191
224
188
201
218
182
195
210
174
187
202
166
179
203
167
180
209
173
186
207
171
184
219
183
196
234
198
211
223
187
200
211
175
188
218
182
195
212
176
189
205
169
182
207
171
184
207
171
184
208
172
185
215
179
192
216
180
193
213
177
190
216
180
193
213
177
190
207
171
184
205
169
182
203
167
180
193
157
170
199
163
176
202
166
179
214
178
191
219
183
196
226
190
203
221
185
198
204
168
181
202
166
179
204
168
181
217
181
194
228
192
205
222
186
199
203
167
180
191
155
168
200
164
177
201
165
178
206
170
183
203
167
180
213
177
190
210
174
187
211
175
188
224
188
201
223
187
200
216
180
193
201
165
178
204
168
181
212
176
189
201
165
178
201
165
178
213
177
190
203
167
180
195
159
172
198
162
175
211
175
188
219
183
196
215
179
192
205
169
182
213
177
190
221
185
198
215
179
192
215
179
192
200
164
177
209
173
186
201
165
178
