P3
# Created by GIMP version 2.10.36 PNM plug-in
16 16
255
85
98
62
87
100
64
93
106
70
88
101
65
90
103
67
87
100
64
97
110
74
89
102
66
90
103
67
86
99
63
77
90
54
89
102
66
89
102
66
90
103
67
86
99
63
92
105
69
94
107
71
79
92
56
83
96
60
89
102
66
89
102
66
85
98
62
92
105
69
90
103
67
89
102
66
87
100
64
87
100
64
79
92
56
78
91
55
78
91
55
81
94
58
89
102
66
90
103
67
89
102
66
83
96
60
89
102
66
81
94
58
81
94
58
84
97
61
83
96
60
86
99
63
79
92
56
83
96
60
86
99
63
81
94
58
76
89
53
71
84
48
88
101
65
90
103
67
86
99
63
77
90
54
87
100
64
87
100
64
87
100
64
78
91
55
74
87
51
86
99
63
86
99
63
76
89
53
80
93
57
83
96
60
82
95
59
74
87
51
88
101
65
88
101
65
87
100
64
86
99
63
78
91
55
77
90
54
83
96
60
77
90
54
77
90
54
90
103
67
89
102
66
79
92
56
78
91
55
70
83
47
75
88
52
87
100
64
88
101
65
88
101
65
79
92
56
81
94
58
85
98
62
79
92
56
77
90
54
81
94
58
98
111
75
101
114
78
109
122
86
106
119
83
98
111
75
87
100
64
82
95
59
84
97
61
81
94
58
92
105
69
90
103
67
75
88
52
76
89
53
79
92
56
76
89
53
73
86
50
98
111
75
110
123
87
115
128
92
126
139
103
121
134
98
100
113
77
94
107
71
96
109
73
88
101
65
99
112
76
94
107
71
82
95
59
79
92
56
73
86
50
74
87
51
80
93
57
72
85
49
89
102
66
112
125
89
115
128
92
127
140
104
126
139
103
101
114
78
91
104
68
99
112
76
104
117
81
102
115
79
104
117
81
95
108
72
97
110
74
87
100
64
83
96
60
81
94
58
76
89
53
80
93
57
94
107
71
106
119
83
129
142
106
108
121
85
99
112
76
113
126
90
106
119
83
128
141
105
111
124
88
101
114
78
104
117
81
99
112
76
97
110
74
91
104
68
85
98
62
80
93
57
81
94
58
86
99
63
92
105
69
90
103
67
98
111
75
112
125
89
98
111
75
99
112
76
116
129
93
108
121
85
92
105
69
93
106
70
101
114
78
101
114
78
89
102
66
86
99
63
85
98
62
79
92
56
75
88
52
73
86
50
76
89
53
98
111
75
91
104
68
98
111
75
121
134
98
104
117
81
95
108
72
93
106
70
89
102
66
90
103
67
91
104
68
88
101
65
98
111
75
92
105
69
84
97
61
76
89
53
77
90
54
83
96
60
81
94
58
93
106
70
108
121
85
97
110
74
85
98
62
92
105
69
86
99
63
79
92
56
81
94
58
81
94
58
82
95
59
89
102
66
90
103
67
87
100
64
90
103
67
87
100
64
81
94
58
79
92
56
77
90
54
67
80
44
73
86
50
76
89
53
88
101
65
93
106
70
100
113
77
95
108
72
78
91
55
76
89
53
78
91
55
91
104
68
102
115
79
96
109
73
77
90
54
65
78
42
74
87
51
75
88
52
80
93
57
77
90
54
87
100
64
84
97
61
85
98
62
98
111
75
97
110
74
90
103
67
75
88
52
78
91
55
86
99
63
75
88
52
75
88
52
87
100
64
77
90
54
69
82
46
72
85
49
85
98
62
93
106
70
89
102
66
79
92
56
87
100
64
95
108
72
89
102
66
89
102
66
74
87
51
83
96
60
75
88
52
