P3
# Created by GIMP version 2.10.36 PNM plug-in
16 16
255
23
25
30
25
27
32
31
33
38
26
28
33
28
30
35
25
27
32
35
37
42
27
29
34
28
30
35
24
26
31
15
17
22
27
29
34
27
29
34
28
30
35
24
26
31
30
32
37
32
34
39
17
19
24
21
23
28
27
29
34
27
29
34
23
25
30
30
32
37
28
30
35
27
29
34
25
27
32
25
27
32
17
19
24
16
18
23
16
18
23
19
21
26
27
29
34
28
30
35
27
29
34
21
23
28
27
29
34
19
21
26
19
21
26
22
24
29
21
23
28
24
26
31
17
19
24
21
23
28
24
26
31
19
21
26
14
16
21
9
11
16
26
28
33
28
30
35
24
26
31
15
17
22
25
27
32
25
27
32
25
27
32
16
18
23
12
14
19
24
26
31
24
26
31
14
16
21
18
20
25
21
23
28
20
22
27
12
14
19
26
28
33
26
28
33
25
27
32
24
26
31
16
18
23
15
17
22
21
23
28
15
17
22
15
17
22
28
30
35
27
29
34
17
19
24
16
18
23
8
10
15
13
15
20
25
27
32
26
28
33
26
28
33
17
19
24
19
21
26
23
25
30
17
19
24
15
17
22
19
21
26
36
38
43
39
41
46
47
49
54
44
46
51
36
38
43
25
27
32
20
22
27
22
24
29
19
21
26
30
32
37
28
30
35
13
15
20
14
16
21
17
19
24
14
16
21
11
13
18
36
38
43
48
50
55
53
55
60
64
66
71
59
61
66
38
40
45
32
34
39
34
36
41
26
28
33
37
39
44
32
34
39
20
22
27
17
19
24
11
13
18
12
14
19
18
20
25
10
12
17
27
29
34
50
52
57
53
55
60
65
67
72
64
66
71
39
41
46
29
31
36
37
39
44
42
44
49
40
42
47
42
44
49
33
35
40
35
37
42
25
27
32
21
23
28
19
21
26
14
16
21
18
20
25
32
34
39
44
46
51
67
69
74
46
48
53
37
39
44
51
53
58
44
46
51
66
68
73
49
51
56
39
41
46
42
44
49
37
39
44
35
37
42
29
31
36
23
25
30
18
20
25
19
21
26
24
26
31
30
32
37
28
30
35
36
38
43
50
52
57
36
38
43
37
39
44
54
56
61
46
48
53
30
32
37
31
33
38
39
41
46
39
41
46
27
29
34
24
26
31
23
25
30
17
19
24
13
15
20
11
13
18
14
16
21
36
38
43
29
31
36
36
38
43
59
61
66
42
44
49
33
35
40
31
33
38
27
29
34
28
30
35
29
31
36
26
28
33
36
38
43
30
32
37
22
24
29
14
16
21
15
17
22
21
23
28
19
21
26
31
33
38
46
48
53
35
37
42
23
25
30
30
32
37
24
26
31
17
19
24
19
21
26
19
21
26
20
22
27
27
29
34
28
30
35
25
27
32
28
30
35
25
27
32
19
21
26
17
19
24
15
17
22
5
7
12
11
13
18
14
16
21
26
28
33
31
33
38
38
40
45
33
35
40
16
18
23
14
16
21
16
18
23
29
31
36
40
42
47
34
36
41
15
17
22
3
5
10
12
14
19
13
15
20
18
20
25
15
17
22
25
27
32
22
24
29
23
25
30
36
38
43
35
37
42
28
30
35
13
15
20
16
18
23
24
26
31
13
15
20
13
15
20
25
27
32
15
17
22
7
9
14
10
12
17
23
25
30
31
33
38
27
29
34
17
19
24
25
27
32
33
35
40
27
29
34
27
29
34
12
14
19
21
23
28
13
15
20
