P3
# Created by GIMP version 2.10.36 PNM plug-in
16 16
255
68
71
165
70
73
167
76
79
173
71
74
168
73
76
170
70
73
167
80
83
177
72
75
169
73
76
170
69
72
166
60
63
157
72
75
169
72
75
169
73
76
170
69
72
166
75
78
172
77
80
174
62
65
159
66
69
163
72
75
169
72
75
169
68
71
165
75
78
172
73
76
170
72
75
169
70
73
167
70
73
167
62
65
159
61
64
158
61
64
158
64
67
161
72
75
169
73
76
170
72
75
169
66
69
163
72
75
169
64
67
161
64
67
161
67
70
164
66
69
163
69
72
166
62
65
159
66
69
163
69
72
166
64
67
161
59
62
156
54
57
151
71
74
168
73
76
170
69
72
166
60
63
157
70
73
167
70
73
167
70
73
167
61
64
158
57
60
154
69
72
166
69
72
166
59
62
156
63
66
160
66
69
163
65
68
162
57
60
154
71
74
168
71
74
168
70
73
167
69
72
166
61
64
158
60
63
157
66
69
163
60
63
157
60
63
157
73
76
170
72
75
169
62
65
159
61
64
158
53
56
150
58
61
155
70
73
167
71
74
168
71
74
168
62
65
159
64
67
161
68
71
165
62
65
159
60
63
157
64
67
161
81
84
178
84
87
181
92
95
189
89
92
186
81
84
178
70
73
167
65
68
162
67
70
164
64
67
161
75
78
172
73
76
170
58
61
155
59
62
156
62
65
159
59
62
156
56
59
153
81
84
178
93
96
190
98
101
195
109
112
206
104
107
201
83
86
180
77
80
174
79
82
176
71
74
168
82
85
179
77
80
174
65
68
162
62
65
159
56
59
153
57
60
154
63
66
160
55
58
152
72
75
169
95
98
192
98
101
195
110
113
207
109
112
206
84
87
181
74
77
171
82
85
179
87
90
184
85
88
182
87
90
184
78
81
175
80
83
177
70
73
167
66
69
163
64
67
161
59
62
156
63
66
160
77
80
174
89
92
186
112
115
209
91
94
188
82
85
179
96
99
193
89
92
186
111
114
208
94
97
191
84
87
181
87
90
184
82
85
179
80
83
177
74
77
171
68
71
165
63
66
160
64
67
161
69
72
166
75
78
172
73
76
170
81
84
178
95
98
192
81
84
178
82
85
179
99
102
196
91
94
188
75
78
172
76
79
173
84
87
181
84
87
181
72
75
169
69
72
166
68
71
165
62
65
159
58
61
155
56
59
153
59
62
156
81
84
178
74
77
171
81
84
178
104
107
201
87
90
184
78
81
175
76
79
173
72
75
169
73
76
170
74
77
171
71
74
168
81
84
178
75
78
172
67
70
164
59
62
156
60
63
157
66
69
163
64
67
161
76
79
173
91
94
188
80
83
177
68
71
165
75
78
172
69
72
166
62
65
159
64
67
161
64
67
161
65
68
162
72
75
169
73
76
170
70
73
167
73
76
170
70
73
167
64
67
161
62
65
159
60
63
157
50
53
147
56
59
153
59
62
156
71
74
168
76
79
173
83
86
180
78
81
175
61
64
158
59
62
156
61
64
158
74
77
171
85
88
182
79
82
176
60
63
157
48
51
145
57
60
154
58
61
155
63
66
160
60
63
157
70
73
167
67
70
164
68
71
165
81
84
178
80
83
177
73
76
170
58
61
155
61
64
158
69
72
166
58
61
155
58
61
155
70
73
167
60
63
157
52
55
149
55
58
152
68
71
165
76
79
173
72
75
169
62
65
159
70
73
167
78
81
175
72
75
169
72
75
169
57
60
154
66
69
163
58
61
155
