P3
# Created by GIMP version 2.10.36 PNM plug-in
16 16
255
124
83
51
126
85
53
132
91
59
127
86
54
129
88
56
126
85
53
136
95
63
128
87
55
129
88
56
125
84
52
116
75
43
128
87
55
128
87
55
129
88
56
125
84
52
131
90
58
133
92
60
118
77
45
122
81
49
128
87
55
128
87
55
124
83
51
131
90
58
129
88
56
128
87
55
126
85
53
126
85
53
118
77
45
117
76
44
117
76
44
120
79
47
128
87
55
129
88
56
128
87
55
122
81
49
128
87
55
120
79
47
120
79
47
123
82
50
122
81
49
125
84
52
118
77
45
122
81
49
125
84
52
120
79
47
115
74
42
110
69
37
127
86
54
129
88
56
125
84
52
116
75
43
126
85
53
126
85
53
126
85
53
117
76
44
113
72
40
125
84
52
125
84
52
115
74
42
119
78
46
122
81
49
121
80
48
113
72
40
127
86
54
127
86
54
126
85
53
125
84
52
117
76
44
116
75
43
122
81
49
116
75
43
116
75
43
129
88
56
128
87
55
118
77
45
117
76
44
109
68
36
114
73
41
126
85
53
127
86
54
127
86
54
118
77
45
120
79
47
124
83
51
118
77
45
116
75
43
120
79
47
137
96
64
140
99
67
148
107
75
145
104
72
137
96
64
126
85
53
121
80
48
123
82
50
120
79
47
131
90
58
129
88
56
114
73
41
115
74
42
118
77
45
115
74
42
112
71
39
137
96
64
149
108
76
154
113
81
165
124
92
160
119
87
139
98
66
133
92
60
135
94
62
127
86
54
138
97
65
133
92
60
121
80
48
118
77
45
112
71
39
113
72
40
119
78
46
111
70
38
128
87
55
151
110
78
154
113
81
166
125
93
165
124
92
140
99
67
130
89
57
138
97
65
143
102
70
141
100
68
143
102
70
134
93
61
136
95
63
126
85
53
122
81
49
120
79
47
115
74
42
119
78
46
133
92
60
145
104
72
168
127
95
147
106
74
138
97
65
152
111
79
145
104
72
167
126
94
150
109
77
140
99
67
143
102
70
138
97
65
136
95
63
130
89
57
124
83
51
119
78
46
120
79
47
125
84
52
131
90
58
129
88
56
137
96
64
151
110
78
137
96
64
138
97
65
155
114
82
147
106
74
131
90
58
132
91
59
140
99
67
140
99
67
128
87
55
125
84
52
124
83
51
118
77
45
114
73
41
112
71
39
115
74
42
137
96
64
130
89
57
137
96
64
160
119
87
143
102
70
134
93
61
132
91
59
128
87
55
129
88
56
130
89
57
127
86
54
137
96
64
131
90
58
123
82
50
115
74
42
116
75
43
122
81
49
120
79
47
132
91
59
147
106
74
136
95
63
124
83
51
131
90
58
125
84
52
118
77
45
120
79
47
120
79
47
121
80
48
128
87
55
129
88
56
126
85
53
129
88
56
126
85
53
120
79
47
118
77
45
116
75
43
106
65
33
112
71
39
115
74
42
127
86
54
132
91
59
139
98
66
134
93
61
117
76
44
115
74
42
117
76
44
130
89
57
141
100
68
135
94
62
116
75
43
104
63
31
113
72
40
114
73
41
119
78
46
116
75
43
126
85
53
123
82
50
124
83
51
137
96
64
136
95
63
129
88
56
114
73
41
117
76
44
125
84
52
114
73
41
114
73
41
126
85
53
116
75
43
108
67
35
111
70
38
124
83
51
132
91
59
128
87
55
118
77
45
126
85
53
134
93
61
128
87
55
128
87
55
113
72
40
122
81
49
114
73
41
