P3
# Created by GIMP version 2.10.36 PNM plug-in
16 16
255
206
153
204
208
155
206
214
161
212
209
156
207
211
158
209
208
155
206
218
165
216
210
157
208
211
158
209
207
154
205
198
145
196
210
157
208
210
157
208
211
158
209
207
154
205
213
160
211
215
162
213
200
147
198
204
151
202
210
157
208
210
157
208
206
153
204
213
160
211
211
158
209
210
157
208
208
155
206
208
155
206
200
147
198
199
146
197
199
146
197
202
149
200
210
157
208
211
158
209
210
157
208
204
151
202
210
157
208
202
149
200
202
149
200
205
152
203
204
151
202
207
154
205
200
147
198
204
151
202
207
154
205
202
149
200
197
144
195
192
139
190
209
156
207
211
158
209
207
154
205
198
145
196
208
155
206
208
155
206
208
155
206
199
146
197
195
142
193
207
154
205
207
154
205
197
144
195
201
148
199
204
151
202
203
150
201
195
142
193
209
156
207
209
156
207
208
155
206
207
154
205
199
146
197
198
145
196
204
151
202
198
145
196
198
145
196
211
158
209
210
157
208
200
147
198
199
146
197
191
138
189
196
143
194
208
155
206
209
156
207
209
156
207
200
147
198
202
149
200
206
153
204
200
147
198
198
145
196
202
149
200
219
166
217
222
169
220
230
177
228
227
174
225
219
166
217
208
155
206
203
150
201
205
152
203
202
149
200
213
160
211
211
158
209
196
143
194
197
144
195
200
147
198
197
144
195
194
141
192
219
166
217
231
178
229
236
183
234
247
194
245
242
189
240
221
168
219
215
162
213
217
164
215
209
156
207
220
167
218
215
162
213
203
150
201
200
147
198
194
141
192
195
142
193
201
148
199
193
140
191
210
157
208
233
180
231
236
183
234
248
195
246
247
194
245
222
169
220
212
159
210
220
167
218
225
172
223
223
170
221
225
172
223
216
163
214
218
165
216
208
155
206
204
151
202
202
149
200
197
144
195
201
148
199
215
162
213
227
174
225
250
197
248
229
176
227
220
167
218
234
181
232
227
174
225
249
196
247
232
179
230
222
169
220
225
172
223
220
167
218
218
165
216
212
159
210
206
153
204
201
148
199
202
149
200
207
154
205
213
160
211
211
158
209
219
166
217
233
180
231
219
166
217
220
167
218
237
184
235
229
176
227
213
160
211
214
161
212
222
169
220
222
169
220
210
157
208
207
154
205
206
153
204
200
147
198
196
143
194
194
141
192
197
144
195
219
166
217
212
159
210
219
166
217
242
189
240
225
172
223
216
163
214
214
161
212
210
157
208
211
158
209
212
159
210
209
156
207
219
166
217
213
160
211
205
152
203
197
144
195
198
145
196
204
151
202
202
149
200
214
161
212
229
176
227
218
165
216
206
153
204
213
160
211
207
154
205
200
147
198
202
149
200
202
149
200
203
150
201
210
157
208
211
158
209
208
155
206
211
158
209
208
155
206
202
149
200
200
147
198
198
145
196
188
135
186
194
141
192
197
144
195
209
156
207
214
161
212
221
168
219
216
163
214
199
146
197
197
144
195
199
146
197
212
159
210
223
170
221
217
164
215
198
145
196
186
133
184
195
142
193
196
143
194
201
148
199
198
145
196
208
155
206
205
152
203
206
153
204
219
166
217
218
165
216
211
158
209
196
143
194
199
146
197
207
154
205
196
143
194
196
143
194
208
155
206
198
145
196
190
137
188
193
140
191
206
153
204
214
161
212
210
157
208
200
147
198
208
155
206
216
163
214
210
157
208
210
157
208
195
142
193
204
151
202
196
143
194
