P3
# Created by GIMP version 2.10.36 PNM plug-in
16 16
255
141
103
161
143
105
163
149
111
169
144
106
164
146
108
166
143
105
163
153
115
173
145
107
165
146
108
166
142
104
162
133
95
153
145
107
165
145
107
165
146
108
166
142
104
162
148
110
168
150
112
170
135
97
155
139
101
159
145
107
165
145
107
165
141
103
161
148
110
168
146
108
166
145
107
165
143
105
163
143
105
163
135
97
155
134
96
154
134
96
154
137
99
157
145
107
165
146
108
166
145
107
165
139
101
159
145
107
165
137
99
157
137
99
157
140
102
160
139
101
159
142
104
162
135
97
155
139
101
159
142
104
162
137
99
157
132
94
152
127
89
147
144
106
164
146
108
166
142
104
162
133
95
153
143
105
163
143
105
163
143
105
163
134
96
154
130
92
150
142
104
162
142
104
162
132
94
152
136
98
156
139
101
159
138
100
158
130
92
150
144
106
164
144
106
164
143
105
163
142
104
162
134
96
154
133
95
153
139
101
159
133
95
153
133
95
153
146
108
166
145
107
165
135
97
155
134
96
154
126
88
146
131
93
151
143
105
163
144
106
164
144
106
164
135
97
155
137
99
157
141
103
161
135
97
155
133
95
153
137
99
157
154
116
174
157
119
177
165
127
185
162
124
182
154
116
174
143
105
163
138
100
158
140
102
160
137
99
157
148
110
168
146
108
166
131
93
151
132
94
152
135
97
155
132
94
152
129
91
149
154
116
174
166
128
186
171
133
191
182
144
202
177
139
197
156
118
176
150
112
170
152
114
172
144
106
164
155
117
175
150
112
170
138
100
158
135
97
155
129
91
149
130
92
150
136
98
156
128
90
148
145
107
165
168
130
188
171
133
191
183
145
203
182
144
202
157
119
177
147
109
167
155
117
175
160
122
180
158
120
178
160
122
180
151
113
171
153
115
173
143
105
163
139
101
159
137
99
157
132
94
152
136
98
156
150
112
170
162
124
182
185
147
205
164
126
184
155
117
175
169
131
189
162
124
182
184
146
204
167
129
187
157
119
177
160
122
180
155
117
175
153
115
173
147
109
167
141
103
161
136
98
156
137
99
157
142
104
162
148
110
168
146
108
166
154
116
174
168
130
188
154
116
174
155
117
175
172
134
192
164
126
184
148
110
168
149
111
169
157
119
177
157
119
177
145
107
165
142
104
162
141
103
161
135
97
155
131
93
151
129
91
149
132
94
152
154
116
174
147
109
167
154
116
174
177
139
197
160
122
180
151
113
171
149
111
169
145
107
165
146
108
166
147
109
167
144
106
164
154
116
174
148
110
168
140
102
160
132
94
152
133
95
153
139
101
159
137
99
157
149
111
169
164
126
184
153
115
173
141
103
161
148
110
168
142
104
162
135
97
155
137
99
157
137
99
157
138
100
158
145
107
165
146
108
166
143
105
163
146
108
166
143
105
163
137
99
157
135
97
155
133
95
153
123
85
143
129
91
149
132
94
152
144
106
164
149
111
169
156
118
176
151
113
171
134
96
154
132
94
152
134
96
154
147
109
167
158
120
178
152
114
172
133
95
153
121
83
141
130
92
150
131
93
151
136
98
156
133
95
153
143
105
163
140
102
160
141
103
161
154
116
174
153
115
173
146
108
166
131
93
151
134
96
154
142
104
162
131
93
151
131
93
151
143
105
163
133
95
153
125
87
145
128
90
148
141
103
161
149
111
169
145
107
165
135
97
155
143
105
163
151
113
171
145
107
165
145
107
165
130
92
150
139
101
159
131
93
151
