P3
# Created by GIMP version 2.10.36 PNM plug-in
16 16
255
34
148
156
36
150
158
42
156
164
37
151
159
39
153
161
36
150
158
46
160
168
38
152
160
39
153
161
35
149
157
26
140
148
38
152
160
38
152
160
39
153
161
35
149
157
41
155
163
43
157
165
28
142
150
32
146
154
38
152
160
38
152
160
34
148
156
41
155
163
39
153
161
38
152
160
36
150
158
36
150
158
28
142
150
27
141
149
27
141
149
30
144
152
38
152
160
39
153
161
38
152
160
32
146
154
38
152
160
30
144
152
30
144
152
33
147
155
32
146
154
35
149
157
28
142
150
32
146
154
35
149
157
30
144
152
25
139
147
20
134
142
37
151
159
39
153
161
35
149
157
26
140
148
36
150
158
36
150
158
36
150
158
27
141
149
23
137
145
35
149
157
35
149
157
25
139
147
29
143
151
32
146
154
31
145
153
23
137
145
37
151
159
37
151
159
36
150
158
35
149
157
27
141
149
26
140
148
32
146
154
26
140
148
26
140
148
39
153
161
38
152
160
28
142
150
27
141
149
19
133
141
24
138
146
36
150
158
37
151
159
37
151
159
28
142
150
30
144
152
34
148
156
28
142
150
26
140
148
30
144
152
47
161
169
50
164
172
58
172
180
55
169
177
47
161
169
36
150
158
31
145
153
33
147
155
30
144
152
41
155
163
39
153
161
24
138
146
25
139
147
28
142
150
25
139
147
22
136
144
47
161
169
59
173
181
64
178
186
75
189
197
70
184
192
49
163
171
43
157
165
45
159
167
37
151
159
48
162
170
43
157
165
31
145
153
28
142
150
22
136
144
23
137
145
29
143
151
21
135
143
38
152
160
61
175
183
64
178
186
76
190
198
75
189
197
50
164
172
40
154
162
48
162
170
53
167
175
51
165
173
53
167
175
44
158
166
46
160
168
36
150
158
32
146
154
30
144
152
25
139
147
29
143
151
43
157
165
55
169
177
78
192
200
57
171
179
48
162
170
62
176
184
55
169
177
77
191
199
60
174
182
50
164
172
53
167
175
48
162
170
46
160
168
40
154
162
34
148
156
29
143
151
30
144
152
35
149
157
41
155
163
39
153
161
47
161
169
61
175
183
47
161
169
48
162
170
65
179
187
57
171
179
41
155
163
42
156
164
50
164
172
50
164
172
38
152
160
35
149
157
34
148
156
28
142
150
24
138
146
22
136
144
25
139
147
47
161
169
40
154
162
47
161
169
70
184
192
53
167
175
44
158
166
42
156
164
38
152
160
39
153
161
40
154
162
37
151
159
47
161
169
41
155
163
33
147
155
25
139
147
26
140
148
32
146
154
30
144
152
42
156
164
57
171
179
46
160
168
34
148
156
41
155
163
35
149
157
28
142
150
30
144
152
30
144
152
31
145
153
38
152
160
39
153
161
36
150
158
39
153
161
36
150
158
30
144
152
28
142
150
26
140
148
16
130
138
22
136
144
25
139
147
37
151
159
42
156
164
49
163
171
44
158
166
27
141
149
25
139
147
27
141
149
40
154
162
51
165
173
45
159
167
26
140
148
14
128
136
23
137
145
24
138
146
29
143
151
26
140
148
36
150
158
33
147
155
34
148
156
47
161
169
46
160
168
39
153
161
24
138
146
27
141
149
35
149
157
24
138
146
24
138
146
36
150
158
26
140
148
18
132
140
21
135
143
34
148
156
42
156
164
38
152
160
28
142
150
36
150
158
44
158
166
38
152
160
38
152
160
23
137
145
32
146
154
24
138
146
