P3
# Created by GIMP version 2.10.36 PNM plug-in
16 16
255
74
54
41
76
56
43
82
62
49
77
57
44
79
59
46
76
56
43
86
66
53
78
58
45
79
59
46
75
55
42
66
46
33
78
58
45
78
58
45
79
59
46
75
55
42
81
61
48
83
63
50
68
48
35
72
52
39
78
58
45
78
58
45
74
54
41
81
61
48
79
59
46
78
58
45
76
56
43
76
56
43
68
48
35
67
47
34
67
47
34
70
50
37
78
58
45
79
59
46
78
58
45
72
52
39
78
58
45
70
50
37
70
50
37
73
53
40
72
52
39
75
55
42
68
48
35
72
52
39
75
55
42
70
50
37
65
45
32
60
40
27
77
57
44
79
59
46
75
55
42
66
46
33
76
56
43
76
56
43
76
56
43
67
47
34
63
43
30
75
55
42
75
55
42
65
45
32
69
49
36
72
52
39
71
51
38
63
43
30
77
57
44
77
57
44
76
56
43
75
55
42
67
47
34
66
46
33
72
52
39
66
46
33
66
46
33
79
59
46
78
58
45
68
48
35
67
47
34
59
39
26
64
44
31
76
56
43
77
57
44
77
57
44
68
48
35
70
50
37
74
54
41
68
48
35
66
46
33
70
50
37
87
67
54
90
70
57
98
78
65
95
75
62
87
67
54
76
56
43
71
51
38
73
53
40
70
50
37
81
61
48
79
59
46
64
44
31
65
45
32
68
48
35
65
45
32
62
42
29
87
67
54
99
79
66
104
84
71
115
95
82
110
90
77
89
69
56
83
63
50
85
65
52
77
57
44
88
68
55
83
63
50
71
51
38
68
48
35
62
42
29
63
43
30
69
49
36
61
41
28
78
58
45
101
81
68
104
84
71
116
96
83
115
95
82
90
70
57
80
60
47
88
68
55
93
73
60
91
71
58
93
73
60
84
64
51
86
66
53
76
56
43
72
52
39
70
50
37
65
45
32
69
49
36
83
63
50
95
75
62
118
98
85
97
77
64
88
68
55
102
82
69
95
75
62
117
97
84
100
80
67
90
70
57
93
73
60
88
68
55
86
66
53
80
60
47
74
54
41
69
49
36
70
50
37
75
55
42
81
61
48
79
59
46
87
67
54
101
81
68
87
67
54
88
68
55
105
85
72
97
77
64
81
61
48
82
62
49
90
70
57
90
70
57
78
58
45
75
55
42
74
54
41
68
48
35
64
44
31
62
42
29
65
45
32
87
67
54
80
60
47
87
67
54
110
90
77
93
73
60
84
64
51
82
62
49
78
58
45
79
59
46
80
60
47
77
57
44
87
67
54
81
61
48
73
53
40
65
45
32
66
46
33
72
52
39
70
50
37
82
62
49
97
77
64
86
66
53
74
54
41
81
61
48
75
55
42
68
48
35
70
50
37
70
50
37
71
51
38
78
58
45
79
59
46
76
56
43
79
59
46
76
56
43
70
50
37
68
48
35
66
46
33
56
36
23
62
42
29
65
45
32
77
57
44
82
62
49
89
69
56
84
64
51
67
47
34
65
45
32
67
47
34
80
60
47
91
71
58
85
65
52
66
46
33
54
34
21
63
43
30
64
44
31
69
49
36
66
46
33
76
56
43
73
53
40
74
54
41
87
67
54
86
66
53
79
59
46
64
44
31
67
47
34
75
55
42
64
44
31
64
44
31
76
56
43
66
46
33
58
38
25
61
41
28
74
54
41
82
62
49
78
58
45
68
48
35
76
56
43
84
64
51
78
58
45
78
58
45
63
43
30
72
52
39
64
44
31
