P3
# Created by GIMP version 2.10.36 PNM plug-in
16 16
255
29
87
93
31
89
95
37
95
101
32
90
96
34
92
98
31
89
95
41
99
105
33
91
97
34
92
98
30
88
94
21
79
85
33
91
97
33
91
97
34
92
98
30
88
94
36
94
100
38
96
102
23
81
87
27
85
91
33
91
97
33
91
97
29
87
93
36
94
100
34
92
98
33
91
97
31
89
95
31
89
95
23
81
87
22
80
86
22
80
86
25
83
89
33
91
97
34
92
98
33
91
97
27
85
91
33
91
97
25
83
89
25
83
89
28
86
92
27
85
91
30
88
94
23
81
87
27
85
91
30
88
94
25
83
89
20
78
84
15
73
79
32
90
96
34
92
98
30
88
94
21
79
85
31
89
95
31
89
95
31
89
95
22
80
86
18
76
82
30
88
94
30
88
94
20
78
84
24
82
88
27
85
91
26
84
90
18
76
82
32
90
96
32
90
96
31
89
95
30
88
94
22
80
86
21
79
85
27
85
91
21
79
85
21
79
85
34
92
98
33
91
97
23
81
87
22
80
86
14
72
78
19
77
83
31
89
95
32
90
96
32
90
96
23
81
87
25
83
89
29
87
93
23
81
87
21
79
85
25
83
89
42
100
106
45
103
109
53
111
117
50
108
114
42
100
106
31
89
95
26
84
90
28
86
92
25
83
89
36
94
100
34
92
98
19
77
83
20
78
84
23
81
87
20
78
84
17
75
81
42
100
106
54
112
118
59
117
123
70
128
134
65
123
129
44
102
108
38
96
102
40
98
104
32
90
96
43
101
107
38
96
102
26
84
90
23
81
87
17
75
81
18
76
82
24
82
88
16
74
80
33
91
97
56
114
120
59
117
123
71
129
135
70
128
134
45
103
109
35
93
99
43
101
107
48
106
112
46
104
110
48
106
112
39
97
103
41
99
105
31
89
95
27
85
91
25
83
89
20
78
84
24
82
88
38
96
102
50
108
114
73
131
137
52
110
116
43
101
107
57
115
121
50
108
114
72
130
136
55
113
119
45
103
109
48
106
112
43
101
107
41
99
105
35
93
99
29
87
93
24
82
88
25
83
89
30
88
94
36
94
100
34
92
98
42
100
106
56
114
120
42
100
106
43
101
107
60
118
124
52
110
116
36
94
100
37
95
101
45
103
109
45
103
109
33
91
97
30
88
94
29
87
93
23
81
87
19
77
83
17
75
81
20
78
84
42
100
106
35
93
99
42
100
106
65
123
129
48
106
112
39
97
103
37
95
101
33
91
97
34
92
98
35
93
99
32
90
96
42
100
106
36
94
100
28
86
92
20
78
84
21
79
85
27
85
91
25
83
89
37
95
101
52
110
116
41
99
105
29
87
93
36
94
100
30
88
94
23
81
87
25
83
89
25
83
89
26
84
90
33
91
97
34
92
98
31
89
95
34
92
98
31
89
95
25
83
89
23
81
87
21
79
85
11
69
75
17
75
81
20
78
84
32
90
96
37
95
101
44
102
108
39
97
103
22
80
86
20
78
84
22
80
86
35
93
99
46
104
110
40
98
104
21
79
85
9
67
73
18
76
82
19
77
83
24
82
88
21
79
85
31
89
95
28
86
92
29
87
93
42
100
106
41
99
105
34
92
98
19
77
83
22
80
86
30
88
94
19
77
83
19
77
83
31
89
95
21
79
85
13
71
77
16
74
80
29
87
93
37
95
101
33
91
97
23
81
87
31
89
95
39
97
103
33
91
97
33
91
97
18
76
82
27
85
91
19
77
83
