P3
# Created by GIMP version 2.10.36 PNM plug-in
16 16
255
70
125
188
72
127
190
78
133
196
73
128
191
75
130
193
72
127
190
82
137
200
74
129
192
75
130
193
71
126
189
62
117
180
74
129
192
74
129
192
75
130
193
71
126
189
77
132
195
79
134
197
64
119
182
68
123
186
74
129
192
74
129
192
70
125
188
77
132
195
75
130
193
74
129
192
72
127
190
72
127
190
64
119
182
63
118
181
63
118
181
66
121
184
74
129
192
75
130
193
74
129
192
68
123
186
74
129
192
66
121
184
66
121
184
69
124
187
68
123
186
71
126
189
64
119
182
68
123
186
71
126
189
66
121
184
61
116
179
56
111
174
73
128
191
75
130
193
71
126
189
62
117
180
72
127
190
72
127
190
72
127
190
63
118
181
59
114
177
71
126
189
71
126
189
61
116
179
65
120
183
68
123
186
67
122
185
59
114
177
73
128
191
73
128
191
72
127
190
71
126
189
63
118
181
62
117
180
68
123
186
62
117
180
62
117
180
75
130
193
74
129
192
64
119
182
63
118
181
55
110
173
60
115
178
72
127
190
73
128
191
73
128
191
64
119
182
66
121
184
70
125
188
64
119
182
62
117
180
66
121
184
83
138
201
86
141
204
94
149
212
91
146
209
83
138
201
72
127
190
67
122
185
69
124
187
66
121
184
77
132
195
75
130
193
60
115
178
61
116
179
64
119
182
61
116
179
58
113
176
83
138
201
95
150
213
100
155
218
111
166
229
106
161
224
85
140
203
79
134
197
81
136
199
73
128
191
84
139
202
79
134
197
67
122
185
64
119
182
58
113
176
59
114
177
65
120
183
57
112
175
74
129
192
97
152
215
100
155
218
112
167
230
111
166
229
86
141
204
76
131
194
84
139
202
89
144
207
87
142
205
89
144
207
80
135
198
82
137
200
72
127
190
68
123
186
66
121
184
61
116
179
65
120
183
79
134
197
91
146
209
114
169
232
93
148
211
84
139
202
98
153
216
91
146
209
113
168
231
96
151
214
86
141
204
89
144
207
84
139
202
82
137
200
76
131
194
70
125
188
65
120
183
66
121
184
71
126
189
77
132
195
75
130
193
83
138
201
97
152
215
83
138
201
84
139
202
101
156
219
93
148
211
77
132
195
78
133
196
86
141
204
86
141
204
74
129
192
71
126
189
70
125
188
64
119
182
60
115
178
58
113
176
61
116
179
83
138
201
76
131
194
83
138
201
106
161
224
89
144
207
80
135
198
78
133
196
74
129
192
75
130
193
76
131
194
73
128
191
83
138
201
77
132
195
69
124
187
61
116
179
62
117
180
68
123
186
66
121
184
78
133
196
93
148
211
82
137
200
70
125
188
77
132
195
71
126
189
64
119
182
66
121
184
66
121
184
67
122
185
74
129
192
75
130
193
72
127
190
75
130
193
72
127
190
66
121
184
64
119
182
62
117
180
52
107
170
58
113
176
61
116
179
73
128
191
78
133
196
85
140
203
80
135
198
63
118
181
61
116
179
63
118
181
76
131
194
87
142
205
81
136
199
62
117
180
50
105
168
59
114
177
60
115
178
65
120
183
62
117
180
72
127
190
69
124
187
70
125
188
83
138
201
82
137
200
75
130
193
60
115
178
63
118
181
71
126
189
60
115
178
60
115
178
72
127
190
62
117
180
54
109
172
57
112
175
70
125
188
78
133
196
74
129
192
64
119
182
72
127
190
80
135
198
74
129
192
74
129
192
59
114
177
68
123
186
60
115
178
