P3
# Created by GIMP version 2.10.36 PNM plug-in
16 16
255
151
188
135
153
190
137
159
196
143
154
191
138
156
193
140
153
190
137
163
200
147
155
192
139
156
193
140
152
189
136
143
180
127
155
192
139
155
192
139
156
193
140
152
189
136
158
195
142
160
197
144
145
182
129
149
186
133
155
192
139
155
192
139
151
188
135
158
195
142
156
193
140
155
192
139
153
190
137
153
190
137
145
182
129
144
181
128
144
181
128
147
184
131
155
192
139
156
193
140
155
192
139
149
186
133
155
192
139
147
184
131
147
184
131
150
187
134
149
186
133
152
189
136
145
182
129
149
186
133
152
189
136
147
184
131
142
179
126
137
174
121
154
191
138
156
193
140
152
189
136
143
180
127
153
190
137
153
190
137
153
190
137
144
181
128
140
177
124
152
189
136
152
189
136
142
179
126
146
183
130
149
186
133
148
185
132
140
177
124
154
191
138
154
191
138
153
190
137
152
189
136
144
181
128
143
180
127
149
186
133
143
180
127
143
180
127
156
193
140
155
192
139
145
182
129
144
181
128
136
173
120
141
178
125
153
190
137
154
191
138
154
191
138
145
182
129
147
184
131
151
188
135
145
182
129
143
180
127
147
184
131
164
201
148
167
204
151
175
212
159
172
209
156
164
201
148
153
190
137
148
185
132
150
187
134
147
184
131
158
195
142
156
193
140
141
178
125
142
179
126
145
182
129
142
179
126
139
176
123
164
201
148
176
213
160
181
218
165
192
229
176
187
224
171
166
203
150
160
197
144
162
199
146
154
191
138
165
202
149
160
197
144
148
185
132
145
182
129
139
176
123
140
177
124
146
183
130
138
175
122
155
192
139
178
215
162
181
218
165
193
230
177
192
229
176
167
204
151
157
194
141
165
202
149
170
207
154
168
205
152
170
207
154
161
198
145
163
200
147
153
190
137
149
186
133
147
184
131
142
179
126
146
183
130
160
197
144
172
209
156
195
232
179
174
211
158
165
202
149
179
216
163
172
209
156
194
231
178
177
214
161
167
204
151
170
207
154
165
202
149
163
200
147
157
194
141
151
188
135
146
183
130
147
184
131
152
189
136
158
195
142
156
193
140
164
201
148
178
215
162
164
201
148
165
202
149
182
219
166
174
211
158
158
195
142
159
196
143
167
204
151
167
204
151
155
192
139
152
189
136
151
188
135
145
182
129
141
178
125
139
176
123
142
179
126
164
201
148
157
194
141
164
201
148
187
224
171
170
207
154
161
198
145
159
196
143
155
192
139
156
193
140
157
194
141
154
191
138
164
201
148
158
195
142
150
187
134
142
179
126
143
180
127
149
186
133
147
184
131
159
196
143
174
211
158
163
200
147
151
188
135
158
195
142
152
189
136
145
182
129
147
184
131
147
184
131
148
185
132
155
192
139
156
193
140
153
190
137
156
193
140
153
190
137
147
184
131
145
182
129
143
180
127
133
170
117
139
176
123
142
179
126
154
191
138
159
196
143
166
203
150
161
198
145
144
181
128
142
179
126
144
181
128
157
194
141
168
205
152
162
199
146
143
180
127
131
168
115
140
177
124
141
178
125
146
183
130
143
180
127
153
190
137
150
187
134
151
188
135
164
201
148
163
200
147
156
193
140
141
178
125
144
181
128
152
189
136
141
178
125
141
178
125
153
190
137
143
180
127
135
172
119
138
175
122
151
188
135
159
196
143
155
192
139
145
182
129
153
190
137
161
198
145
155
192
139
155
192
139
140
177
124
149
186
133
141
178
125
