P3
# Created by GIMP version 2.10.36 PNM plug-in
16 16
255
173
154
138
175
156
140
181
162
146
176
157
141
178
159
143
175
156
140
185
166
150
177
158
142
178
159
143
174
155
139
165
146
130
177
158
142
177
158
142
178
159
143
174
155
139
180
161
145
182
163
147
167
148
132
171
152
136
177
158
142
177
158
142
173
154
138
180
161
145
178
159
143
177
158
142
175
156
140
175
156
140
167
148
132
166
147
131
166
147
131
169
150
134
177
158
142
178
159
143
177
158
142
171
152
136
177
158
142
169
150
134
169
150
134
172
153
137
171
152
136
174
155
139
167
148
132
171
152
136
174
155
139
169
150
134
164
145
129
159
140
124
176
157
141
178
159
143
174
155
139
165
146
130
175
156
140
175
156
140
175
156
140
166
147
131
162
143
127
174
155
139
174
155
139
164
145
129
168
149
133
171
152
136
170
151
135
162
143
127
176
157
141
176
157
141
175
156
140
174
155
139
166
147
131
165
146
130
171
152
136
165
146
130
165
146
130
178
159
143
177
158
142
167
148
132
166
147
131
158
139
123
163
144
128
175
156
140
176
157
141
176
157
141
167
148
132
169
150
134
173
154
138
167
148
132
165
146
130
169
150
134
186
167
151
189
170
154
197
178
162
194
175
159
186
167
151
175
156
140
170
151
135
172
153
137
169
150
134
180
161
145
178
159
143
163
144
128
164
145
129
167
148
132
164
145
129
161
142
126
186
167
151
198
179
163
203
184
168
214
195
179
209
190
174
188
169
153
182
163
147
184
165
149
176
157
141
187
168
152
182
163
147
170
151
135
167
148
132
161
142
126
162
143
127
168
149
133
160
141
125
177
158
142
200
181
165
203
184
168
215
196
180
214
195
179
189
170
154
179
160
144
187
168
152
192
173
157
190
171
155
192
173
157
183
164
148
185
166
150
175
156
140
171
152
136
169
150
134
164
145
129
168
149
133
182
163
147
194
175
159
217
198
182
196
177
161
187
168
152
201
182
166
194
175
159
216
197
181
199
180
164
189
170
154
192
173
157
187
168
152
185
166
150
179
160
144
173
154
138
168
149
133
169
150
134
174
155
139
180
161
145
178
159
143
186
167
151
200
181
165
186
167
151
187
168
152
204
185
169
196
177
161
180
161
145
181
162
146
189
170
154
189
170
154
177
158
142
174
155
139
173
154
138
167
148
132
163
144
128
161
142
126
164
145
129
186
167
151
179
160
144
186
167
151
209
190
174
192
173
157
183
164
148
181
162
146
177
158
142
178
159
143
179
160
144
176
157
141
186
167
151
180
161
145
172
153
137
164
145
129
165
146
130
171
152
136
169
150
134
181
162
146
196
177
161
185
166
150
173
154
138
180
161
145
174
155
139
167
148
132
169
150
134
169
150
134
170
151
135
177
158
142
178
159
143
175
156
140
178
159
143
175
156
140
169
150
134
167
148
132
165
146
130
155
136
120
161
142
126
164
145
129
176
157
141
181
162
146
188
169
153
183
164
148
166
147
131
164
145
129
166
147
131
179
160
144
190
171
155
184
165
149
165
146
130
153
134
118
162
143
127
163
144
128
168
149
133
165
146
130
175
156
140
172
153
137
173
154
138
186
167
151
185
166
150
178
159
143
163
144
128
166
147
131
174
155
139
163
144
128
163
144
128
175
156
140
165
146
130
157
138
122
160
141
125
173
154
138
181
162
146
177
158
142
167
148
132
175
156
140
183
164
148
177
158
142
177
158
142
162
143
127
171
152
136
163
144
128
