P3
# Created by GIMP version 2.10.36 PNM plug-in
16 16
255
21
20
47
23
22
49
29
28
55
24
23
50
26
25
52
23
22
49
33
32
59
25
24
51
26
25
52
22
21
48
13
12
39
25
24
51
25
24
51
26
25
52
22
21
48
28
27
54
30
29
56
15
14
41
19
18
45
25
24
51
25
24
51
21
20
47
28
27
54
26
25
52
25
24
51
23
22
49
23
22
49
15
14
41
14
13
40
14
13
40
17
16
43
25
24
51
26
25
52
25
24
51
19
18
45
25
24
51
17
16
43
17
16
43
20
19
46
19
18
45
22
21
48
15
14
41
19
18
45
22
21
48
17
16
43
12
11
38
7
6
33
24
23
50
26
25
52
22
21
48
13
12
39
23
22
49
23
22
49
23
22
49
14
13
40
10
9
36
22
21
48
22
21
48
12
11
38
16
15
42
19
18
45
18
17
44
10
9
36
24
23
50
24
23
50
23
22
49
22
21
48
14
13
40
13
12
39
19
18
45
13
12
39
13
12
39
26
25
52
25
24
51
15
14
41
14
13
40
6
5
32
11
10
37
23
22
49
24
23
50
24
23
50
15
14
41
17
16
43
21
20
47
15
14
41
13
12
39
17
16
43
34
33
60
37
36
63
45
44
71
42
41
68
34
33
60
23
22
49
18
17
44
20
19
46
17
16
43
28
27
54
26
25
52
11
10
37
12
11
38
15
14
41
12
11
38
9
8
35
34
33
60
46
45
72
51
50
77
62
61
88
57
56
83
36
35
62
30
29
56
32
31
58
24
23
50
35
34
61
30
29
56
18
17
44
15
14
41
9
8
35
10
9
36
16
15
42
8
7
34
25
24
51
48
47
74
51
50
77
63
62
89
62
61
88
37
36
63
27
26
53
35
34
61
40
39
66
38
37
64
40
39
66
31
30
57
33
32
59
23
22
49
19
18
45
17
16
43
12
11
38
16
15
42
30
29
56
42
41
68
65
64
91
44
43
70
35
34
61
49
48
75
42
41
68
64
63
90
47
46
73
37
36
63
40
39
66
35
34
61
33
32
59
27
26
53
21
20
47
16
15
42
17
16
43
22
21
48
28
27
54
26
25
52
34
33
60
48
47
74
34
33
60
35
34
61
52
51
78
44
43
70
28
27
54
29
28
55
37
36
63
37
36
63
25
24
51
22
21
48
21
20
47
15
14
41
11
10
37
9
8
35
12
11
38
34
33
60
27
26
53
34
33
60
57
56
83
40
39
66
31
30
57
29
28
55
25
24
51
26
25
52
27
26
53
24
23
50
34
33
60
28
27
54
20
19
46
12
11
38
13
12
39
19
18
45
17
16
43
29
28
55
44
43
70
33
32
59
21
20
47
28
27
54
22
21
48
15
14
41
17
16
43
17
16
43
18
17
44
25
24
51
26
25
52
23
22
49
26
25
52
23
22
49
17
16
43
15
14
41
13
12
39
3
2
29
9
8
35
12
11
38
24
23
50
29
28
55
36
35
62
31
30
57
14
13
40
12
11
38
14
13
40
27
26
53
38
37
64
32
31
58
13
12
39
1
0
27
10
9
36
11
10
37
16
15
42
13
12
39
23
22
49
20
19
46
21
20
47
34
33
60
33
32
59
26
25
52
11
10
37
14
13
40
22
21
48
11
10
37
11
10
37
23
22
49
13
12
39
5
4
31
8
7
34
21
20
47
29
28
55
25
24
51
15
14
41
23
22
49
31
30
57
25
24
51
25
24
51
10
9
36
19
18
45
11
10
37
