P3
# Created by GIMP version 2.10.36 PNM plug-in
16 16
255
132
80
133
134
82
135
140
88
141
135
83
136
137
85
138
134
82
135
144
92
145
136
84
137
137
85
138
133
81
134
124
72
125
136
84
137
136
84
137
137
85
138
133
81
134
139
87
140
141
89
142
126
74
127
130
78
131
136
84
137
136
84
137
132
80
133
139
87
140
137
85
138
136
84
137
134
82
135
134
82
135
126
74
127
125
73
126
125
73
126
128
76
129
136
84
137
137
85
138
136
84
137
130
78
131
136
84
137
128
76
129
128
76
129
131
79
132
130
78
131
133
81
134
126
74
127
130
78
131
133
81
134
128
76
129
123
71
124
118
66
119
135
83
136
137
85
138
133
81
134
124
72
125
134
82
135
134
82
135
134
82
135
125
73
126
121
69
122
133
81
134
133
81
134
123
71
124
127
75
128
130
78
131
129
77
130
121
69
122
135
83
136
135
83
136
134
82
135
133
81
134
125
73
126
124
72
125
130
78
131
124
72
125
124
72
125
137
85
138
136
84
137
126
74
127
125
73
126
117
65
118
122
70
123
134
82
135
135
83
136
135
83
136
126
74
127
128
76
129
132
80
133
126
74
127
124
72
125
128
76
129
145
93
146
148
96
149
156
104
157
153
101
154
145
93
146
134
82
135
129
77
130
131
79
132
128
76
129
139
87
140
137
85
138
122
70
123
123
71
124
126
74
127
123
71
124
120
68
121
145
93
146
157
105
158
162
110
163
173
121
174
168
116
169
147
95
148
141
89
142
143
91
144
135
83
136
146
94
147
141
89
142
129
77
130
126
74
127
120
68
121
121
69
122
127
75
128
119
67
120
136
84
137
159
107
160
162
110
163
174
122
175
173
121
174
148
96
149
138
86
139
146
94
147
151
99
152
149
97
150
151
99
152
142
90
143
144
92
145
134
82
135
130
78
131
128
76
129
123
71
124
127
75
128
141
89
142
153
101
154
176
124
177
155
103
156
146
94
147
160
108
161
153
101
154
175
123
176
158
106
159
148
96
149
151
99
152
146
94
147
144
92
145
138
86
139
132
80
133
127
75
128
128
76
129
133
81
134
139
87
140
137
85
138
145
93
146
159
107
160
145
93
146
146
94
147
163
111
164
155
103
156
139
87
140
140
88
141
148
96
149
148
96
149
136
84
137
133
81
134
132
80
133
126
74
127
122
70
123
120
68
121
123
71
124
145
93
146
138
86
139
145
93
146
168
116
169
151
99
152
142
90
143
140
88
141
136
84
137
137
85
138
138
86
139
135
83
136
145
93
146
139
87
140
131
79
132
123
71
124
124
72
125
130
78
131
128
76
129
140
88
141
155
103
156
144
92
145
132
80
133
139
87
140
133
81
134
126
74
127
128
76
129
128
76
129
129
77
130
136
84
137
137
85
138
134
82
135
137
85
138
134
82
135
128
76
129
126
74
127
124
72
125
114
62
115
120
68
121
123
71
124
135
83
136
140
88
141
147
95
148
142
90
143
125
73
126
123
71
124
125
73
126
138
86
139
149
97
150
143
91
144
124
72
125
112
60
113
121
69
122
122
70
123
127
75
128
124
72
125
134
82
135
131
79
132
132
80
133
145
93
146
144
92
145
137
85
138
122
70
123
125
73
126
133
81
134
122
70
123
122
70
123
134
82
135
124
72
125
116
64
117
119
67
120
132
80
133
140
88
141
136
84
137
126
74
127
134
82
135
142
90
143
136
84
137
136
84
137
121
69
122
130
78
131
122
70
123
