P3
# Created by GIMP version 2.10.36 PNM plug-in
16 16
255
74
78
82
76
80
84
82
86
90
77
81
85
79
83
87
76
80
84
86
90
94
78
82
86
79
83
87
75
79
83
66
70
74
78
82
86
78
82
86
79
83
87
75
79
83
81
85
89
83
87
91
68
72
76
72
76
80
78
82
86
78
82
86
74
78
82
81
85
89
79
83
87
78
82
86
76
80
84
76
80
84
68
72
76
67
71
75
67
71
75
70
74
78
78
82
86
79
83
87
78
82
86
72
76
80
78
82
86
70
74
78
70
74
78
73
77
81
72
76
80
75
79
83
68
72
76
72
76
80
75
79
83
70
74
78
65
69
73
60
64
68
77
81
85
79
83
87
75
79
83
66
70
74
76
80
84
76
80
84
76
80
84
67
71
75
63
67
71
75
79
83
75
79
83
65
69
73
69
73
77
72
76
80
71
75
79
63
67
71
77
81
85
77
81
85
76
80
84
75
79
83
67
71
75
66
70
74
72
76
80
66
70
74
66
70
74
79
83
87
78
82
86
68
72
76
67
71
75
59
63
67
64
68
72
76
80
84
77
81
85
77
81
85
68
72
76
70
74
78
74
78
82
68
72
76
66
70
74
70
74
78
87
91
95
90
94
98
98
102
106
95
99
103
87
91
95
76
80
84
71
75
79
73
77
81
70
74
78
81
85
89
79
83
87
64
68
72
65
69
73
68
72
76
65
69
73
62
66
70
87
91
95
99
103
107
104
108
112
115
119
123
110
114
118
89
93
97
83
87
91
85
89
93
77
81
85
88
92
96
83
87
91
71
75
79
68
72
76
62
66
70
63
67
71
69
73
77
61
65
69
78
82
86
101
105
109
104
108
112
116
120
124
115
119
123
90
94
98
80
84
88
88
92
96
93
97
101
91
95
99
93
97
101
84
88
92
86
90
94
76
80
84
72
76
80
70
74
78
65
69
73
69
73
77
83
87
91
95
99
103
118
122
126
97
101
105
88
92
96
102
106
110
95
99
103
117
121
125
100
104
108
90
94
98
93
97
101
88
92
96
86
90
94
80
84
88
74
78
82
69
73
77
70
74
78
75
79
83
81
85
89
79
83
87
87
91
95
101
105
109
87
91
95
88
92
96
105
109
113
97
101
105
81
85
89
82
86
90
90
94
98
90
94
98
78
82
86
75
79
83
74
78
82
68
72
76
64
68
72
62
66
70
65
69
73
87
91
95
80
84
88
87
91
95
110
114
118
93
97
101
84
88
92
82
86
90
78
82
86
79
83
87
80
84
88
77
81
85
87
91
95
81
85
89
73
77
81
65
69
73
66
70
74
72
76
80
70
74
78
82
86
90
97
101
105
86
90
94
74
78
82
81
85
89
75
79
83
68
72
76
70
74
78
70
74
78
71
75
79
78
82
86
79
83
87
76
80
84
79
83
87
76
80
84
70
74
78
68
72
76
66
70
74
56
60
64
62
66
70
65
69
73
77
81
85
82
86
90
89
93
97
84
88
92
67
71
75
65
69
73
67
71
75
80
84
88
91
95
99
85
89
93
66
70
74
54
58
62
63
67
71
64
68
72
69
73
77
66
70
74
76
80
84
73
77
81
74
78
82
87
91
95
86
90
94
79
83
87
64
68
72
67
71
75
75
79
83
64
68
72
64
68
72
76
80
84
66
70
74
58
62
66
61
65
69
74
78
82
82
86
90
78
82
86
68
72
76
76
80
84
84
88
92
78
82
86
78
82
86
63
67
71
72
76
80
64
68
72
