P3
# Created by GIMP version 2.10.36 PNM plug-in
16 16
255
175
159
35
177
161
37
183
167
43
178
162
38
180
164
40
177
161
37
187
171
47
179
163
39
180
164
40
176
160
36
167
151
27
179
163
39
179
163
39
180
164
40
176
160
36
182
166
42
184
168
44
169
153
29
173
157
33
179
163
39
179
163
39
175
159
35
182
166
42
180
164
40
179
163
39
177
161
37
177
161
37
169
153
29
168
152
28
168
152
28
171
155
31
179
163
39
180
164
40
179
163
39
173
157
33
179
163
39
171
155
31
171
155
31
174
158
34
173
157
33
176
160
36
169
153
29
173
157
33
176
160
36
171
155
31
166
150
26
161
145
21
178
162
38
180
164
40
176
160
36
167
151
27
177
161
37
177
161
37
177
161
37
168
152
28
164
148
24
176
160
36
176
160
36
166
150
26
170
154
30
173
157
33
172
156
32
164
148
24
178
162
38
178
162
38
177
161
37
176
160
36
168
152
28
167
151
27
173
157
33
167
151
27
167
151
27
180
164
40
179
163
39
169
153
29
168
152
28
160
144
20
165
149
25
177
161
37
178
162
38
178
162
38
169
153
29
171
155
31
175
159
35
169
153
29
167
151
27
171
155
31
188
172
48
191
175
51
199
183
59
196
180
56
188
172
48
177
161
37
172
156
32
174
158
34
171
155
31
182
166
42
180
164
40
165
149
25
166
150
26
169
153
29
166
150
26
163
147
23
188
172
48
200
184
60
205
189
65
216
200
76
211
195
71
190
174
50
184
168
44
186
170
46
178
162
38
189
173
49
184
168
44
172
156
32
169
153
29
163
147
23
164
148
24
170
154
30
162
146
22
179
163
39
202
186
62
205
189
65
217
201
77
216
200
76
191
175
51
181
165
41
189
173
49
194
178
54
192
176
52
194
178
54
185
169
45
187
171
47
177
161
37
173
157
33
171
155
31
166
150
26
170
154
30
184
168
44
196
180
56
219
203
79
198
182
58
189
173
49
203
187
63
196
180
56
218
202
78
201
185
61
191
175
51
194
178
54
189
173
49
187
171
47
181
165
41
175
159
35
170
154
30
171
155
31
176
160
36
182
166
42
180
164
40
188
172
48
202
186
62
188
172
48
189
173
49
206
190
66
198
182
58
182
166
42
183
167
43
191
175
51
191
175
51
179
163
39
176
160
36
175
159
35
169
153
29
165
149
25
163
147
23
166
150
26
188
172
48
181
165
41
188
172
48
211
195
71
194
178
54
185
169
45
183
167
43
179
163
39
180
164
40
181
165
41
178
162
38
188
172
48
182
166
42
174
158
34
166
150
26
167
151
27
173
157
33
171
155
31
183
167
43
198
182
58
187
171
47
175
159
35
182
166
42
176
160
36
169
153
29
171
155
31
171
155
31
172
156
32
179
163
39
180
164
40
177
161
37
180
164
40
177
161
37
171
155
31
169
153
29
167
151
27
157
141
17
163
147
23
166
150
26
178
162
38
183
167
43
190
174
50
185
169
45
168
152
28
166
150
26
168
152
28
181
165
41
192
176
52
186
170
46
167
151
27
155
139
15
164
148
24
165
149
25
170
154
30
167
151
27
177
161
37
174
158
34
175
159
35
188
172
48
187
171
47
180
164
40
165
149
25
168
152
28
176
160
36
165
149
25
165
149
25
177
161
37
167
151
27
159
143
19
162
146
22
175
159
35
183
167
43
179
163
39
169
153
29
177
161
37
185
169
45
179
163
39
179
163
39
164
148
24
173
157
33
165
149
25
