P3
# Created by GIMP version 2.10.36 PNM plug-in
16 16
255
79
168
97
81
170
99
87
176
105
82
171
100
84
173
102
81
170
99
91
180
109
83
172
101
84
173
102
80
169
98
71
160
89
83
172
101
83
172
101
84
173
102
80
169
98
86
175
104
88
177
106
73
162
91
77
166
95
83
172
101
83
172
101
79
168
97
86
175
104
84
173
102
83
172
101
81
170
99
81
170
99
73
162
91
72
161
90
72
161
90
75
164
93
83
172
101
84
173
102
83
172
101
77
166
95
83
172
101
75
164
93
75
164
93
78
167
96
77
166
95
80
169
98
73
162
91
77
166
95
80
169
98
75
164
93
70
159
88
65
154
83
82
171
100
84
173
102
80
169
98
71
160
89
81
170
99
81
170
99
81
170
99
72
161
90
68
157
86
80
169
98
80
169
98
70
159
88
74
163
92
77
166
95
76
165
94
68
157
86
82
171
100
82
171
100
81
170
99
80
169
98
72
161
90
71
160
89
77
166
95
71
160
89
71
160
89
84
173
102
83
172
101
73
162
91
72
161
90
64
153
82
69
158
87
81
170
99
82
171
100
82
171
100
73
162
91
75
164
93
79
168
97
73
162
91
71
160
89
75
164
93
92
181
110
95
184
113
103
192
121
100
189
118
92
181
110
81
170
99
76
165
94
78
167
96
75
164
93
86
175
104
84
173
102
69
158
87
70
159
88
73
162
91
70
159
88
67
156
85
92
181
110
104
193
122
109
198
127
120
209
138
115
204
133
94
183
112
88
177
106
90
179
108
82
171
100
93
182
111
88
177
106
76
165
94
73
162
91
67
156
85
68
157
86
74
163
92
66
155
84
83
172
101
106
195
124
109
198
127
121
210
139
120
209
138
95
184
113
85
174
103
93
182
111
98
187
116
96
185
114
98
187
116
89
178
107
91
180
109
81
170
99
77
166
95
75
164
93
70
159
88
74
163
92
88
177
106
100
189
118
123
212
141
102
191
120
93
182
111
107
196
125
100
189
118
122
211
140
105
194
123
95
184
113
98
187
116
93
182
111
91
180
109
85
174
103
79
168
97
74
163
92
75
164
93
80
169
98
86
175
104
84
173
102
92
181
110
106
195
124
92
181
110
93
182
111
110
199
128
102
191
120
86
175
104
87
176
105
95
184
113
95
184
113
83
172
101
80
169
98
79
168
97
73
162
91
69
158
87
67
156
85
70
159
88
92
181
110
85
174
103
92
181
110
115
204
133
98
187
116
89
178
107
87
176
105
83
172
101
84
173
102
85
174
103
82
171
100
92
181
110
86
175
104
78
167
96
70
159
88
71
160
89
77
166
95
75
164
93
87
176
105
102
191
120
91
180
109
79
168
97
86
175
104
80
169
98
73
162
91
75
164
93
75
164
93
76
165
94
83
172
101
84
173
102
81
170
99
84
173
102
81
170
99
75
164
93
73
162
91
71
160
89
61
150
79
67
156
85
70
159
88
82
171
100
87
176
105
94
183
112
89
178
107
72
161
90
70
159
88
72
161
90
85
174
103
96
185
114
90
179
108
71
160
89
59
148
77
68
157
86
69
158
87
74
163
92
71
160
89
81
170
99
78
167
96
79
168
97
92
181
110
91
180
109
84
173
102
69
158
87
72
161
90
80
169
98
69
158
87
69
158
87
81
170
99
71
160
89
63
152
81
66
155
84
79
168
97
87
176
105
83
172
101
73
162
91
81
170
99
89
178
107
83
172
101
83
172
101
68
157
86
77
166
95
69
158
87
