P3
# Created by GIMP version 2.10.36 PNM plug-in
16 16
255
96
118
41
98
120
43
104
126
49
99
121
44
101
123
46
98
120
43
108
130
53
100
122
45
101
123
46
97
119
42
88
110
33
100
122
45
100
122
45
101
123
46
97
119
42
103
125
48
105
127
50
90
112
35
94
116
39
100
122
45
100
122
45
96
118
41
103
125
48
101
123
46
100
122
45
98
120
43
98
120
43
90
112
35
89
111
34
89
111
34
92
114
37
100
122
45
101
123
46
100
122
45
94
116
39
100
122
45
92
114
37
92
114
37
95
117
40
94
116
39
97
119
42
90
112
35
94
116
39
97
119
42
92
114
37
87
109
32
82
104
27
99
121
44
101
123
46
97
119
42
88
110
33
98
120
43
98
120
43
98
120
43
89
111
34
85
107
30
97
119
42
97
119
42
87
109
32
91
113
36
94
116
39
93
115
38
85
107
30
99
121
44
99
121
44
98
120
43
97
119
42
89
111
34
88
110
33
94
116
39
88
110
33
88
110
33
101
123
46
100
122
45
90
112
35
89
111
34
81
103
26
86
108
31
98
120
43
99
121
44
99
121
44
90
112
35
92
114
37
96
118
41
90
112
35
88
110
33
92
114
37
109
131
54
112
134
57
120
142
65
117
139
62
109
131
54
98
120
43
93
115
38
95
117
40
92
114
37
103
125
48
101
123
46
86
108
31
87
109
32
90
112
35
87
109
32
84
106
29
109
131
54
121
143
66
126
148
71
137
159
82
132
154
77
111
133
56
105
127
50
107
129
52
99
121
44
110
132
55
105
127
50
93
115
38
90
112
35
84
106
29
85
107
30
91
113
36
83
105
28
100
122
45
123
145
68
126
148
71
138
160
83
137
159
82
112
134
57
102
124
47
110
132
55
115
137
60
113
135
58
115
137
60
106
128
51
108
130
53
98
120
43
94
116
39
92
114
37
87
109
32
91
113
36
105
127
50
117
139
62
140
162
85
119
141
64
110
132
55
124
146
69
117
139
62
139
161
84
122
144
67
112
134
57
115
137
60
110
132
55
108
130
53
102
124
47
96
118
41
91
113
36
92
114
37
97
119
42
103
125
48
101
123
46
109
131
54
123
145
68
109
131
54
110
132
55
127
149
72
119
141
64
103
125
48
104
126
49
112
134
57
112
134
57
100
122
45
97
119
42
96
118
41
90
112
35
86
108
31
84
106
29
87
109
32
109
131
54
102
124
47
109
131
54
132
154
77
115
137
60
106
128
51
104
126
49
100
122
45
101
123
46
102
124
47
99
121
44
109
131
54
103
125
48
95
117
40
87
109
32
88
110
33
94
116
39
92
114
37
104
126
49
119
141
64
108
130
53
96
118
41
103
125
48
97
119
42
90
112
35
92
114
37
92
114
37
93
115
38
100
122
45
101
123
46
98
120
43
101
123
46
98
120
43
92
114
37
90
112
35
88
110
33
78
100
23
84
106
29
87
109
32
99
121
44
104
126
49
111
133
56
106
128
51
89
111
34
87
109
32
89
111
34
102
124
47
113
135
58
107
129
52
88
110
33
76
98
21
85
107
30
86
108
31
91
113
36
88
110
33
98
120
43
95
117
40
96
118
41
109
131
54
108
130
53
101
123
46
86
108
31
89
111
34
97
119
42
86
108
31
86
108
31
98
120
43
88
110
33
80
102
25
83
105
28
96
118
41
104
126
49
100
122
45
90
112
35
98
120
43
106
128
51
100
122
45
100
122
45
85
107
30
94
116
39
86
108
31
