P3
# Created by GIMP version 2.10.36 PNM plug-in
16 16
255
125
89
105
127
91
107
133
97
113
128
92
108
130
94
110
127
91
107
137
101
117
129
93
109
130
94
110
126
90
106
117
81
97
129
93
109
129
93
109
130
94
110
126
90
106
132
96
112
134
98
114
119
83
99
123
87
103
129
93
109
129
93
109
125
89
105
132
96
112
130
94
110
129
93
109
127
91
107
127
91
107
119
83
99
118
82
98
118
82
98
121
85
101
129
93
109
130
94
110
129
93
109
123
87
103
129
93
109
121
85
101
121
85
101
124
88
104
123
87
103
126
90
106
119
83
99
123
87
103
126
90
106
121
85
101
116
80
96
111
75
91
128
92
108
130
94
110
126
90
106
117
81
97
127
91
107
127
91
107
127
91
107
118
82
98
114
78
94
126
90
106
126
90
106
116
80
96
120
84
100
123
87
103
122
86
102
114
78
94
128
92
108
128
92
108
127
91
107
126
90
106
118
82
98
117
81
97
123
87
103
117
81
97
117
81
97
130
94
110
129
93
109
119
83
99
118
82
98
110
74
90
115
79
95
127
91
107
128
92
108
128
92
108
119
83
99
121
85
101
125
89
105
119
83
99
117
81
97
121
85
101
138
102
118
141
105
121
149
113
129
146
110
126
138
102
118
127
91
107
122
86
102
124
88
104
121
85
101
132
96
112
130
94
110
115
79
95
116
80
96
119
83
99
116
80
96
113
77
93
138
102
118
150
114
130
155
119
135
166
130
146
161
125
141
140
104
120
134
98
114
136
100
116
128
92
108
139
103
119
134
98
114
122
86
102
119
83
99
113
77
93
114
78
94
120
84
100
112
76
92
129
93
109
152
116
132
155
119
135
167
131
147
166
130
146
141
105
121
131
95
111
139
103
119
144
108
124
142
106
122
144
108
124
135
99
115
137
101
117
127
91
107
123
87
103
121
85
101
116
80
96
120
84
100
134
98
114
146
110
126
169
133
149
148
112
128
139
103
119
153
117
133
146
110
126
168
132
148
151
115
131
141
105
121
144
108
124
139
103
119
137
101
117
131
95
111
125
89
105
120
84
100
121
85
101
126
90
106
132
96
112
130
94
110
138
102
118
152
116
132
138
102
118
139
103
119
156
120
136
148
112
128
132
96
112
133
97
113
141
105
121
141
105
121
129
93
109
126
90
106
125
89
105
119
83
99
115
79
95
113
77
93
116
80
96
138
102
118
131
95
111
138
102
118
161
125
141
144
108
124
135
99
115
133
97
113
129
93
109
130
94
110
131
95
111
128
92
108
138
102
118
132
96
112
124
88
104
116
80
96
117
81
97
123
87
103
121
85
101
133
97
113
148
112
128
137
101
117
125
89
105
132
96
112
126
90
106
119
83
99
121
85
101
121
85
101
122
86
102
129
93
109
130
94
110
127
91
107
130
94
110
127
91
107
121
85
101
119
83
99
117
81
97
107
71
87
113
77
93
116
80
96
128
92
108
133
97
113
140
104
120
135
99
115
118
82
98
116
80
96
118
82
98
131
95
111
142
106
122
136
100
116
117
81
97
105
69
85
114
78
94
115
79
95
120
84
100
117
81
97
127
91
107
124
88
104
125
89
105
138
102
118
137
101
117
130
94
110
115
79
95
118
82
98
126
90
106
115
79
95
115
79
95
127
91
107
117
81
97
109
73
89
112
76
92
125
89
105
133
97
113
129
93
109
119
83
99
127
91
107
135
99
115
129
93
109
129
93
109
114
78
94
123
87
103
115
79
95
