P3
# Created by GIMP version 2.10.36 PNM plug-in
16 16
255
189
188
185
191
190
187
197
196
193
192
191
188
194
193
190
191
190
187
201
200
197
193
192
189
194
193
190
190
189
186
181
180
177
193
192
189
193
192
189
194
193
190
190
189
186
196
195
192
198
197
194
183
182
179
187
186
183
193
192
189
193
192
189
189
188
185
196
195
192
194
193
190
193
192
189
191
190
187
191
190
187
183
182
179
182
181
178
182
181
178
185
184
181
193
192
189
194
193
190
193
192
189
187
186
183
193
192
189
185
184
181
185
184
181
188
187
184
187
186
183
190
189
186
183
182
179
187
186
183
190
189
186
185
184
181
180
179
176
175
174
171
192
191
188
194
193
190
190
189
186
181
180
177
191
190
187
191
190
187
191
190
187
182
181
178
178
177
174
190
189
186
190
189
186
180
179
176
184
183
180
187
186
183
186
185
182
178
177
174
192
191
188
192
191
188
191
190
187
190
189
186
182
181
178
181
180
177
187
186
183
181
180
177
181
180
177
194
193
190
193
192
189
183
182
179
182
181
178
174
173
170
179
178
175
191
190
187
192
191
188
192
191
188
183
182
179
185
184
181
189
188
185
183
182
179
181
180
177
185
184
181
202
201
198
205
204
201
213
212
209
210
209
206
202
201
198
191
190
187
186
185
182
188
187
184
185
184
181
196
195
192
194
193
190
179
178
175
180
179
176
183
182
179
180
179
176
177
176
173
202
201
198
214
213
210
219
218
215
230
229
226
225
224
221
204
203
200
198
197
194
200
199
196
192
191
188
203
202
199
198
197
194
186
185
182
183
182
179
177
176
173
178
177
174
184
183
180
176
175
172
193
192
189
216
215
212
219
218
215
231
230
227
230
229
226
205
204
201
195
194
191
203
202
199
208
207
204
206
205
202
208
207
204
199
198
195
201
200
197
191
190
187
187
186
183
185
184
181
180
179
176
184
183
180
198
197
194
210
209
206
233
232
229
212
211
208
203
202
199
217
216
213
210
209
206
232
231
228
215
214
211
205
204
201
208
207
204
203
202
199
201
200
197
195
194
191
189
188
185
184
183
180
185
184
181
190
189
186
196
195
192
194
193
190
202
201
198
216
215
212
202
201
198
203
202
199
220
219
216
212
211
208
196
195
192
197
196
193
205
204
201
205
204
201
193
192
189
190
189
186
189
188
185
183
182
179
179
178
175
177
176
173
180
179
176
202
201
198
195
194
191
202
201
198
225
224
221
208
207
204
199
198
195
197
196
193
193
192
189
194
193
190
195
194
191
192
191
188
202
201
198
196
195
192
188
187
184
180
179
176
181
180
177
187
186
183
185
184
181
197
196
193
212
211
208
201
200
197
189
188
185
196
195
192
190
189
186
183
182
179
185
184
181
185
184
181
186
185
182
193
192
189
194
193
190
191
190
187
194
193
190
191
190
187
185
184
181
183
182
179
181
180
177
171
170
167
177
176
173
180
179
176
192
191
188
197
196
193
204
203
200
199
198
195
182
181
178
180
179
176
182
181
178
195
194
191
206
205
202
200
199
196
181
180
177
169
168
165
178
177
174
179
178
175
184
183
180
181
180
177
191
190
187
188
187
184
189
188
185
202
201
198
201
200
197
194
193
190
179
178
175
182
181
178
190
189
186
179
178
175
179
178
175
191
190
187
181
180
177
173
172
169
176
175
172
189
188
185
197
196
193
193
192
189
183
182
179
191
190
187
199
198
195
193
192
189
193
192
189
178
177
174
187
186
183
179
178
175
