P3
# Created by GIMP version 2.10.36 PNM plug-in
16 16
255
208
107
108
210
109
110
216
115
116
211
110
111
213
112
113
210
109
110
220
119
120
212
111
112
213
112
113
209
108
109
200
99
100
212
111
112
212
111
112
213
112
113
209
108
109
215
114
115
217
116
117
202
101
102
206
105
106
212
111
112
212
111
112
208
107
108
215
114
115
213
112
113
212
111
112
210
109
110
210
109
110
202
101
102
201
100
101
201
100
101
204
103
104
212
111
112
213
112
113
212
111
112
206
105
106
212
111
112
204
103
104
204
103
104
207
106
107
206
105
106
209
108
109
202
101
102
206
105
106
209
108
109
204
103
104
199
98
99
194
93
94
211
110
111
213
112
113
209
108
109
200
99
100
210
109
110
210
109
110
210
109
110
201
100
101
197
96
97
209
108
109
209
108
109
199
98
99
203
102
103
206
105
106
205
104
105
197
96
97
211
110
111
211
110
111
210
109
110
209
108
109
201
100
101
200
99
100
206
105
106
200
99
100
200
99
100
213
112
113
212
111
112
202
101
102
201
100
101
193
92
93
198
97
98
210
109
110
211
110
111
211
110
111
202
101
102
204
103
104
208
107
108
202
101
102
200
99
100
204
103
104
221
120
121
224
123
124
232
131
132
229
128
129
221
120
121
210
109
110
205
104
105
207
106
107
204
103
104
215
114
115
213
112
113
198
97
98
199
98
99
202
101
102
199
98
99
196
95
96
221
120
121
233
132
133
238
137
138
249
148
149
244
143
144
223
122
123
217
116
117
219
118
119
211
110
111
222
121
122
217
116
117
205
104
105
202
101
102
196
95
96
197
96
97
203
102
103
195
94
95
212
111
112
235
134
135
238
137
138
250
149
150
249
148
149
224
123
124
214
113
114
222
121
122
227
126
127
225
124
125
227
126
127
218
117
118
220
119
120
210
109
110
206
105
106
204
103
104
199
98
99
203
102
103
217
116
117
229
128
129
252
151
152
231
130
131
222
121
122
236
135
136
229
128
129
251
150
151
234
133
134
224
123
124
227
126
127
222
121
122
220
119
120
214
113
114
208
107
108
203
102
103
204
103
104
209
108
109
215
114
115
213
112
113
221
120
121
235
134
135
221
120
121
222
121
122
239
138
139
231
130
131
215
114
115
216
115
116
224
123
124
224
123
124
212
111
112
209
108
109
208
107
108
202
101
102
198
97
98
196
95
96
199
98
99
221
120
121
214
113
114
221
120
121
244
143
144
227
126
127
218
117
118
216
115
116
212
111
112
213
112
113
214
113
114
211
110
111
221
120
121
215
114
115
207
106
107
199
98
99
200
99
100
206
105
106
204
103
104
216
115
116
231
130
131
220
119
120
208
107
108
215
114
115
209
108
109
202
101
102
204
103
104
204
103
104
205
104
105
212
111
112
213
112
113
210
109
110
213
112
113
210
109
110
204
103
104
202
101
102
200
99
100
190
89
90
196
95
96
199
98
99
211
110
111
216
115
116
223
122
123
218
117
118
201
100
101
199
98
99
201
100
101
214
113
114
225
124
125
219
118
119
200
99
100
188
87
88
197
96
97
198
97
98
203
102
103
200
99
100
210
109
110
207
106
107
208
107
108
221
120
121
220
119
120
213
112
113
198
97
98
201
100
101
209
108
109
198
97
98
198
97
98
210
109
110
200
99
100
192
91
92
195
94
95
208
107
108
216
115
116
212
111
112
202
101
102
210
109
110
218
117
118
212
111
112
212
111
112
197
96
97
206
105
106
198
97
98
