P3
# Created by GIMP version 2.10.36 PNM plug-in
16 16
255
157
135
111
159
137
113
165
143
119
160
138
114
162
140
116
159
137
113
169
147
123
161
139
115
162
140
116
158
136
112
149
127
103
161
139
115
161
139
115
162
140
116
158
136
112
164
142
118
166
144
120
151
129
105
155
133
109
161
139
115
161
139
115
157
135
111
164
142
118
162
140
116
161
139
115
159
137
113
159
137
113
151
129
105
150
128
104
150
128
104
153
131
107
161
139
115
162
140
116
161
139
115
155
133
109
161
139
115
153
131
107
153
131
107
156
134
110
155
133
109
158
136
112
151
129
105
155
133
109
158
136
112
153
131
107
148
126
102
143
121
97
160
138
114
162
140
116
158
136
112
149
127
103
159
137
113
159
137
113
159
137
113
150
128
104
146
124
100
158
136
112
158
136
112
148
126
102
152
130
106
155
133
109
154
132
108
146
124
100
160
138
114
160
138
114
159
137
113
158
136
112
150
128
104
149
127
103
155
133
109
149
127
103
149
127
103
162
140
116
161
139
115
151
129
105
150
128
104
142
120
96
147
125
101
159
137
113
160
138
114
160
138
114
151
129
105
153
131
107
157
135
111
151
129
105
149
127
103
153
131
107
170
148
124
173
151
127
181
159
135
178
156
132
170
148
124
159
137
113
154
132
108
156
134
110
153
131
107
164
142
118
162
140
116
147
125
101
148
126
102
151
129
105
148
126
102
145
123
99
170
148
124
182
160
136
187
165
141
198
176
152
193
171
147
172
150
126
166
144
120
168
146
122
160
138
114
171
149
125
166
144
120
154
132
108
151
129
105
145
123
99
146
124
100
152
130
106
144
122
98
161
139
115
184
162
138
187
165
141
199
177
153
198
176
152
173
151
127
163
141
117
171
149
125
176
154
130
174
152
128
176
154
130
167
145
121
169
147
123
159
137
113
155
133
109
153
131
107
148
126
102
152
130
106
166
144
120
178
156
132
201
179
155
180
158
134
171
149
125
185
163
139
178
156
132
200
178
154
183
161
137
173
151
127
176
154
130
171
149
125
169
147
123
163
141
117
157
135
111
152
130
106
153
131
107
158
136
112
164
142
118
162
140
116
170
148
124
184
162
138
170
148
124
171
149
125
188
166
142
180
158
134
164
142
118
165
143
119
173
151
127
173
151
127
161
139
115
158
136
112
157
135
111
151
129
105
147
125
101
145
123
99
148
126
102
170
148
124
163
141
117
170
148
124
193
171
147
176
154
130
167
145
121
165
143
119
161
139
115
162
140
116
163
141
117
160
138
114
170
148
124
164
142
118
156
134
110
148
126
102
149
127
103
155
133
109
153
131
107
165
143
119
180
158
134
169
147
123
157
135
111
164
142
118
158
136
112
151
129
105
153
131
107
153
131
107
154
132
108
161
139
115
162
140
116
159
137
113
162
140
116
159
137
113
153
131
107
151
129
105
149
127
103
139
117
93
145
123
99
148
126
102
160
138
114
165
143
119
172
150
126
167
145
121
150
128
104
148
126
102
150
128
104
163
141
117
174
152
128
168
146
122
149
127
103
137
115
91
146
124
100
147
125
101
152
130
106
149
127
103
159
137
113
156
134
110
157
135
111
170
148
124
169
147
123
162
140
116
147
125
101
150
128
104
158
136
112
147
125
101
147
125
101
159
137
113
149
127
103
141
119
95
144
122
98
157
135
111
165
143
119
161
139
115
151
129
105
159
137
113
167
145
121
161
139
115
161
139
115
146
124
100
155
133
109
147
125
101
