P3
# Created by GIMP version 2.10.36 PNM plug-in
16 16
255
65
133
99
67
135
101
73
141
107
68
136
102
70
138
104
67
135
101
77
145
111
69
137
103
70
138
104
66
134
100
57
125
91
69
137
103
69
137
103
70
138
104
66
134
100
72
140
106
74
142
108
59
127
93
63
131
97
69
137
103
69
137
103
65
133
99
72
140
106
70
138
104
69
137
103
67
135
101
67
135
101
59
127
93
58
126
92
58
126
92
61
129
95
69
137
103
70
138
104
69
137
103
63
131
97
69
137
103
61
129
95
61
129
95
64
132
98
63
131
97
66
134
100
59
127
93
63
131
97
66
134
100
61
129
95
56
124
90
51
119
85
68
136
102
70
138
104
66
134
100
57
125
91
67
135
101
67
135
101
67
135
101
58
126
92
54
122
88
66
134
100
66
134
100
56
124
90
60
128
94
63
131
97
62
130
96
54
122
88
68
136
102
68
136
102
67
135
101
66
134
100
58
126
92
57
125
91
63
131
97
57
125
91
57
125
91
70
138
104
69
137
103
59
127
93
58
126
92
50
118
84
55
123
89
67
135
101
68
136
102
68
136
102
59
127
93
61
129
95
65
133
99
59
127
93
57
125
91
61
129
95
78
146
112
81
149
115
89
157
123
86
154
120
78
146
112
67
135
101
62
130
96
64
132
98
61
129
95
72
140
106
70
138
104
55
123
89
56
124
90
59
127
93
56
124
90
53
121
87
78
146
112
90
158
124
95
163
129
106
174
140
101
169
135
80
148
114
74
142
108
76
144
110
68
136
102
79
147
113
74
142
108
62
130
96
59
127
93
53
121
87
54
122
88
60
128
94
52
120
86
69
137
103
92
160
126
95
163
129
107
175
141
106
174
140
81
149
115
71
139
105
79
147
113
84
152
118
82
150
116
84
152
118
75
143
109
77
145
111
67
135
101
63
131
97
61
129
95
56
124
90
60
128
94
74
142
108
86
154
120
109
177
143
88
156
122
79
147
113
93
161
127
86
154
120
108
176
142
91
159
125
81
149
115
84
152
118
79
147
113
77
145
111
71
139
105
65
133
99
60
128
94
61
129
95
66
134
100
72
140
106
70
138
104
78
146
112
92
160
126
78
146
112
79
147
113
96
164
130
88
156
122
72
140
106
73
141
107
81
149
115
81
149
115
69
137
103
66
134
100
65
133
99
59
127
93
55
123
89
53
121
87
56
124
90
78
146
112
71
139
105
78
146
112
101
169
135
84
152
118
75
143
109
73
141
107
69
137
103
70
138
104
71
139
105
68
136
102
78
146
112
72
140
106
64
132
98
56
124
90
57
125
91
63
131
97
61
129
95
73
141
107
88
156
122
77
145
111
65
133
99
72
140
106
66
134
100
59
127
93
61
129
95
61
129
95
62
130
96
69
137
103
70
138
104
67
135
101
70
138
104
67
135
101
61
129
95
59
127
93
57
125
91
47
115
81
53
121
87
56
124
90
68
136
102
73
141
107
80
148
114
75
143
109
58
126
92
56
124
90
58
126
92
71
139
105
82
150
116
76
144
110
57
125
91
45
113
79
54
122
88
55
123
89
60
128
94
57
125
91
67
135
101
64
132
98
65
133
99
78
146
112
77
145
111
70
138
104
55
123
89
58
126
92
66
134
100
55
123
89
55
123
89
67
135
101
57
125
91
49
117
83
52
120
86
65
133
99
73
141
107
69
137
103
59
127
93
67
135
101
75
143
109
69
137
103
69
137
103
54
122
88
63
131
97
55
123
89
