P3
# Created by GIMP version 2.10.36 PNM plug-in
16 16
255
196
92
40
198
94
42
204
100
48
199
95
43
201
97
45
198
94
42
208
104
52
200
96
44
201
97
45
197
93
41
188
84
32
200
96
44
200
96
44
201
97
45
197
93
41
203
99
47
205
101
49
190
86
34
194
90
38
200
96
44
200
96
44
196
92
40
203
99
47
201
97
45
200
96
44
198
94
42
198
94
42
190
86
34
189
85
33
189
85
33
192
88
36
200
96
44
201
97
45
200
96
44
194
90
38
200
96
44
192
88
36
192
88
36
195
91
39
194
90
38
197
93
41
190
86
34
194
90
38
197
93
41
192
88
36
187
83
31
182
78
26
199
95
43
201
97
45
197
93
41
188
84
32
198
94
42
198
94
42
198
94
42
189
85
33
185
81
29
197
93
41
197
93
41
187
83
31
191
87
35
194
90
38
193
89
37
185
81
29
199
95
43
199
95
43
198
94
42
197
93
41
189
85
33
188
84
32
194
90
38
188
84
32
188
84
32
201
97
45
200
96
44
190
86
34
189
85
33
181
77
25
186
82
30
198
94
42
199
95
43
199
95
43
190
86
34
192
88
36
196
92
40
190
86
34
188
84
32
192
88
36
209
105
53
212
108
56
220
116
64
217
113
61
209
105
53
198
94
42
193
89
37
195
91
39
192
88
36
203
99
47
201
97
45
186
82
30
187
83
31
190
86
34
187
83
31
184
80
28
209
105
53
221
117
65
226
122
70
237
133
81
232
128
76
211
107
55
205
101
49
207
103
51
199
95
43
210
106
54
205
101
49
193
89
37
190
86
34
184
80
28
185
81
29
191
87
35
183
79
27
200
96
44
223
119
67
226
122
70
238
134
82
237
133
81
212
108
56
202
98
46
210
106
54
215
111
59
213
109
57
215
111
59
206
102
50
208
104
52
198
94
42
194
90
38
192
88
36
187
83
31
191
87
35
205
101
49
217
113
61
240
136
84
219
115
63
210
106
54
224
120
68
217
113
61
239
135
83
222
118
66
212
108
56
215
111
59
210
106
54
208
104
52
202
98
46
196
92
40
191
87
35
192
88
36
197
93
41
203
99
47
201
97
45
209
105
53
223
119
67
209
105
53
210
106
54
227
123
71
219
115
63
203
99
47
204
100
48
212
108
56
212
108
56
200
96
44
197
93
41
196
92
40
190
86
34
186
82
30
184
80
28
187
83
31
209
105
53
202
98
46
209
105
53
232
128
76
215
111
59
206
102
50
204
100
48
200
96
44
201
97
45
202
98
46
199
95
43
209
105
53
203
99
47
195
91
39
187
83
31
188
84
32
194
90
38
192
88
36
204
100
48
219
115
63
208
104
52
196
92
40
203
99
47
197
93
41
190
86
34
192
88
36
192
88
36
193
89
37
200
96
44
201
97
45
198
94
42
201
97
45
198
94
42
192
88
36
190
86
34
188
84
32
178
74
22
184
80
28
187
83
31
199
95
43
204
100
48
211
107
55
206
102
50
189
85
33
187
83
31
189
85
33
202
98
46
213
109
57
207
103
51
188
84
32
176
72
20
185
81
29
186
82
30
191
87
35
188
84
32
198
94
42
195
91
39
196
92
40
209
105
53
208
104
52
201
97
45
186
82
30
189
85
33
197
93
41
186
82
30
186
82
30
198
94
42
188
84
32
180
76
24
183
79
27
196
92
40
204
100
48
200
96
44
190
86
34
198
94
42
206
102
50
200
96
44
200
96
44
185
81
29
194
90
38
186
82
30
