P3
# Created by GIMP version 2.10.36 PNM plug-in
16 16
255
72
178
211
74
180
213
80
186
219
75
181
214
77
183
216
74
180
213
84
190
223
76
182
215
77
183
216
73
179
212
64
170
203
76
182
215
76
182
215
77
183
216
73
179
212
79
185
218
81
187
220
66
172
205
70
176
209
76
182
215
76
182
215
72
178
211
79
185
218
77
183
216
76
182
215
74
180
213
74
180
213
66
172
205
65
171
204
65
171
204
68
174
207
76
182
215
77
183
216
76
182
215
70
176
209
76
182
215
68
174
207
68
174
207
71
177
210
70
176
209
73
179
212
66
172
205
70
176
209
73
179
212
68
174
207
63
169
202
58
164
197
75
181
214
77
183
216
73
179
212
64
170
203
74
180
213
74
180
213
74
180
213
65
171
204
61
167
200
73
179
212
73
179
212
63
169
202
67
173
206
70
176
209
69
175
208
61
167
200
75
181
214
75
181
214
74
180
213
73
179
212
65
171
204
64
170
203
70
176
209
64
170
203
64
170
203
77
183
216
76
182
215
66
172
205
65
171
204
57
163
196
62
168
201
74
180
213
75
181
214
75
181
214
66
172
205
68
174
207
72
178
211
66
172
205
64
170
203
68
174
207
85
191
224
88
194
227
96
202
235
93
199
232
85
191
224
74
180
213
69
175
208
71
177
210
68
174
207
79
185
218
77
183
216
62
168
201
63
169
202
66
172
205
63
169
202
60
166
199
85
191
224
97
203
236
102
208
241
113
219
252
108
214
247
87
193
226
81
187
220
83
189
222
75
181
214
86
192
225
81
187
220
69
175
208
66
172
205
60
166
199
61
167
200
67
173
206
59
165
198
76
182
215
99
205
238
102
208
241
114
220
253
113
219
252
88
194
227
78
184
217
86
192
225
91
197
230
89
195
228
91
197
230
82
188
221
84
190
223
74
180
213
70
176
209
68
174
207
63
169
202
67
173
206
81
187
220
93
199
232
116
222
255
95
201
234
86
192
225
100
206
239
93
199
232
115
221
254
98
204
237
88
194
227
91
197
230
86
192
225
84
190
223
78
184
217
72
178
211
67
173
206
68
174
207
73
179
212
79
185
218
77
183
216
85
191
224
99
205
238
85
191
224
86
192
225
103
209
242
95
201
234
79
185
218
80
186
219
88
194
227
88
194
227
76
182
215
73
179
212
72
178
211
66
172
205
62
168
201
60
166
199
63
169
202
85
191
224
78
184
217
85
191
224
108
214
247
91
197
230
82
188
221
80
186
219
76
182
215
77
183
216
78
184
217
75
181
214
85
191
224
79
185
218
71
177
210
63
169
202
64
170
203
70
176
209
68
174
207
80
186
219
95
201
234
84
190
223
72
178
211
79
185
218
73
179
212
66
172
205
68
174
207
68
174
207
69
175
208
76
182
215
77
183
216
74
180
213
77
183
216
74
180
213
68
174
207
66
172
205
64
170
203
54
160
193
60
166
199
63
169
202
75
181
214
80
186
219
87
193
226
82
188
221
65
171
204
63
169
202
65
171
204
78
184
217
89
195
228
83
189
222
64
170
203
52
158
191
61
167
200
62
168
201
67
173
206
64
170
203
74
180
213
71
177
210
72
178
211
85
191
224
84
190
223
77
183
216
62
168
201
65
171
204
73
179
212
62
168
201
62
168
201
74
180
213
64
170
203
56
162
195
59
165
198
72
178
211
80
186
219
76
182
215
66
172
205
74
180
213
82
188
221
76
182
215
76
182
215
61
167
200
70
176
209
62
168
201
