P3
# Created by GIMP version 2.10.36 PNM plug-in
16 16
255
153
153
146
155
155
148
161
161
154
156
156
149
158
158
151
155
155
148
165
165
158
157
157
150
158
158
151
154
154
147
145
145
138
157
157
150
157
157
150
158
158
151
154
154
147
160
160
153
162
162
155
147
147
140
151
151
144
157
157
150
157
157
150
153
153
146
160
160
153
158
158
151
157
157
150
155
155
148
155
155
148
147
147
140
146
146
139
146
146
139
149
149
142
157
157
150
158
158
151
157
157
150
151
151
144
157
157
150
149
149
142
149
149
142
152
152
145
151
151
144
154
154
147
147
147
140
151
151
144
154
154
147
149
149
142
144
144
137
139
139
132
156
156
149
158
158
151
154
154
147
145
145
138
155
155
148
155
155
148
155
155
148
146
146
139
142
142
135
154
154
147
154
154
147
144
144
137
148
148
141
151
151
144
150
150
143
142
142
135
156
156
149
156
156
149
155
155
148
154
154
147
146
146
139
145
145
138
151
151
144
145
145
138
145
145
138
158
158
151
157
157
150
147
147
140
146
146
139
138
138
131
143
143
136
155
155
148
156
156
149
156
156
149
147
147
140
149
149
142
153
153
146
147
147
140
145
145
138
149
149
142
166
166
159
169
169
162
177
177
170
174
174
167
166
166
159
155
155
148
150
150
143
152
152
145
149
149
142
160
160
153
158
158
151
143
143
136
144
144
137
147
147
140
144
144
137
141
141
134
166
166
159
178
178
171
183
183
176
194
194
187
189
189
182
168
168
161
162
162
155
164
164
157
156
156
149
167
167
160
162
162
155
150
150
143
147
147
140
141
141
134
142
142
135
148
148
141
140
140
133
157
157
150
180
180
173
183
183
176
195
195
188
194
194
187
169
169
162
159
159
152
167
167
160
172
172
165
170
170
163
172
172
165
163
163
156
165
165
158
155
155
148
151
151
144
149
149
142
144
144
137
148
148
141
162
162
155
174
174
167
197
197
190
176
176
169
167
167
160
181
181
174
174
174
167
196
196
189
179
179
172
169
169
162
172
172
165
167
167
160
165
165
158
159
159
152
153
153
146
148
148
141
149
149
142
154
154
147
160
160
153
158
158
151
166
166
159
180
180
173
166
166
159
167
167
160
184
184
177
176
176
169
160
160
153
161
161
154
169
169
162
169
169
162
157
157
150
154
154
147
153
153
146
147
147
140
143
143
136
141
141
134
144
144
137
166
166
159
159
159
152
166
166
159
189
189
182
172
172
165
163
163
156
161
161
154
157
157
150
158
158
151
159
159
152
156
156
149
166
166
159
160
160
153
152
152
145
144
144
137
145
145
138
151
151
144
149
149
142
161
161
154
176
176
169
165
165
158
153
153
146
160
160
153
154
154
147
147
147
140
149
149
142
149
149
142
150
150
143
157
157
150
158
158
151
155
155
148
158
158
151
155
155
148
149
149
142
147
147
140
145
145
138
135
135
128
141
141
134
144
144
137
156
156
149
161
161
154
168
168
161
163
163
156
146
146
139
144
144
137
146
146
139
159
159
152
170
170
163
164
164
157
145
145
138
133
133
126
142
142
135
143
143
136
148
148
141
145
145
138
155
155
148
152
152
145
153
153
146
166
166
159
165
165
158
158
158
151
143
143
136
146
146
139
154
154
147
143
143
136
143
143
136
155
155
148
145
145
138
137
137
130
140
140
133
153
153
146
161
161
154
157
157
150
147
147
140
155
155
148
163
163
156
157
157
150
157
157
150
142
142
135
151
151
144
143
143
136
