P3
# Created by GIMP version 2.10.36 PNM plug-in
16 16
255
175
107
42
177
109
44
183
115
50
178
110
45
180
112
47
177
109
44
187
119
54
179
111
46
180
112
47
176
108
43
167
99
34
179
111
46
179
111
46
180
112
47
176
108
43
182
114
49
184
116
51
169
101
36
173
105
40
179
111
46
179
111
46
175
107
42
182
114
49
180
112
47
179
111
46
177
109
44
177
109
44
169
101
36
168
100
35
168
100
35
171
103
38
179
111
46
180
112
47
179
111
46
173
105
40
179
111
46
171
103
38
171
103
38
174
106
41
173
105
40
176
108
43
169
101
36
173
105
40
176
108
43
171
103
38
166
98
33
161
93
28
178
110
45
180
112
47
176
108
43
167
99
34
177
109
44
177
109
44
177
109
44
168
100
35
164
96
31
176
108
43
176
108
43
166
98
33
170
102
37
173
105
40
172
104
39
164
96
31
178
110
45
178
110
45
177
109
44
176
108
43
168
100
35
167
99
34
173
105
40
167
99
34
167
99
34
180
112
47
179
111
46
169
101
36
168
100
35
160
92
27
165
97
32
177
109
44
178
110
45
178
110
45
169
101
36
171
103
38
175
107
42
169
101
36
167
99
34
171
103
38
188
120
55
191
123
58
199
131
66
196
128
63
188
120
55
177
109
44
172
104
39
174
106
41
171
103
38
182
114
49
180
112
47
165
97
32
166
98
33
169
101
36
166
98
33
163
95
30
188
120
55
200
132
67
205
137
72
216
148
83
211
143
78
190
122
57
184
116
51
186
118
53
178
110
45
189
121
56
184
116
51
172
104
39
169
101
36
163
95
30
164
96
31
170
102
37
162
94
29
179
111
46
202
134
69
205
137
72
217
149
84
216
148
83
191
123
58
181
113
48
189
121
56
194
126
61
192
124
59
194
126
61
185
117
52
187
119
54
177
109
44
173
105
40
171
103
38
166
98
33
170
102
37
184
116
51
196
128
63
219
151
86
198
130
65
189
121
56
203
135
70
196
128
63
218
150
85
201
133
68
191
123
58
194
126
61
189
121
56
187
119
54
181
113
48
175
107
42
170
102
37
171
103
38
176
108
43
182
114
49
180
112
47
188
120
55
202
134
69
188
120
55
189
121
56
206
138
73
198
130
65
182
114
49
183
115
50
191
123
58
191
123
58
179
111
46
176
108
43
175
107
42
169
101
36
165
97
32
163
95
30
166
98
33
188
120
55
181
113
48
188
120
55
211
143
78
194
126
61
185
117
52
183
115
50
179
111
46
180
112
47
181
113
48
178
110
45
188
120
55
182
114
49
174
106
41
166
98
33
167
99
34
173
105
40
171
103
38
183
115
50
198
130
65
187
119
54
175
107
42
182
114
49
176
108
43
169
101
36
171
103
38
171
103
38
172
104
39
179
111
46
180
112
47
177
109
44
180
112
47
177
109
44
171
103
38
169
101
36
167
99
34
157
89
24
163
95
30
166
98
33
178
110
45
183
115
50
190
122
57
185
117
52
168
100
35
166
98
33
168
100
35
181
113
48
192
124
59
186
118
53
167
99
34
155
87
22
164
96
31
165
97
32
170
102
37
167
99
34
177
109
44
174
106
41
175
107
42
188
120
55
187
119
54
180
112
47
165
97
32
168
100
35
176
108
43
165
97
32
165
97
32
177
109
44
167
99
34
159
91
26
162
94
29
175
107
42
183
115
50
179
111
46
169
101
36
177
109
44
185
117
52
179
111
46
179
111
46
164
96
31
173
105
40
165
97
32
