P3
# Created by GIMP version 2.10.36 PNM plug-in
16 16
255
124
187
38
126
189
40
132
195
46
127
190
41
129
192
43
126
189
40
136
199
50
128
191
42
129
192
43
125
188
39
116
179
30
128
191
42
128
191
42
129
192
43
125
188
39
131
194
45
133
196
47
118
181
32
122
185
36
128
191
42
128
191
42
124
187
38
131
194
45
129
192
43
128
191
42
126
189
40
126
189
40
118
181
32
117
180
31
117
180
31
120
183
34
128
191
42
129
192
43
128
191
42
122
185
36
128
191
42
120
183
34
120
183
34
123
186
37
122
185
36
125
188
39
118
181
32
122
185
36
125
188
39
120
183
34
115
178
29
110
173
24
127
190
41
129
192
43
125
188
39
116
179
30
126
189
40
126
189
40
126
189
40
117
180
31
113
176
27
125
188
39
125
188
39
115
178
29
119
182
33
122
185
36
121
184
35
113
176
27
127
190
41
127
190
41
126
189
40
125
188
39
117
180
31
116
179
30
122
185
36
116
179
30
116
179
30
129
192
43
128
191
42
118
181
32
117
180
31
109
172
23
114
177
28
126
189
40
127
190
41
127
190
41
118
181
32
120
183
34
124
187
38
118
181
32
116
179
30
120
183
34
137
200
51
140
203
54
148
211
62
145
208
59
137
200
51
126
189
40
121
184
35
123
186
37
120
183
34
131
194
45
129
192
43
114
177
28
115
178
29
118
181
32
115
178
29
112
175
26
137
200
51
149
212
63
154
217
68
165
228
79
160
223
74
139
202
53
133
196
47
135
198
49
127
190
41
138
201
52
133
196
47
121
184
35
118
181
32
112
175
26
113
176
27
119
182
33
111
174
25
128
191
42
151
214
65
154
217
68
166
229
80
165
228
79
140
203
54
130
193
44
138
201
52
143
206
57
141
204
55
143
206
57
134
197
48
136
199
50
126
189
40
122
185
36
120
183
34
115
178
29
119
182
33
133
196
47
145
208
59
168
231
82
147
210
61
138
201
52
152
215
66
145
208
59
167
230
81
150
213
64
140
203
54
143
206
57
138
201
52
136
199
50
130
193
44
124
187
38
119
182
33
120
183
34
125
188
39
131
194
45
129
192
43
137
200
51
151
214
65
137
200
51
138
201
52
155
218
69
147
210
61
131
194
45
132
195
46
140
203
54
140
203
54
128
191
42
125
188
39
124
187
38
118
181
32
114
177
28
112
175
26
115
178
29
137
200
51
130
193
44
137
200
51
160
223
74
143
206
57
134
197
48
132
195
46
128
191
42
129
192
43
130
193
44
127
190
41
137
200
51
131
194
45
123
186
37
115
178
29
116
179
30
122
185
36
120
183
34
132
195
46
147
210
61
136
199
50
124
187
38
131
194
45
125
188
39
118
181
32
120
183
34
120
183
34
121
184
35
128
191
42
129
192
43
126
189
40
129
192
43
126
189
40
120
183
34
118
181
32
116
179
30
106
169
20
112
175
26
115
178
29
127
190
41
132
195
46
139
202
53
134
197
48
117
180
31
115
178
29
117
180
31
130
193
44
141
204
55
135
198
49
116
179
30
104
167
18
113
176
27
114
177
28
119
182
33
116
179
30
126
189
40
123
186
37
124
187
38
137
200
51
136
199
50
129
192
43
114
177
28
117
180
31
125
188
39
114
177
28
114
177
28
126
189
40
116
179
30
108
171
22
111
174
25
124
187
38
132
195
46
128
191
42
118
181
32
126
189
40
134
197
48
128
191
42
128
191
42
113
176
27
122
185
36
114
177
28
