P3
# Created by GIMP version 2.10.36 PNM plug-in
16 16
255
113
86
108
115
88
110
121
94
116
116
89
111
118
91
113
115
88
110
125
98
120
117
90
112
118
91
113
114
87
109
105
78
100
117
90
112
117
90
112
118
91
113
114
87
109
120
93
115
122
95
117
107
80
102
111
84
106
117
90
112
117
90
112
113
86
108
120
93
115
118
91
113
117
90
112
115
88
110
115
88
110
107
80
102
106
79
101
106
79
101
109
82
104
117
90
112
118
91
113
117
90
112
111
84
106
117
90
112
109
82
104
109
82
104
112
85
107
111
84
106
114
87
109
107
80
102
111
84
106
114
87
109
109
82
104
104
77
99
99
72
94
116
89
111
118
91
113
114
87
109
105
78
100
115
88
110
115
88
110
115
88
110
106
79
101
102
75
97
114
87
109
114
87
109
104
77
99
108
81
103
111
84
106
110
83
105
102
75
97
116
89
111
116
89
111
115
88
110
114
87
109
106
79
101
105
78
100
111
84
106
105
78
100
105
78
100
118
91
113
117
90
112
107
80
102
106
79
101
98
71
93
103
76
98
115
88
110
116
89
111
116
89
111
107
80
102
109
82
104
113
86
108
107
80
102
105
78
100
109
82
104
126
99
121
129
102
124
137
110
132
134
107
129
126
99
121
115
88
110
110
83
105
112
85
107
109
82
104
120
93
115
118
91
113
103
76
98
104
77
99
107
80
102
104
77
99
101
74
96
126
99
121
138
111
133
143
116
138
154
127
149
149
122
144
128
101
123
122
95
117
124
97
119
116
89
111
127
100
122
122
95
117
110
83
105
107
80
102
101
74
96
102
75
97
108
81
103
100
73
95
117
90
112
140
113
135
143
116
138
155
128
150
154
127
149
129
102
124
119
92
114
127
100
122
132
105
127
130
103
125
132
105
127
123
96
118
125
98
120
115
88
110
111
84
106
109
82
104
104
77
99
108
81
103
122
95
117
134
107
129
157
130
152
136
109
131
127
100
122
141
114
136
134
107
129
156
129
151
139
112
134
129
102
124
132
105
127
127
100
122
125
98
120
119
92
114
113
86
108
108
81
103
109
82
104
114
87
109
120
93
115
118
91
113
126
99
121
140
113
135
126
99
121
127
100
122
144
117
139
136
109
131
120
93
115
121
94
116
129
102
124
129
102
124
117
90
112
114
87
109
113
86
108
107
80
102
103
76
98
101
74
96
104
77
99
126
99
121
119
92
114
126
99
121
149
122
144
132
105
127
123
96
118
121
94
116
117
90
112
118
91
113
119
92
114
116
89
111
126
99
121
120
93
115
112
85
107
104
77
99
105
78
100
111
84
106
109
82
104
121
94
116
136
109
131
125
98
120
113
86
108
120
93
115
114
87
109
107
80
102
109
82
104
109
82
104
110
83
105
117
90
112
118
91
113
115
88
110
118
91
113
115
88
110
109
82
104
107
80
102
105
78
100
95
68
90
101
74
96
104
77
99
116
89
111
121
94
116
128
101
123
123
96
118
106
79
101
104
77
99
106
79
101
119
92
114
130
103
125
124
97
119
105
78
100
93
66
88
102
75
97
103
76
98
108
81
103
105
78
100
115
88
110
112
85
107
113
86
108
126
99
121
125
98
120
118
91
113
103
76
98
106
79
101
114
87
109
103
76
98
103
76
98
115
88
110
105
78
100
97
70
92
100
73
95
113
86
108
121
94
116
117
90
112
107
80
102
115
88
110
123
96
118
117
90
112
117
90
112
102
75
97
111
84
106
103
76
98
