P3
# Created by GIMP version 2.10.36 PNM plug-in
16 16
255
190
82
183
192
84
185
198
90
191
193
85
186
195
87
188
192
84
185
202
94
195
194
86
187
195
87
188
191
83
184
182
74
175
194
86
187
194
86
187
195
87
188
191
83
184
197
89
190
199
91
192
184
76
177
188
80
181
194
86
187
194
86
187
190
82
183
197
89
190
195
87
188
194
86
187
192
84
185
192
84
185
184
76
177
183
75
176
183
75
176
186
78
179
194
86
187
195
87
188
194
86
187
188
80
181
194
86
187
186
78
179
186
78
179
189
81
182
188
80
181
191
83
184
184
76
177
188
80
181
191
83
184
186
78
179
181
73
174
176
68
169
193
85
186
195
87
188
191
83
184
182
74
175
192
84
185
192
84
185
192
84
185
183
75
176
179
71
172
191
83
184
191
83
184
181
73
174
185
77
178
188
80
181
187
79
180
179
71
172
193
85
186
193
85
186
192
84
185
191
83
184
183
75
176
182
74
175
188
80
181
182
74
175
182
74
175
195
87
188
194
86
187
184
76
177
183
75
176
175
67
168
180
72
173
192
84
185
193
85
186
193
85
186
184
76
177
186
78
179
190
82
183
184
76
177
182
74
175
186
78
179
203
95
196
206
98
199
214
106
207
211
103
204
203
95
196
192
84
185
187
79
180
189
81
182
186
78
179
197
89
190
195
87
188
180
72
173
181
73
174
184
76
177
181
73
174
178
70
171
203
95
196
215
107
208
220
112
213
231
123
224
226
118
219
205
97
198
199
91
192
201
93
194
193
85
186
204
96
197
199
91
192
187
79
180
184
76
177
178
70
171
179
71
172
185
77
178
177
69
170
194
86
187
217
109
210
220
112
213
232
124
225
231
123
224
206
98
199
196
88
189
204
96
197
209
101
202
207
99
200
209
101
202
200
92
193
202
94
195
192
84
185
188
80
181
186
78
179
181
73
174
185
77
178
199
91
192
211
103
204
234
126
227
213
105
206
204
96
197
218
110
211
211
103
204
233
125
226
216
108
209
206
98
199
209
101
202
204
96
197
202
94
195
196
88
189
190
82
183
185
77
178
186
78
179
191
83
184
197
89
190
195
87
188
203
95
196
217
109
210
203
95
196
204
96
197
221
113
214
213
105
206
197
89
190
198
90
191
206
98
199
206
98
199
194
86
187
191
83
184
190
82
183
184
76
177
180
72
173
178
70
171
181
73
174
203
95
196
196
88
189
203
95
196
226
118
219
209
101
202
200
92
193
198
90
191
194
86
187
195
87
188
196
88
189
193
85
186
203
95
196
197
89
190
189
81
182
181
73
174
182
74
175
188
80
181
186
78
179
198
90
191
213
105
206
202
94
195
190
82
183
197
89
190
191
83
184
184
76
177
186
78
179
186
78
179
187
79
180
194
86
187
195
87
188
192
84
185
195
87
188
192
84
185
186
78
179
184
76
177
182
74
175
172
64
165
178
70
171
181
73
174
193
85
186
198
90
191
205
97
198
200
92
193
183
75
176
181
73
174
183
75
176
196
88
189
207
99
200
201
93
194
182
74
175
170
62
163
179
71
172
180
72
173
185
77
178
182
74
175
192
84
185
189
81
182
190
82
183
203
95
196
202
94
195
195
87
188
180
72
173
183
75
176
191
83
184
180
72
173
180
72
173
192
84
185
182
74
175
174
66
167
177
69
170
190
82
183
198
90
191
194
86
187
184
76
177
192
84
185
200
92
193
194
86
187
194
86
187
179
71
172
188
80
181
180
72
173
