P3
# Created by GIMP version 2.10.36 PNM plug-in
16 16
255
54
113
119
56
115
121
62
121
127
57
116
122
59
118
124
56
115
121
66
125
131
58
117
123
59
118
124
55
114
120
46
105
111
58
117
123
58
117
123
59
118
124
55
114
120
61
120
126
63
122
128
48
107
113
52
111
117
58
117
123
58
117
123
54
113
119
61
120
126
59
118
124
58
117
123
56
115
121
56
115
121
48
107
113
47
106
112
47
106
112
50
109
115
58
117
123
59
118
124
58
117
123
52
111
117
58
117
123
50
109
115
50
109
115
53
112
118
52
111
117
55
114
120
48
107
113
52
111
117
55
114
120
50
109
115
45
104
110
40
99
105
57
116
122
59
118
124
55
114
120
46
105
111
56
115
121
56
115
121
56
115
121
47
106
112
43
102
108
55
114
120
55
114
120
45
104
110
49
108
114
52
111
117
51
110
116
43
102
108
57
116
122
57
116
122
56
115
121
55
114
120
47
106
112
46
105
111
52
111
117
46
105
111
46
105
111
59
118
124
58
117
123
48
107
113
47
106
112
39
98
104
44
103
109
56
115
121
57
116
122
57
116
122
48
107
113
50
109
115
54
113
119
48
107
113
46
105
111
50
109
115
67
126
132
70
129
135
78
137
143
75
134
140
67
126
132
56
115
121
51
110
116
53
112
118
50
109
115
61
120
126
59
118
124
44
103
109
45
104
110
48
107
113
45
104
110
42
101
107
67
126
132
79
138
144
84
143
149
95
154
160
90
149
155
69
128
134
63
122
128
65
124
130
57
116
122
68
127
133
63
122
128
51
110
116
48
107
113
42
101
107
43
102
108
49
108
114
41
100
106
58
117
123
81
140
146
84
143
149
96
155
161
95
154
160
70
129
135
60
119
125
68
127
133
73
132
138
71
130
136
73
132
138
64
123
129
66
125
131
56
115
121
52
111
117
50
109
115
45
104
110
49
108
114
63
122
128
75
134
140
98
157
163
77
136
142
68
127
133
82
141
147
75
134
140
97
156
162
80
139
145
70
129
135
73
132
138
68
127
133
66
125
131
60
119
125
54
113
119
49
108
114
50
109
115
55
114
120
61
120
126
59
118
124
67
126
132
81
140
146
67
126
132
68
127
133
85
144
150
77
136
142
61
120
126
62
121
127
70
129
135
70
129
135
58
117
123
55
114
120
54
113
119
48
107
113
44
103
109
42
101
107
45
104
110
67
126
132
60
119
125
67
126
132
90
149
155
73
132
138
64
123
129
62
121
127
58
117
123
59
118
124
60
119
125
57
116
122
67
126
132
61
120
126
53
112
118
45
104
110
46
105
111
52
111
117
50
109
115
62
121
127
77
136
142
66
125
131
54
113
119
61
120
126
55
114
120
48
107
113
50
109
115
50
109
115
51
110
116
58
117
123
59
118
124
56
115
121
59
118
124
56
115
121
50
109
115
48
107
113
46
105
111
36
95
101
42
101
107
45
104
110
57
116
122
62
121
127
69
128
134
64
123
129
47
106
112
45
104
110
47
106
112
60
119
125
71
130
136
65
124
130
46
105
111
34
93
99
43
102
108
44
103
109
49
108
114
46
105
111
56
115
121
53
112
118
54
113
119
67
126
132
66
125
131
59
118
124
44
103
109
47
106
112
55
114
120
44
103
109
44
103
109
56
115
121
46
105
111
38
97
103
41
100
106
54
113
119
62
121
127
58
117
123
48
107
113
56
115
121
64
123
129
58
117
123
58
117
123
43
102
108
52
111
117
44
103
109
