P3
# Created by GIMP version 2.10.36 PNM plug-in
16 16
255
176
118
116
178
120
118
184
126
124
179
121
119
181
123
121
178
120
118
188
130
128
180
122
120
181
123
121
177
119
117
168
110
108
180
122
120
180
122
120
181
123
121
177
119
117
183
125
123
185
127
125
170
112
110
174
116
114
180
122
120
180
122
120
176
118
116
183
125
123
181
123
121
180
122
120
178
120
118
178
120
118
170
112
110
169
111
109
169
111
109
172
114
112
180
122
120
181
123
121
180
122
120
174
116
114
180
122
120
172
114
112
172
114
112
175
117
115
174
116
114
177
119
117
170
112
110
174
116
114
177
119
117
172
114
112
167
109
107
162
104
102
179
121
119
181
123
121
177
119
117
168
110
108
178
120
118
178
120
118
178
120
118
169
111
109
165
107
105
177
119
117
177
119
117
167
109
107
171
113
111
174
116
114
173
115
113
165
107
105
179
121
119
179
121
119
178
120
118
177
119
117
169
111
109
168
110
108
174
116
114
168
110
108
168
110
108
181
123
121
180
122
120
170
112
110
169
111
109
161
103
101
166
108
106
178
120
118
179
121
119
179
121
119
170
112
110
172
114
112
176
118
116
170
112
110
168
110
108
172
114
112
189
131
129
192
134
132
200
142
140
197
139
137
189
131
129
178
120
118
173
115
113
175
117
115
172
114
112
183
125
123
181
123
121
166
108
106
167
109
107
170
112
110
167
109
107
164
106
104
189
131
129
201
143
141
206
148
146
217
159
157
212
154
152
191
133
131
185
127
125
187
129
127
179
121
119
190
132
130
185
127
125
173
115
113
170
112
110
164
106
104
165
107
105
171
113
111
163
105
103
180
122
120
203
145
143
206
148
146
218
160
158
217
159
157
192
134
132
182
124
122
190
132
130
195
137
135
193
135
133
195
137
135
186
128
126
188
130
128
178
120
118
174
116
114
172
114
112
167
109
107
171
113
111
185
127
125
197
139
137
220
162
160
199
141
139
190
132
130
204
146
144
197
139
137
219
161
159
202
144
142
192
134
132
195
137
135
190
132
130
188
130
128
182
124
122
176
118
116
171
113
111
172
114
112
177
119
117
183
125
123
181
123
121
189
131
129
203
145
143
189
131
129
190
132
130
207
149
147
199
141
139
183
125
123
184
126
124
192
134
132
192
134
132
180
122
120
177
119
117
176
118
116
170
112
110
166
108
106
164
106
104
167
109
107
189
131
129
182
124
122
189
131
129
212
154
152
195
137
135
186
128
126
184
126
124
180
122
120
181
123
121
182
124
122
179
121
119
189
131
129
183
125
123
175
117
115
167
109
107
168
110
108
174
116
114
172
114
112
184
126
124
199
141
139
188
130
128
176
118
116
183
125
123
177
119
117
170
112
110
172
114
112
172
114
112
173
115
113
180
122
120
181
123
121
178
120
118
181
123
121
178
120
118
172
114
112
170
112
110
168
110
108
158
100
98
164
106
104
167
109
107
179
121
119
184
126
124
191
133
131
186
128
126
169
111
109
167
109
107
169
111
109
182
124
122
193
135
133
187
129
127
168
110
108
156
98
96
165
107
105
166
108
106
171
113
111
168
110
108
178
120
118
175
117
115
176
118
116
189
131
129
188
130
128
181
123
121
166
108
106
169
111
109
177
119
117
166
108
106
166
108
106
178
120
118
168
110
108
160
102
100
163
105
103
176
118
116
184
126
124
180
122
120
170
112
110
178
120
118
186
128
126
180
122
120
180
122
120
165
107
105
174
116
114
166
108
106
