P3
# Created by GIMP version 2.10.36 PNM plug-in
16 16
255
73
128
147
75
130
149
81
136
155
76
131
150
78
133
152
75
130
149
85
140
159
77
132
151
78
133
152
74
129
148
65
120
139
77
132
151
77
132
151
78
133
152
74
129
148
80
135
154
82
137
156
67
122
141
71
126
145
77
132
151
77
132
151
73
128
147
80
135
154
78
133
152
77
132
151
75
130
149
75
130
149
67
122
141
66
121
140
66
121
140
69
124
143
77
132
151
78
133
152
77
132
151
71
126
145
77
132
151
69
124
143
69
124
143
72
127
146
71
126
145
74
129
148
67
122
141
71
126
145
74
129
148
69
124
143
64
119
138
59
114
133
76
131
150
78
133
152
74
129
148
65
120
139
75
130
149
75
130
149
75
130
149
66
121
140
62
117
136
74
129
148
74
129
148
64
119
138
68
123
142
71
126
145
70
125
144
62
117
136
76
131
150
76
131
150
75
130
149
74
129
148
66
121
140
65
120
139
71
126
145
65
120
139
65
120
139
78
133
152
77
132
151
67
122
141
66
121
140
58
113
132
63
118
137
75
130
149
76
131
150
76
131
150
67
122
141
69
124
143
73
128
147
67
122
141
65
120
139
69
124
143
86
141
160
89
144
163
97
152
171
94
149
168
86
141
160
75
130
149
70
125
144
72
127
146
69
124
143
80
135
154
78
133
152
63
118
137
64
119
138
67
122
141
64
119
138
61
116
135
86
141
160
98
153
172
103
158
177
114
169
188
109
164
183
88
143
162
82
137
156
84
139
158
76
131
150
87
142
161
82
137
156
70
125
144
67
122
141
61
116
135
62
117
136
68
123
142
60
115
134
77
132
151
100
155
174
103
158
177
115
170
189
114
169
188
89
144
163
79
134
153
87
142
161
92
147
166
90
145
164
92
147
166
83
138
157
85
140
159
75
130
149
71
126
145
69
124
143
64
119
138
68
123
142
82
137
156
94
149
168
117
172
191
96
151
170
87
142
161
101
156
175
94
149
168
116
171
190
99
154
173
89
144
163
92
147
166
87
142
161
85
140
159
79
134
153
73
128
147
68
123
142
69
124
143
74
129
148
80
135
154
78
133
152
86
141
160
100
155
174
86
141
160
87
142
161
104
159
178
96
151
170
80
135
154
81
136
155
89
144
163
89
144
163
77
132
151
74
129
148
73
128
147
67
122
141
63
118
137
61
116
135
64
119
138
86
141
160
79
134
153
86
141
160
109
164
183
92
147
166
83
138
157
81
136
155
77
132
151
78
133
152
79
134
153
76
131
150
86
141
160
80
135
154
72
127
146
64
119
138
65
120
139
71
126
145
69
124
143
81
136
155
96
151
170
85
140
159
73
128
147
80
135
154
74
129
148
67
122
141
69
124
143
69
124
143
70
125
144
77
132
151
78
133
152
75
130
149
78
133
152
75
130
149
69
124
143
67
122
141
65
120
139
55
110
129
61
116
135
64
119
138
76
131
150
81
136
155
88
143
162
83
138
157
66
121
140
64
119
138
66
121
140
79
134
153
90
145
164
84
139
158
65
120
139
53
108
127
62
117
136
63
118
137
68
123
142
65
120
139
75
130
149
72
127
146
73
128
147
86
141
160
85
140
159
78
133
152
63
118
137
66
121
140
74
129
148
63
118
137
63
118
137
75
130
149
65
120
139
57
112
131
60
115
134
73
128
147
81
136
155
77
132
151
67
122
141
75
130
149
83
138
157
77
132
151
77
132
151
62
117
136
71
126
145
63
118
137
