P3
# Created by GIMP version 2.10.36 PNM plug-in
16 16
255
151
116
131
153
118
133
159
124
139
154
119
134
156
121
136
153
118
133
163
128
143
155
120
135
156
121
136
152
117
132
143
108
123
155
120
135
155
120
135
156
121
136
152
117
132
158
123
138
160
125
140
145
110
125
149
114
129
155
120
135
155
120
135
151
116
131
158
123
138
156
121
136
155
120
135
153
118
133
153
118
133
145
110
125
144
109
124
144
109
124
147
112
127
155
120
135
156
121
136
155
120
135
149
114
129
155
120
135
147
112
127
147
112
127
150
115
130
149
114
129
152
117
132
145
110
125
149
114
129
152
117
132
147
112
127
142
107
122
137
102
117
154
119
134
156
121
136
152
117
132
143
108
123
153
118
133
153
118
133
153
118
133
144
109
124
140
105
120
152
117
132
152
117
132
142
107
122
146
111
126
149
114
129
148
113
128
140
105
120
154
119
134
154
119
134
153
118
133
152
117
132
144
109
124
143
108
123
149
114
129
143
108
123
143
108
123
156
121
136
155
120
135
145
110
125
144
109
124
136
101
116
141
106
121
153
118
133
154
119
134
154
119
134
145
110
125
147
112
127
151
116
131
145
110
125
143
108
123
147
112
127
164
129
144
167
132
147
175
140
155
172
137
152
164
129
144
153
118
133
148
113
128
150
115
130
147
112
127
158
123
138
156
121
136
141
106
121
142
107
122
145
110
125
142
107
122
139
104
119
164
129
144
176
141
156
181
146
161
192
157
172
187
152
167
166
131
146
160
125
140
162
127
142
154
119
134
165
130
145
160
125
140
148
113
128
145
110
125
139
104
119
140
105
120
146
111
126
138
103
118
155
120
135
178
143
158
181
146
161
193
158
173
192
157
172
167
132
147
157
122
137
165
130
145
170
135
150
168
133
148
170
135
150
161
126
141
163
128
143
153
118
133
149
114
129
147
112
127
142
107
122
146
111
126
160
125
140
172
137
152
195
160
175
174
139
154
165
130
145
179
144
159
172
137
152
194
159
174
177
142
157
167
132
147
170
135
150
165
130
145
163
128
143
157
122
137
151
116
131
146
111
126
147
112
127
152
117
132
158
123
138
156
121
136
164
129
144
178
143
158
164
129
144
165
130
145
182
147
162
174
139
154
158
123
138
159
124
139
167
132
147
167
132
147
155
120
135
152
117
132
151
116
131
145
110
125
141
106
121
139
104
119
142
107
122
164
129
144
157
122
137
164
129
144
187
152
167
170
135
150
161
126
141
159
124
139
155
120
135
156
121
136
157
122
137
154
119
134
164
129
144
158
123
138
150
115
130
142
107
122
143
108
123
149
114
129
147
112
127
159
124
139
174
139
154
163
128
143
151
116
131
158
123
138
152
117
132
145
110
125
147
112
127
147
112
127
148
113
128
155
120
135
156
121
136
153
118
133
156
121
136
153
118
133
147
112
127
145
110
125
143
108
123
133
98
113
139
104
119
142
107
122
154
119
134
159
124
139
166
131
146
161
126
141
144
109
124
142
107
122
144
109
124
157
122
137
168
133
148
162
127
142
143
108
123
131
96
111
140
105
120
141
106
121
146
111
126
143
108
123
153
118
133
150
115
130
151
116
131
164
129
144
163
128
143
156
121
136
141
106
121
144
109
124
152
117
132
141
106
121
141
106
121
153
118
133
143
108
123
135
100
115
138
103
118
151
116
131
159
124
139
155
120
135
145
110
125
153
118
133
161
126
141
155
120
135
155
120
135
140
105
120
149
114
129
141
106
121
