P3
# Created by GIMP version 2.10.36 PNM plug-in
16 16
255
211
117
18
213
119
20
219
125
26
214
120
21
216
122
23
213
119
20
223
129
30
215
121
22
216
122
23
212
118
19
203
109
10
215
121
22
215
121
22
216
122
23
212
118
19
218
124
25
220
126
27
205
111
12
209
115
16
215
121
22
215
121
22
211
117
18
218
124
25
216
122
23
215
121
22
213
119
20
213
119
20
205
111
12
204
110
11
204
110
11
207
113
14
215
121
22
216
122
23
215
121
22
209
115
16
215
121
22
207
113
14
207
113
14
210
116
17
209
115
16
212
118
19
205
111
12
209
115
16
212
118
19
207
113
14
202
108
9
197
103
4
214
120
21
216
122
23
212
118
19
203
109
10
213
119
20
213
119
20
213
119
20
204
110
11
200
106
7
212
118
19
212
118
19
202
108
9
206
112
13
209
115
16
208
114
15
200
106
7
214
120
21
214
120
21
213
119
20
212
118
19
204
110
11
203
109
10
209
115
16
203
109
10
203
109
10
216
122
23
215
121
22
205
111
12
204
110
11
196
102
3
201
107
8
213
119
20
214
120
21
214
120
21
205
111
12
207
113
14
211
117
18
205
111
12
203
109
10
207
113
14
224
130
31
227
133
34
235
141
42
232
138
39
224
130
31
213
119
20
208
114
15
210
116
17
207
113
14
218
124
25
216
122
23
201
107
8
202
108
9
205
111
12
202
108
9
199
105
6
224
130
31
236
142
43
255
147
48
252
158
59
247
153
54
226
132
33
220
126
27
222
128
29
214
120
21
225
131
32
220
126
27
208
114
15
205
111
12
199
105
6
200
106
7
206
112
13
198
104
5
215
121
22
238
144
45
255
147
48
253
159
60
252
158
59
227
133
34
217
123
24
225
131
32
230
136
37
228
134
35
230
136
37
221
127
28
223
129
30
213
119
20
209
115
16
207
113
14
202
108
9
206
112
13
220
126
27
232
138
39
255
161
62
234
140
41
225
131
32
239
145
46
232
138
39
254
160
61
237
143
44
227
133
34
230
136
37
225
131
32
223
129
30
217
123
24
211
117
18
206
112
13
207
113
14
212
118
19
218
124
25
216
122
23
224
130
31
238
144
45
224
130
31
225
131
32
242
148
49
234
140
41
218
124
25
219
125
26
227
133
34
227
133
34
215
121
22
212
118
19
211
117
18
205
111
12
201
107
8
199
105
6
202
108
9
224
130
31
217
123
24
224
130
31
247
153
54
230
136
37
221
127
28
219
125
26
215
121
22
216
122
23
217
123
24
214
120
21
224
130
31
218
124
25
210
116
17
202
108
9
203
109
10
209
115
16
207
113
14
219
125
26
234
140
41
223
129
30
211
117
18
218
124
25
212
118
19
205
111
12
207
113
14
207
113
14
208
114
15
215
121
22
216
122
23
213
119
20
216
122
23
213
119
20
207
113
14
205
111
12
203
109
10
193
99
0
199
105
6
202
108
9
214
120
21
219
125
26
226
132
33
221
127
28
204
110
11
202
108
9
204
110
11
217
123
24
228
134
35
222
128
29
203
109
10
191
97
0
200
106
7
201
107
8
206
112
13
203
109
10
213
119
20
210
116
17
211
117
18
224
130
31
223
129
30
216
122
23
201
107
8
204
110
11
212
118
19
201
107
8
201
107
8
213
119
20
203
109
10
195
101
2
198
104
5
211
117
18
219
125
26
215
121
22
205
111
12
213
119
20
221
127
28
215
121
22
215
121
22
200
106
7
209
115
16
201
107
8
