P3
# Created by GIMP version 2.10.36 PNM plug-in
16 16
255
211
137
164
213
139
166
219
145
172
214
140
167
216
142
169
213
139
166
223
149
176
215
141
168
216
142
169
212
138
165
203
129
156
215
141
168
215
141
168
216
142
169
212
138
165
218
144
171
220
146
173
205
131
158
209
135
162
215
141
168
215
141
168
211
137
164
218
144
171
216
142
169
215
141
168
213
139
166
213
139
166
205
131
158
204
130
157
204
130
157
207
133
160
215
141
168
216
142
169
215
141
168
209
135
162
215
141
168
207
133
160
207
133
160
210
136
163
209
135
162
212
138
165
205
131
158
209
135
162
212
138
165
207
133
160
202
128
155
197
123
150
214
140
167
216
142
169
212
138
165
203
129
156
213
139
166
213
139
166
213
139
166
204
130
157
200
126
153
212
138
165
212
138
165
202
128
155
206
132
159
209
135
162
208
134
161
200
126
153
214
140
167
214
140
167
213
139
166
212
138
165
204
130
157
203
129
156
209
135
162
203
129
156
203
129
156
216
142
169
215
141
168
205
131
158
204
130
157
196
122
149
201
127
154
213
139
166
214
140
167
214
140
167
205
131
158
207
133
160
211
137
164
205
131
158
203
129
156
207
133
160
224
150
177
227
153
180
235
161
188
232
158
185
224
150
177
213
139
166
208
134
161
210
136
163
207
133
160
218
144
171
216
142
169
201
127
154
202
128
155
205
131
158
202
128
155
199
125
152
224
150
177
236
162
189
241
167
194
252
178
205
247
173
200
226
152
179
220
146
173
222
148
175
214
140
167
225
151
178
220
146
173
208
134
161
205
131
158
199
125
152
200
126
153
206
132
159
198
124
151
215
141
168
238
164
191
241
167
194
253
179
206
252
178
205
227
153
180
217
143
170
225
151
178
230
156
183
228
154
181
230
156
183
221
147
174
223
149
176
213
139
166
209
135
162
207
133
160
202
128
155
206
132
159
220
146
173
232
158
185
255
181
208
234
160
187
225
151
178
255
165
192
232
158
185
254
180
207
237
163
190
227
153
180
230
156
183
225
151
178
223
149
176
217
143
170
211
137
164
206
132
159
207
133
160
212
138
165
218
144
171
216
142
169
224
150
177
238
164
191
224
150
177
225
151
178
242
168
195
234
160
187
218
144
171
219
145
172
227
153
180
227
153
180
215
141
168
212
138
165
211
137
164
205
131
158
201
127
154
199
125
152
202
128
155
224
150
177
217
143
170
224
150
177
247
173
200
230
156
183
221
147
174
219
145
172
215
141
168
216
142
169
217
143
170
214
140
167
224
150
177
218
144
171
210
136
163
202
128
155
203
129
156
209
135
162
207
133
160
219
145
172
234
160
187
223
149
176
211
137
164
218
144
171
212
138
165
205
131
158
207
133
160
207
133
160
208
134
161
215
141
168
216
142
169
213
139
166
216
142
169
213
139
166
207
133
160
205
131
158
203
129
156
193
119
146
199
125
152
202
128
155
214
140
167
219
145
172
226
152
179
221
147
174
204
130
157
202
128
155
204
130
157
217
143
170
228
154
181
222
148
175
203
129
156
191
117
144
200
126
153
201
127
154
206
132
159
203
129
156
213
139
166
210
136
163
211
137
164
224
150
177
223
149
176
216
142
169
201
127
154
204
130
157
212
138
165
201
127
154
201
127
154
213
139
166
203
129
156
195
121
148
198
124
151
211
137
164
219
145
172
215
141
168
205
131
158
213
139
166
221
147
174
215
141
168
215
141
168
200
126
153
209
135
162
201
127
154
