P3
# Created by GIMP version 2.10.36 PNM plug-in
16 16
255
96
77
108
98
79
110
104
85
116
99
80
111
101
82
113
98
79
110
108
89
120
100
81
112
101
82
113
97
78
109
88
69
100
100
81
112
100
81
112
101
82
113
97
78
109
103
84
115
105
86
117
90
71
102
94
75
106
100
81
112
100
81
112
96
77
108
103
84
115
101
82
113
100
81
112
98
79
110
98
79
110
90
71
102
89
70
101
89
70
101
92
73
104
100
81
112
101
82
113
100
81
112
94
75
106
100
81
112
92
73
104
92
73
104
95
76
107
94
75
106
97
78
109
90
71
102
94
75
106
97
78
109
92
73
104
87
68
99
82
63
94
99
80
111
101
82
113
97
78
109
88
69
100
98
79
110
98
79
110
98
79
110
89
70
101
85
66
97
97
78
109
97
78
109
87
68
99
91
72
103
94
75
106
93
74
105
85
66
97
99
80
111
99
80
111
98
79
110
97
78
109
89
70
101
88
69
100
94
75
106
88
69
100
88
69
100
101
82
113
100
81
112
90
71
102
89
70
101
81
62
93
86
67
98
98
79
110
99
80
111
99
80
111
90
71
102
92
73
104
96
77
108
90
71
102
88
69
100
92
73
104
109
90
121
112
93
124
120
101
132
117
98
129
109
90
121
98
79
110
93
74
105
95
76
107
92
73
104
103
84
115
101
82
113
86
67
98
87
68
99
90
71
102
87
68
99
84
65
96
109
90
121
121
102
133
126
107
138
137
118
149
132
113
144
111
92
123
105
86
117
107
88
119
99
80
111
110
91
122
105
86
117
93
74
105
90
71
102
84
65
96
85
66
97
91
72
103
83
64
95
100
81
112
123
104
135
126
107
138
138
119
150
137
118
149
112
93
124
102
83
114
110
91
122
115
96
127
113
94
125
115
96
127
106
87
118
108
89
120
98
79
110
94
75
106
92
73
104
87
68
99
91
72
103
105
86
117
117
98
129
140
121
152
119
100
131
110
91
122
124
105
136
117
98
129
139
120
151
122
103
134
112
93
124
115
96
127
110
91
122
108
89
120
102
83
114
96
77
108
91
72
103
92
73
104
97
78
109
103
84
115
101
82
113
109
90
121
123
104
135
109
90
121
110
91
122
127
108
139
119
100
131
103
84
115
104
85
116
112
93
124
112
93
124
100
81
112
97
78
109
96
77
108
90
71
102
86
67
98
84
65
96
87
68
99
109
90
121
102
83
114
109
90
121
132
113
144
115
96
127
106
87
118
104
85
116
100
81
112
101
82
113
102
83
114
99
80
111
109
90
121
103
84
115
95
76
107
87
68
99
88
69
100
94
75
106
92
73
104
104
85
116
119
100
131
108
89
120
96
77
108
103
84
115
97
78
109
90
71
102
92
73
104
92
73
104
93
74
105
100
81
112
101
82
113
98
79
110
101
82
113
98
79
110
92
73
104
90
71
102
88
69
100
78
59
90
84
65
96
87
68
99
99
80
111
104
85
116
111
92
123
106
87
118
89
70
101
87
68
99
89
70
101
102
83
114
113
94
125
107
88
119
88
69
100
76
57
88
85
66
97
86
67
98
91
72
103
88
69
100
98
79
110
95
76
107
96
77
108
109
90
121
108
89
120
101
82
113
86
67
98
89
70
101
97
78
109
86
67
98
86
67
98
98
79
110
88
69
100
80
61
92
83
64
95
96
77
108
104
85
116
100
81
112
90
71
102
98
79
110
106
87
118
100
81
112
100
81
112
85
66
97
94
75
106
86
67
98
