P3
# Created by GIMP version 2.10.36 PNM plug-in
16 16
255
129
53
175
131
55
177
137
61
183
132
56
178
134
58
180
131
55
177
141
65
187
133
57
179
134
58
180
130
54
176
121
45
167
133
57
179
133
57
179
134
58
180
130
54
176
136
60
182
138
62
184
123
47
169
127
51
173
133
57
179
133
57
179
129
53
175
136
60
182
134
58
180
133
57
179
131
55
177
131
55
177
123
47
169
122
46
168
122
46
168
125
49
171
133
57
179
134
58
180
133
57
179
127
51
173
133
57
179
125
49
171
125
49
171
128
52
174
127
51
173
130
54
176
123
47
169
127
51
173
130
54
176
125
49
171
120
44
166
115
39
161
132
56
178
134
58
180
130
54
176
121
45
167
131
55
177
131
55
177
131
55
177
122
46
168
118
42
164
130
54
176
130
54
176
120
44
166
124
48
170
127
51
173
126
50
172
118
42
164
132
56
178
132
56
178
131
55
177
130
54
176
122
46
168
121
45
167
127
51
173
121
45
167
121
45
167
134
58
180
133
57
179
123
47
169
122
46
168
114
38
160
119
43
165
131
55
177
132
56
178
132
56
178
123
47
169
125
49
171
129
53
175
123
47
169
121
45
167
125
49
171
142
66
188
145
69
191
153
77
199
150
74
196
142
66
188
131
55
177
126
50
172
128
52
174
125
49
171
136
60
182
134
58
180
119
43
165
120
44
166
123
47
169
120
44
166
117
41
163
142
66
188
154
78
200
159
83
205
170
94
216
165
89
211
144
68
190
138
62
184
140
64
186
132
56
178
143
67
189
138
62
184
126
50
172
123
47
169
117
41
163
118
42
164
124
48
170
116
40
162
133
57
179
156
80
202
159
83
205
171
95
217
170
94
216
145
69
191
135
59
181
143
67
189
148
72
194
146
70
192
148
72
194
139
63
185
141
65
187
131
55
177
127
51
173
125
49
171
120
44
166
124
48
170
138
62
184
150
74
196
173
97
219
152
76
198
143
67
189
157
81
203
150
74
196
172
96
218
155
79
201
145
69
191
148
72
194
143
67
189
141
65
187
135
59
181
129
53
175
124
48
170
125
49
171
130
54
176
136
60
182
134
58
180
142
66
188
156
80
202
142
66
188
143
67
189
160
84
206
152
76
198
136
60
182
137
61
183
145
69
191
145
69
191
133
57
179
130
54
176
129
53
175
123
47
169
119
43
165
117
41
163
120
44
166
142
66
188
135
59
181
142
66
188
165
89
211
148
72
194
139
63
185
137
61
183
133
57
179
134
58
180
135
59
181
132
56
178
142
66
188
136
60
182
128
52
174
120
44
166
121
45
167
127
51
173
125
49
171
137
61
183
152
76
198
141
65
187
129
53
175
136
60
182
130
54
176
123
47
169
125
49
171
125
49
171
126
50
172
133
57
179
134
58
180
131
55
177
134
58
180
131
55
177
125
49
171
123
47
169
121
45
167
111
35
157
117
41
163
120
44
166
132
56
178
137
61
183
144
68
190
139
63
185
122
46
168
120
44
166
122
46
168
135
59
181
146
70
192
140
64
186
121
45
167
109
33
155
118
42
164
119
43
165
124
48
170
121
45
167
131
55
177
128
52
174
129
53
175
142
66
188
141
65
187
134
58
180
119
43
165
122
46
168
130
54
176
119
43
165
119
43
165
131
55
177
121
45
167
113
37
159
116
40
162
129
53
175
137
61
183
133
57
179
123
47
169
131
55
177
139
63
185
133
57
179
133
57
179
118
42
164
127
51
173
119
43
165
