P3
# Created by GIMP version 2.10.36 PNM plug-in
16 16
255
76
39
103
78
41
105
84
47
111
79
42
106
81
44
108
78
41
105
88
51
115
80
43
107
81
44
108
77
40
104
68
31
95
80
43
107
80
43
107
81
44
108
77
40
104
83
46
110
85
48
112
70
33
97
74
37
101
80
43
107
80
43
107
76
39
103
83
46
110
81
44
108
80
43
107
78
41
105
78
41
105
70
33
97
69
32
96
69
32
96
72
35
99
80
43
107
81
44
108
80
43
107
74
37
101
80
43
107
72
35
99
72
35
99
75
38
102
74
37
101
77
40
104
70
33
97
74
37
101
77
40
104
72
35
99
67
30
94
62
25
89
79
42
106
81
44
108
77
40
104
68
31
95
78
41
105
78
41
105
78
41
105
69
32
96
65
28
92
77
40
104
77
40
104
67
30
94
71
34
98
74
37
101
73
36
100
65
28
92
79
42
106
79
42
106
78
41
105
77
40
104
69
32
96
68
31
95
74
37
101
68
31
95
68
31
95
81
44
108
80
43
107
70
33
97
69
32
96
61
24
88
66
29
93
78
41
105
79
42
106
79
42
106
70
33
97
72
35
99
76
39
103
70
33
97
68
31
95
72
35
99
89
52
116
92
55
119
100
63
127
97
60
124
89
52
116
78
41
105
73
36
100
75
38
102
72
35
99
83
46
110
81
44
108
66
29
93
67
30
94
70
33
97
67
30
94
64
27
91
89
52
116
101
64
128
106
69
133
117
80
144
112
75
139
91
54
118
85
48
112
87
50
114
79
42
106
90
53
117
85
48
112
73
36
100
70
33
97
64
27
91
65
28
92
71
34
98
63
26
90
80
43
107
103
66
130
106
69
133
118
81
145
117
80
144
92
55
119
82
45
109
90
53
117
95
58
122
93
56
120
95
58
122
86
49
113
88
51
115
78
41
105
74
37
101
72
35
99
67
30
94
71
34
98
85
48
112
97
60
124
120
83
147
99
62
126
90
53
117
104
67
131
97
60
124
119
82
146
102
65
129
92
55
119
95
58
122
90
53
117
88
51
115
82
45
109
76
39
103
71
34
98
72
35
99
77
40
104
83
46
110
81
44
108
89
52
116
103
66
130
89
52
116
90
53
117
107
70
134
99
62
126
83
46
110
84
47
111
92
55
119
92
55
119
80
43
107
77
40
104
76
39
103
70
33
97
66
29
93
64
27
91
67
30
94
89
52
116
82
45
109
89
52
116
112
75
139
95
58
122
86
49
113
84
47
111
80
43
107
81
44
108
82
45
109
79
42
106
89
52
116
83
46
110
75
38
102
67
30
94
68
31
95
74
37
101
72
35
99
84
47
111
99
62
126
88
51
115
76
39
103
83
46
110
77
40
104
70
33
97
72
35
99
72
35
99
73
36
100
80
43
107
81
44
108
78
41
105
81
44
108
78
41
105
72
35
99
70
33
97
68
31
95
58
21
85
64
27
91
67
30
94
79
42
106
84
47
111
91
54
118
86
49
113
69
32
96
67
30
94
69
32
96
82
45
109
93
56
120
87
50
114
68
31
95
56
19
83
65
28
92
66
29
93
71
34
98
68
31
95
78
41
105
75
38
102
76
39
103
89
52
116
88
51
115
81
44
108
66
29
93
69
32
96
77
40
104
66
29
93
66
29
93
78
41
105
68
31
95
60
23
87
63
26
90
76
39
103
84
47
111
80
43
107
70
33
97
78
41
105
86
49
113
80
43
107
80
43
107
65
28
92
74
37
101
66
29
93
