P3
# Created by GIMP version 2.10.36 PNM plug-in
16 16
255
167
52
48
169
54
50
175
60
56
170
55
51
172
57
53
169
54
50
179
64
60
171
56
52
172
57
53
168
53
49
159
44
40
171
56
52
171
56
52
172
57
53
168
53
49
174
59
55
176
61
57
161
46
42
165
50
46
171
56
52
171
56
52
167
52
48
174
59
55
172
57
53
171
56
52
169
54
50
169
54
50
161
46
42
160
45
41
160
45
41
163
48
44
171
56
52
172
57
53
171
56
52
165
50
46
171
56
52
163
48
44
163
48
44
166
51
47
165
50
46
168
53
49
161
46
42
165
50
46
168
53
49
163
48
44
158
43
39
153
38
34
170
55
51
172
57
53
168
53
49
159
44
40
169
54
50
169
54
50
169
54
50
160
45
41
156
41
37
168
53
49
168
53
49
158
43
39
162
47
43
165
50
46
164
49
45
156
41
37
170
55
51
170
55
51
169
54
50
168
53
49
160
45
41
159
44
40
165
50
46
159
44
40
159
44
40
172
57
53
171
56
52
161
46
42
160
45
41
152
37
33
157
42
38
169
54
50
170
55
51
170
55
51
161
46
42
163
48
44
167
52
48
161
46
42
159
44
40
163
48
44
180
65
61
183
68
64
191
76
72
188
73
69
180
65
61
169
54
50
164
49
45
166
51
47
163
48
44
174
59
55
172
57
53
157
42
38
158
43
39
161
46
42
158
43
39
155
40
36
180
65
61
192
77
73
197
82
78
208
93
89
203
88
84
182
67
63
176
61
57
178
63
59
170
55
51
181
66
62
176
61
57
164
49
45
161
46
42
155
40
36
156
41
37
162
47
43
154
39
35
171
56
52
194
79
75
197
82
78
209
94
90
208
93
89
183
68
64
173
58
54
181
66
62
186
71
67
184
69
65
186
71
67
177
62
58
179
64
60
169
54
50
165
50
46
163
48
44
158
43
39
162
47
43
176
61
57
188
73
69
211
96
92
190
75
71
181
66
62
195
80
76
188
73
69
210
95
91
193
78
74
183
68
64
186
71
67
181
66
62
179
64
60
173
58
54
167
52
48
162
47
43
163
48
44
168
53
49
174
59
55
172
57
53
180
65
61
194
79
75
180
65
61
181
66
62
198
83
79
190
75
71
174
59
55
175
60
56
183
68
64
183
68
64
171
56
52
168
53
49
167
52
48
161
46
42
157
42
38
155
40
36
158
43
39
180
65
61
173
58
54
180
65
61
203
88
84
186
71
67
177
62
58
175
60
56
171
56
52
172
57
53
173
58
54
170
55
51
180
65
61
174
59
55
166
51
47
158
43
39
159
44
40
165
50
46
163
48
44
175
60
56
190
75
71
179
64
60
167
52
48
174
59
55
168
53
49
161
46
42
163
48
44
163
48
44
164
49
45
171
56
52
172
57
53
169
54
50
172
57
53
169
54
50
163
48
44
161
46
42
159
44
40
149
34
30
155
40
36
158
43
39
170
55
51
175
60
56
182
67
63
177
62
58
160
45
41
158
43
39
160
45
41
173
58
54
184
69
65
178
63
59
159
44
40
147
32
28
156
41
37
157
42
38
162
47
43
159
44
40
169
54
50
166
51
47
167
52
48
180
65
61
179
64
60
172
57
53
157
42
38
160
45
41
168
53
49
157
42
38
157
42
38
169
54
50
159
44
40
151
36
32
154
39
35
167
52
48
175
60
56
171
56
52
161
46
42
169
54
50
177
62
58
171
56
52
171
56
52
156
41
37
165
50
46
157
42
38
