P3
# Created by GIMP version 2.10.36 PNM plug-in
16 16
255
161
125
37
163
127
39
169
133
45
164
128
40
166
130
42
163
127
39
173
137
49
165
129
41
166
130
42
162
126
38
153
117
29
165
129
41
165
129
41
166
130
42
162
126
38
168
132
44
170
134
46
155
119
31
159
123
35
165
129
41
165
129
41
161
125
37
168
132
44
166
130
42
165
129
41
163
127
39
163
127
39
155
119
31
154
118
30
154
118
30
157
121
33
165
129
41
166
130
42
165
129
41
159
123
35
165
129
41
157
121
33
157
121
33
160
124
36
159
123
35
162
126
38
155
119
31
159
123
35
162
126
38
157
121
33
152
116
28
147
111
23
164
128
40
166
130
42
162
126
38
153
117
29
163
127
39
163
127
39
163
127
39
154
118
30
150
114
26
162
126
38
162
126
38
152
116
28
156
120
32
159
123
35
158
122
34
150
114
26
164
128
40
164
128
40
163
127
39
162
126
38
154
118
30
153
117
29
159
123
35
153
117
29
153
117
29
166
130
42
165
129
41
155
119
31
154
118
30
146
110
22
151
115
27
163
127
39
164
128
40
164
128
40
155
119
31
157
121
33
161
125
37
155
119
31
153
117
29
157
121
33
174
138
50
177
141
53
185
149
61
182
146
58
174
138
50
163
127
39
158
122
34
160
124
36
157
121
33
168
132
44
166
130
42
151
115
27
152
116
28
155
119
31
152
116
28
149
113
25
174
138
50
186
150
62
191
155
67
202
166
78
197
161
73
176
140
52
170
134
46
172
136
48
164
128
40
175
139
51
170
134
46
158
122
34
155
119
31
149
113
25
150
114
26
156
120
32
148
112
24
165
129
41
188
152
64
191
155
67
203
167
79
202
166
78
177
141
53
167
131
43
175
139
51
180
144
56
178
142
54
180
144
56
171
135
47
173
137
49
163
127
39
159
123
35
157
121
33
152
116
28
156
120
32
170
134
46
182
146
58
205
169
81
184
148
60
175
139
51
189
153
65
182
146
58
204
168
80
187
151
63
177
141
53
180
144
56
175
139
51
173
137
49
167
131
43
161
125
37
156
120
32
157
121
33
162
126
38
168
132
44
166
130
42
174
138
50
188
152
64
174
138
50
175
139
51
192
156
68
184
148
60
168
132
44
169
133
45
177
141
53
177
141
53
165
129
41
162
126
38
161
125
37
155
119
31
151
115
27
149
113
25
152
116
28
174
138
50
167
131
43
174
138
50
197
161
73
180
144
56
171
135
47
169
133
45
165
129
41
166
130
42
167
131
43
164
128
40
174
138
50
168
132
44
160
124
36
152
116
28
153
117
29
159
123
35
157
121
33
169
133
45
184
148
60
173
137
49
161
125
37
168
132
44
162
126
38
155
119
31
157
121
33
157
121
33
158
122
34
165
129
41
166
130
42
163
127
39
166
130
42
163
127
39
157
121
33
155
119
31
153
117
29
143
107
19
149
113
25
152
116
28
164
128
40
169
133
45
176
140
52
171
135
47
154
118
30
152
116
28
154
118
30
167
131
43
178
142
54
172
136
48
153
117
29
141
105
17
150
114
26
151
115
27
156
120
32
153
117
29
163
127
39
160
124
36
161
125
37
174
138
50
173
137
49
166
130
42
151
115
27
154
118
30
162
126
38
151
115
27
151
115
27
163
127
39
153
117
29
145
109
21
148
112
24
161
125
37
169
133
45
165
129
41
155
119
31
163
127
39
171
135
47
165
129
41
165
129
41
150
114
26
159
123
35
151
115
27
