P3
# Created by GIMP version 2.10.36 PNM plug-in
16 16
255
163
158
50
165
160
52
171
166
58
166
161
53
168
163
55
165
160
52
175
170
62
167
162
54
168
163
55
164
159
51
155
150
42
167
162
54
167
162
54
168
163
55
164
159
51
170
165
57
172
167
59
157
152
44
161
156
48
167
162
54
167
162
54
163
158
50
170
165
57
168
163
55
167
162
54
165
160
52
165
160
52
157
152
44
156
151
43
156
151
43
159
154
46
167
162
54
168
163
55
167
162
54
161
156
48
167
162
54
159
154
46
159
154
46
162
157
49
161
156
48
164
159
51
157
152
44
161
156
48
164
159
51
159
154
46
154
149
41
149
144
36
166
161
53
168
163
55
164
159
51
155
150
42
165
160
52
165
160
52
165
160
52
156
151
43
152
147
39
164
159
51
164
159
51
154
149
41
158
153
45
161
156
48
160
155
47
152
147
39
166
161
53
166
161
53
165
160
52
164
159
51
156
151
43
155
150
42
161
156
48
155
150
42
155
150
42
168
163
55
167
162
54
157
152
44
156
151
43
148
143
35
153
148
40
165
160
52
166
161
53
166
161
53
157
152
44
159
154
46
163
158
50
157
152
44
155
150
42
159
154
46
176
171
63
179
174
66
187
182
74
184
179
71
176
171
63
165
160
52
160
155
47
162
157
49
159
154
46
170
165
57
168
163
55
153
148
40
154
149
41
157
152
44
154
149
41
151
146
38
176
171
63
188
183
75
193
188
80
204
199
91
199
194
86
178
173
65
172
167
59
174
169
61
166
161
53
177
172
64
172
167
59
160
155
47
157
152
44
151
146
38
152
147
39
158
153
45
150
145
37
167
162
54
190
185
77
193
188
80
205
200
92
204
199
91
179
174
66
169
164
56
177
172
64
182
177
69
180
175
67
182
177
69
173
168
60
175
170
62
165
160
52
161
156
48
159
154
46
154
149
41
158
153
45
172
167
59
184
179
71
207
202
94
186
181
73
177
172
64
191
186
78
184
179
71
206
201
93
189
184
76
179
174
66
182
177
69
177
172
64
175
170
62
169
164
56
163
158
50
158
153
45
159
154
46
164
159
51
170
165
57
168
163
55
176
171
63
190
185
77
176
171
63
177
172
64
194
189
81
186
181
73
170
165
57
171
166
58
179
174
66
179
174
66
167
162
54
164
159
51
163
158
50
157
152
44
153
148
40
151
146
38
154
149
41
176
171
63
169
164
56
176
171
63
199
194
86
182
177
69
173
168
60
171
166
58
167
162
54
168
163
55
169
164
56
166
161
53
176
171
63
170
165
57
162
157
49
154
149
41
155
150
42
161
156
48
159
154
46
171
166
58
186
181
73
175
170
62
163
158
50
170
165
57
164
159
51
157
152
44
159
154
46
159
154
46
160
155
47
167
162
54
168
163
55
165
160
52
168
163
55
165
160
52
159
154
46
157
152
44
155
150
42
145
140
32
151
146
38
154
149
41
166
161
53
171
166
58
178
173
65
173
168
60
156
151
43
154
149
41
156
151
43
169
164
56
180
175
67
174
169
61
155
150
42
143
138
30
152
147
39
153
148
40
158
153
45
155
150
42
165
160
52
162
157
49
163
158
50
176
171
63
175
170
62
168
163
55
153
148
40
156
151
43
164
159
51
153
148
40
153
148
40
165
160
52
155
150
42
147
142
34
150
145
37
163
158
50
171
166
58
167
162
54
157
152
44
165
160
52
173
168
60
167
162
54
167
162
54
152
147
39
161
156
48
153
148
40
