P3
# Created by GIMP version 2.10.36 PNM plug-in
16 16
255
113
166
179
115
168
181
121
174
187
116
169
182
118
171
184
115
168
181
125
178
191
117
170
183
118
171
184
114
167
180
105
158
171
117
170
183
117
170
183
118
171
184
114
167
180
120
173
186
122
175
188
107
160
173
111
164
177
117
170
183
117
170
183
113
166
179
120
173
186
118
171
184
117
170
183
115
168
181
115
168
181
107
160
173
106
159
172
106
159
172
109
162
175
117
170
183
118
171
184
117
170
183
111
164
177
117
170
183
109
162
175
109
162
175
112
165
178
111
164
177
114
167
180
107
160
173
111
164
177
114
167
180
109
162
175
104
157
170
99
152
165
116
169
182
118
171
184
114
167
180
105
158
171
115
168
181
115
168
181
115
168
181
106
159
172
102
155
168
114
167
180
114
167
180
104
157
170
108
161
174
111
164
177
110
163
176
102
155
168
116
169
182
116
169
182
115
168
181
114
167
180
106
159
172
105
158
171
111
164
177
105
158
171
105
158
171
118
171
184
117
170
183
107
160
173
106
159
172
98
151
164
103
156
169
115
168
181
116
169
182
116
169
182
107
160
173
109
162
175
113
166
179
107
160
173
105
158
171
109
162
175
126
179
192
129
182
195
137
190
203
134
187
200
126
179
192
115
168
181
110
163
176
112
165
178
109
162
175
120
173
186
118
171
184
103
156
169
104
157
170
107
160
173
104
157
170
101
154
167
126
179
192
138
191
204
143
196
209
154
207
220
149
202
215
128
181
194
122
175
188
124
177
190
116
169
182
127
180
193
122
175
188
110
163
176
107
160
173
101
154
167
102
155
168
108
161
174
100
153
166
117
170
183
140
193
206
143
196
209
155
208
221
154
207
220
129
182
195
119
172
185
127
180
193
132
185
198
130
183
196
132
185
198
123
176
189
125
178
191
115
168
181
111
164
177
109
162
175
104
157
170
108
161
174
122
175
188
134
187
200
157
210
223
136
189
202
127
180
193
141
194
207
134
187
200
156
209
222
139
192
205
129
182
195
132
185
198
127
180
193
125
178
191
119
172
185
113
166
179
108
161
174
109
162
175
114
167
180
120
173
186
118
171
184
126
179
192
140
193
206
126
179
192
127
180
193
144
197
210
136
189
202
120
173
186
121
174
187
129
182
195
129
182
195
117
170
183
114
167
180
113
166
179
107
160
173
103
156
169
101
154
167
104
157
170
126
179
192
119
172
185
126
179
192
149
202
215
132
185
198
123
176
189
121
174
187
117
170
183
118
171
184
119
172
185
116
169
182
126
179
192
120
173
186
112
165
178
104
157
170
105
158
171
111
164
177
109
162
175
121
174
187
136
189
202
125
178
191
113
166
179
120
173
186
114
167
180
107
160
173
109
162
175
109
162
175
110
163
176
117
170
183
118
171
184
115
168
181
118
171
184
115
168
181
109
162
175
107
160
173
105
158
171
95
148
161
101
154
167
104
157
170
116
169
182
121
174
187
128
181
194
123
176
189
106
159
172
104
157
170
106
159
172
119
172
185
130
183
196
124
177
190
105
158
171
93
146
159
102
155
168
103
156
169
108
161
174
105
158
171
115
168
181
112
165
178
113
166
179
126
179
192
125
178
191
118
171
184
103
156
169
106
159
172
114
167
180
103
156
169
103
156
169
115
168
181
105
158
171
97
150
163
100
153
166
113
166
179
121
174
187
117
170
183
107
160
173
115
168
181
123
176
189
117
170
183
117
170
183
102
155
168
111
164
177
103
156
169
