P3
# Created by GIMP version 2.10.36 PNM plug-in
16 16
255
211
196
127
213
198
129
219
204
135
214
199
130
216
201
132
213
198
129
223
208
139
215
200
131
216
201
132
212
197
128
203
188
119
215
200
131
215
200
131
216
201
132
212
197
128
218
203
134
220
205
136
205
190
121
209
194
125
215
200
131
215
200
131
211
196
127
218
203
134
216
201
132
215
200
131
213
198
129
213
198
129
205
190
121
204
189
120
204
189
120
207
192
123
215
200
131
216
201
132
215
200
131
209
194
125
215
200
131
207
192
123
207
192
123
210
195
126
209
194
125
212
197
128
205
190
121
209
194
125
212
197
128
207
192
123
202
187
118
197
182
113
214
199
130
216
201
132
212
197
128
203
188
119
213
198
129
213
198
129
213
198
129
204
189
120
200
185
116
212
197
128
212
197
128
202
187
118
206
191
122
209
194
125
208
193
124
200
185
116
214
199
130
214
199
130
213
198
129
212
197
128
204
189
120
203
188
119
209
194
125
203
188
119
203
188
119
216
201
132
215
200
131
205
190
121
204
189
120
196
181
112
201
186
117
213
198
129
214
199
130
214
199
130
205
190
121
207
192
123
211
196
127
205
190
121
203
188
119
207
192
123
224
209
140
227
212
143
235
220
151
232
217
148
224
209
140
213
198
129
208
193
124
210
195
126
207
192
123
218
203
134
216
201
132
201
186
117
202
187
118
205
190
121
202
187
118
199
184
115
224
209
140
236
221
152
241
226
157
252
237
168
247
232
163
226
211
142
220
205
136
222
207
138
214
199
130
225
210
141
220
205
136
208
193
124
205
190
121
199
184
115
200
185
116
206
191
122
198
183
114
215
200
131
238
223
154
241
226
157
253
238
169
252
237
168
227
212
143
217
202
133
225
210
141
230
215
146
228
213
144
230
215
146
221
206
137
223
208
139
213
198
129
209
194
125
207
192
123
202
187
118
206
191
122
220
205
136
232
217
148
255
255
171
234
219
150
225
210
141
239
224
155
232
217
148
254
239
170
237
222
153
227
212
143
230
215
146
225
210
141
223
208
139
217
202
133
211
196
127
206
191
122
207
192
123
212
197
128
218
203
134
216
201
132
224
209
140
238
223
154
224
209
140
225
210
141
242
227
158
234
219
150
218
203
134
219
204
135
227
212
143
227
212
143
215
200
131
212
197
128
211
196
127
205
190
121
201
186
117
199
184
115
202
187
118
224
209
140
217
202
133
224
209
140
247
232
163
230
215
146
221
206
137
219
204
135
215
200
131
216
201
132
217
202
133
214
199
130
224
209
140
218
203
134
210
195
126
202
187
118
203
188
119
209
194
125
207
192
123
219
204
135
234
219
150
223
208
139
211
196
127
218
203
134
212
197
128
205
190
121
207
192
123
207
192
123
208
193
124
215
200
131
216
201
132
213
198
129
216
201
132
213
198
129
207
192
123
205
190
121
203
188
119
193
178
109
199
184
115
202
187
118
214
199
130
219
204
135
226
211
142
221
206
137
204
189
120
202
187
118
204
189
120
217
202
133
228
213
144
222
207
138
203
188
119
191
176
107
200
185
116
201
186
117
206
191
122
203
188
119
213
198
129
210
195
126
211
196
127
224
209
140
223
208
139
216
201
132
201
186
117
204
189
120
212
197
128
201
186
117
201
186
117
213
198
129
203
188
119
195
180
111
198
183
114
211
196
127
219
204
135
215
200
131
205
190
121
213
198
129
221
206
137
215
200
131
215
200
131
200
185
116
209
194
125
201
186
117
