P3
# Created by GIMP version 2.10.36 PNM plug-in
16 16
255
179
67
116
181
69
118
187
75
124
182
70
119
184
72
121
181
69
118
191
79
128
183
71
120
184
72
121
180
68
117
171
59
108
183
71
120
183
71
120
184
72
121
180
68
117
186
74
123
188
76
125
173
61
110
177
65
114
183
71
120
183
71
120
179
67
116
186
74
123
184
72
121
183
71
120
181
69
118
181
69
118
173
61
110
172
60
109
172
60
109
175
63
112
183
71
120
184
72
121
183
71
120
177
65
114
183
71
120
175
63
112
175
63
112
178
66
115
177
65
114
180
68
117
173
61
110
177
65
114
180
68
117
175
63
112
170
58
107
165
53
102
182
70
119
184
72
121
180
68
117
171
59
108
181
69
118
181
69
118
181
69
118
172
60
109
168
56
105
180
68
117
180
68
117
170
58
107
174
62
111
177
65
114
176
64
113
168
56
105
182
70
119
182
70
119
181
69
118
180
68
117
172
60
109
171
59
108
177
65
114
171
59
108
171
59
108
184
72
121
183
71
120
173
61
110
172
60
109
164
52
101
169
57
106
181
69
118
182
70
119
182
70
119
173
61
110
175
63
112
179
67
116
173
61
110
171
59
108
175
63
112
192
80
129
195
83
132
203
91
140
200
88
137
192
80
129
181
69
118
176
64
113
178
66
115
175
63
112
186
74
123
184
72
121
169
57
106
170
58
107
173
61
110
170
58
107
167
55
104
192
80
129
204
92
141
209
97
146
220
108
157
215
103
152
194
82
131
188
76
125
190
78
127
182
70
119
193
81
130
188
76
125
176
64
113
173
61
110
167
55
104
168
56
105
174
62
111
166
54
103
183
71
120
206
94
143
209
97
146
221
109
158
220
108
157
195
83
132
185
73
122
193
81
130
198
86
135
196
84
133
198
86
135
189
77
126
191
79
128
181
69
118
177
65
114
175
63
112
170
58
107
174
62
111
188
76
125
200
88
137
223
111
160
202
90
139
193
81
130
207
95
144
200
88
137
222
110
159
205
93
142
195
83
132
198
86
135
193
81
130
191
79
128
185
73
122
179
67
116
174
62
111
175
63
112
180
68
117
186
74
123
184
72
121
192
80
129
206
94
143
192
80
129
193
81
130
210
98
147
202
90
139
186
74
123
187
75
124
195
83
132
195
83
132
183
71
120
180
68
117
179
67
116
173
61
110
169
57
106
167
55
104
170
58
107
192
80
129
185
73
122
192
80
129
215
103
152
198
86
135
189
77
126
187
75
124
183
71
120
184
72
121
185
73
122
182
70
119
192
80
129
186
74
123
178
66
115
170
58
107
171
59
108
177
65
114
175
63
112
187
75
124
202
90
139
191
79
128
179
67
116
186
74
123
180
68
117
173
61
110
175
63
112
175
63
112
176
64
113
183
71
120
184
72
121
181
69
118
184
72
121
181
69
118
175
63
112
173
61
110
171
59
108
161
49
98
167
55
104
170
58
107
182
70
119
187
75
124
194
82
131
189
77
126
172
60
109
170
58
107
172
60
109
185
73
122
196
84
133
190
78
127
171
59
108
159
47
96
168
56
105
169
57
106
174
62
111
171
59
108
181
69
118
178
66
115
179
67
116
192
80
129
191
79
128
184
72
121
169
57
106
172
60
109
180
68
117
169
57
106
169
57
106
181
69
118
171
59
108
163
51
100
166
54
103
179
67
116
187
75
124
183
71
120
173
61
110
181
69
118
189
77
126
183
71
120
183
71
120
168
56
105
177
65
114
169
57
106
