P3
# Created by GIMP version 2.10.36 PNM plug-in
16 16
255
197
103
114
199
105
116
205
111
122
200
106
117
202
108
119
199
105
116
209
115
126
201
107
118
202
108
119
198
104
115
189
95
106
201
107
118
201
107
118
202
108
119
198
104
115
204
110
121
206
112
123
191
97
108
195
101
112
201
107
118
201
107
118
197
103
114
204
110
121
202
108
119
201
107
118
199
105
116
199
105
116
191
97
108
190
96
107
190
96
107
193
99
110
201
107
118
202
108
119
201
107
118
195
101
112
201
107
118
193
99
110
193
99
110
196
102
113
195
101
112
198
104
115
191
97
108
195
101
112
198
104
115
193
99
110
188
94
105
183
89
100
200
106
117
202
108
119
198
104
115
189
95
106
199
105
116
199
105
116
199
105
116
190
96
107
186
92
103
198
104
115
198
104
115
188
94
105
192
98
109
195
101
112
194
100
111
186
92
103
200
106
117
200
106
117
199
105
116
198
104
115
190
96
107
189
95
106
195
101
112
189
95
106
189
95
106
202
108
119
201
107
118
191
97
108
190
96
107
182
88
99
187
93
104
199
105
116
200
106
117
200
106
117
191
97
108
193
99
110
197
103
114
191
97
108
189
95
106
193
99
110
210
116
127
213
119
130
221
127
138
218
124
135
210
116
127
199
105
116
194
100
111
196
102
113
193
99
110
204
110
121
202
108
119
187
93
104
188
94
105
191
97
108
188
94
105
185
91
102
210
116
127
222
128
139
227
133
144
238
144
155
233
139
150
212
118
129
206
112
123
208
114
125
200
106
117
211
117
128
206
112
123
194
100
111
191
97
108
185
91
102
186
92
103
192
98
109
184
90
101
201
107
118
224
130
141
227
133
144
239
145
156
238
144
155
213
119
130
203
109
120
211
117
128
216
122
133
214
120
131
216
122
133
207
113
124
209
115
126
199
105
116
195
101
112
193
99
110
188
94
105
192
98
109
206
112
123
218
124
135
241
147
158
220
126
137
211
117
128
225
131
142
218
124
135
240
146
157
223
129
140
213
119
130
216
122
133
211
117
128
209
115
126
203
109
120
197
103
114
192
98
109
193
99
110
198
104
115
204
110
121
202
108
119
210
116
127
224
130
141
210
116
127
211
117
128
228
134
145
220
126
137
204
110
121
205
111
122
213
119
130
213
119
130
201
107
118
198
104
115
197
103
114
191
97
108
187
93
104
185
91
102
188
94
105
210
116
127
203
109
120
210
116
127
233
139
150
216
122
133
207
113
124
205
111
122
201
107
118
202
108
119
203
109
120
200
106
117
210
116
127
204
110
121
196
102
113
188
94
105
189
95
106
195
101
112
193
99
110
205
111
122
220
126
137
209
115
126
197
103
114
204
110
121
198
104
115
191
97
108
193
99
110
193
99
110
194
100
111
201
107
118
202
108
119
199
105
116
202
108
119
199
105
116
193
99
110
191
97
108
189
95
106
179
85
96
185
91
102
188
94
105
200
106
117
205
111
122
212
118
129
207
113
124
190
96
107
188
94
105
190
96
107
203
109
120
214
120
131
208
114
125
189
95
106
177
83
94
186
92
103
187
93
104
192
98
109
189
95
106
199
105
116
196
102
113
197
103
114
210
116
127
209
115
126
202
108
119
187
93
104
190
96
107
198
104
115
187
93
104
187
93
104
199
105
116
189
95
106
181
87
98
184
90
101
197
103
114
205
111
122
201
107
118
191
97
108
199
105
116
207
113
124
201
107
118
201
107
118
186
92
103
195
101
112
187
93
104
