P3
# Created by GIMP version 2.10.36 PNM plug-in
16 16
255
128
186
190
130
188
192
136
194
198
131
189
193
133
191
195
130
188
192
140
198
202
132
190
194
133
191
195
129
187
191
120
178
182
132
190
194
132
190
194
133
191
195
129
187
191
135
193
197
137
195
199
122
180
184
126
184
188
132
190
194
132
190
194
128
186
190
135
193
197
133
191
195
132
190
194
130
188
192
130
188
192
122
180
184
121
179
183
121
179
183
124
182
186
132
190
194
133
191
195
132
190
194
126
184
188
132
190
194
124
182
186
124
182
186
127
185
189
126
184
188
129
187
191
122
180
184
126
184
188
129
187
191
124
182
186
119
177
181
114
172
176
131
189
193
133
191
195
129
187
191
120
178
182
130
188
192
130
188
192
130
188
192
121
179
183
117
175
179
129
187
191
129
187
191
119
177
181
123
181
185
126
184
188
125
183
187
117
175
179
131
189
193
131
189
193
130
188
192
129
187
191
121
179
183
120
178
182
126
184
188
120
178
182
120
178
182
133
191
195
132
190
194
122
180
184
121
179
183
113
171
175
118
176
180
130
188
192
131
189
193
131
189
193
122
180
184
124
182
186
128
186
190
122
180
184
120
178
182
124
182
186
141
199
203
144
202
206
152
210
214
149
207
211
141
199
203
130
188
192
125
183
187
127
185
189
124
182
186
135
193
197
133
191
195
118
176
180
119
177
181
122
180
184
119
177
181
116
174
178
141
199
203
153
211
215
158
216
220
169
227
231
164
222
226
143
201
205
137
195
199
139
197
201
131
189
193
142
200
204
137
195
199
125
183
187
122
180
184
116
174
178
117
175
179
123
181
185
115
173
177
132
190
194
155
213
217
158
216
220
170
228
232
169
227
231
144
202
206
134
192
196
142
200
204
147
205
209
145
203
207
147
205
209
138
196
200
140
198
202
130
188
192
126
184
188
124
182
186
119
177
181
123
181
185
137
195
199
149
207
211
172
230
234
151
209
213
142
200
204
156
214
218
149
207
211
171
229
233
154
212
216
144
202
206
147
205
209
142
200
204
140
198
202
134
192
196
128
186
190
123
181
185
124
182
186
129
187
191
135
193
197
133
191
195
141
199
203
155
213
217
141
199
203
142
200
204
159
217
221
151
209
213
135
193
197
136
194
198
144
202
206
144
202
206
132
190
194
129
187
191
128
186
190
122
180
184
118
176
180
116
174
178
119
177
181
141
199
203
134
192
196
141
199
203
164
222
226
147
205
209
138
196
200
136
194
198
132
190
194
133
191
195
134
192
196
131
189
193
141
199
203
135
193
197
127
185
189
119
177
181
120
178
182
126
184
188
124
182
186
136
194
198
151
209
213
140
198
202
128
186
190
135
193
197
129
187
191
122
180
184
124
182
186
124
182
186
125
183
187
132
190
194
133
191
195
130
188
192
133
191
195
130
188
192
124
182
186
122
180
184
120
178
182
110
168
172
116
174
178
119
177
181
131
189
193
136
194
198
143
201
205
138
196
200
121
179
183
119
177
181
121
179
183
134
192
196
145
203
207
139
197
201
120
178
182
108
166
170
117
175
179
118
176
180
123
181
185
120
178
182
130
188
192
127
185
189
128
186
190
141
199
203
140
198
202
133
191
195
118
176
180
121
179
183
129
187
191
118
176
180
118
176
180
130
188
192
120
178
182
112
170
174
115
173
177
128
186
190
136
194
198
132
190
194
122
180
184
130
188
192
138
196
200
132
190
194
132
190
194
117
175
179
126
184
188
118
176
180
