P3
# Created by GIMP version 2.10.36 PNM plug-in
16 16
255
209
118
182
211
120
184
217
126
190
212
121
185
214
123
187
211
120
184
221
130
194
213
122
186
214
123
187
210
119
183
201
110
174
213
122
186
213
122
186
214
123
187
210
119
183
216
125
189
218
127
191
203
112
176
207
116
180
213
122
186
213
122
186
209
118
182
216
125
189
214
123
187
213
122
186
211
120
184
211
120
184
203
112
176
202
111
175
202
111
175
205
114
178
213
122
186
214
123
187
213
122
186
207
116
180
213
122
186
205
114
178
205
114
178
208
117
181
207
116
180
210
119
183
203
112
176
207
116
180
210
119
183
205
114
178
200
109
173
195
104
168
212
121
185
214
123
187
210
119
183
201
110
174
211
120
184
211
120
184
211
120
184
202
111
175
198
107
171
210
119
183
210
119
183
200
109
173
204
113
177
207
116
180
206
115
179
198
107
171
212
121
185
212
121
185
211
120
184
210
119
183
202
111
175
201
110
174
207
116
180
201
110
174
201
110
174
214
123
187
213
122
186
203
112
176
202
111
175
194
103
167
199
108
172
211
120
184
212
121
185
212
121
185
203
112
176
205
114
178
209
118
182
203
112
176
201
110
174
205
114
178
222
131
195
225
134
198
233
142
206
230
139
203
222
131
195
211
120
184
206
115
179
208
117
181
205
114
178
216
125
189
214
123
187
199
108
172
200
109
173
203
112
176
200
109
173
197
106
170
222
131
195
234
143
207
239
148
212
250
159
223
245
154
218
224
133
197
218
127
191
220
129
193
212
121
185
223
132
196
218
127
191
206
115
179
203
112
176
197
106
170
198
107
171
204
113
177
196
105
169
213
122
186
236
145
209
239
148
212
251
160
224
250
159
223
225
134
198
215
124
188
223
132
196
228
137
201
226
135
199
228
137
201
219
128
192
221
130
194
211
120
184
207
116
180
205
114
178
200
109
173
204
113
177
218
127
191
230
139
203
253
162
226
232
141
205
223
132
196
237
146
210
230
139
203
252
161
225
235
144
208
225
134
198
228
137
201
223
132
196
221
130
194
215
124
188
209
118
182
204
113
177
205
114
178
210
119
183
216
125
189
214
123
187
222
131
195
236
145
209
222
131
195
223
132
196
240
149
213
232
141
205
216
125
189
217
126
190
225
134
198
225
134
198
213
122
186
210
119
183
209
118
182
203
112
176
199
108
172
197
106
170
200
109
173
222
131
195
215
124
188
222
131
195
245
154
218
228
137
201
219
128
192
217
126
190
213
122
186
214
123
187
215
124
188
212
121
185
222
131
195
216
125
189
208
117
181
200
109
173
201
110
174
207
116
180
205
114
178
217
126
190
232
141
205
221
130
194
209
118
182
216
125
189
210
119
183
203
112
176
205
114
178
205
114
178
206
115
179
213
122
186
214
123
187
211
120
184
214
123
187
211
120
184
205
114
178
203
112
176
201
110
174
191
100
164
197
106
170
200
109
173
212
121
185
217
126
190
224
133
197
219
128
192
202
111
175
200
109
173
202
111
175
215
124
188
226
135
199
220
129
193
201
110
174
189
98
162
198
107
171
199
108
172
204
113
177
201
110
174
211
120
184
208
117
181
209
118
182
222
131
195
221
130
194
214
123
187
199
108
172
202
111
175
210
119
183
199
108
172
199
108
172
211
120
184
201
110
174
193
102
166
196
105
169
209
118
182
217
126
190
213
122
186
203
112
176
211
120
184
219
128
192
213
122
186
213
122
186
198
107
171
207
116
180
199
108
172
