P3
# Created by GIMP version 2.10.36 PNM plug-in
16 16
255
131
151
168
133
153
170
139
159
176
134
154
171
136
156
173
133
153
170
143
163
180
135
155
172
136
156
173
132
152
169
123
143
160
135
155
172
135
155
172
136
156
173
132
152
169
138
158
175
140
160
177
125
145
162
129
149
166
135
155
172
135
155
172
131
151
168
138
158
175
136
156
173
135
155
172
133
153
170
133
153
170
125
145
162
124
144
161
124
144
161
127
147
164
135
155
172
136
156
173
135
155
172
129
149
166
135
155
172
127
147
164
127
147
164
130
150
167
129
149
166
132
152
169
125
145
162
129
149
166
132
152
169
127
147
164
122
142
159
117
137
154
134
154
171
136
156
173
132
152
169
123
143
160
133
153
170
133
153
170
133
153
170
124
144
161
120
140
157
132
152
169
132
152
169
122
142
159
126
146
163
129
149
166
128
148
165
120
140
157
134
154
171
134
154
171
133
153
170
132
152
169
124
144
161
123
143
160
129
149
166
123
143
160
123
143
160
136
156
173
135
155
172
125
145
162
124
144
161
116
136
153
121
141
158
133
153
170
134
154
171
134
154
171
125
145
162
127
147
164
131
151
168
125
145
162
123
143
160
127
147
164
144
164
181
147
167
184
155
175
192
152
172
189
144
164
181
133
153
170
128
148
165
130
150
167
127
147
164
138
158
175
136
156
173
121
141
158
122
142
159
125
145
162
122
142
159
119
139
156
144
164
181
156
176
193
161
181
198
172
192
209
167
187
204
146
166
183
140
160
177
142
162
179
134
154
171
145
165
182
140
160
177
128
148
165
125
145
162
119
139
156
120
140
157
126
146
163
118
138
155
135
155
172
158
178
195
161
181
198
173
193
210
172
192
209
147
167
184
137
157
174
145
165
182
150
170
187
148
168
185
150
170
187
141
161
178
143
163
180
133
153
170
129
149
166
127
147
164
122
142
159
126
146
163
140
160
177
152
172
189
175
195
212
154
174
191
145
165
182
159
179
196
152
172
189
174
194
211
157
177
194
147
167
184
150
170
187
145
165
182
143
163
180
137
157
174
131
151
168
126
146
163
127
147
164
132
152
169
138
158
175
136
156
173
144
164
181
158
178
195
144
164
181
145
165
182
162
182
199
154
174
191
138
158
175
139
159
176
147
167
184
147
167
184
135
155
172
132
152
169
131
151
168
125
145
162
121
141
158
119
139
156
122
142
159
144
164
181
137
157
174
144
164
181
167
187
204
150
170
187
141
161
178
139
159
176
135
155
172
136
156
173
137
157
174
134
154
171
144
164
181
138
158
175
130
150
167
122
142
159
123
143
160
129
149
166
127
147
164
139
159
176
154
174
191
143
163
180
131
151
168
138
158
175
132
152
169
125
145
162
127
147
164
127
147
164
128
148
165
135
155
172
136
156
173
133
153
170
136
156
173
133
153
170
127
147
164
125
145
162
123
143
160
113
133
150
119
139
156
122
142
159
134
154
171
139
159
176
146
166
183
141
161
178
124
144
161
122
142
159
124
144
161
137
157
174
148
168
185
142
162
179
123
143
160
111
131
148
120
140
157
121
141
158
126
146
163
123
143
160
133
153
170
130
150
167
131
151
168
144
164
181
143
163
180
136
156
173
121
141
158
124
144
161
132
152
169
121
141
158
121
141
158
133
153
170
123
143
160
115
135
152
118
138
155
131
151
168
139
159
176
135
155
172
125
145
162
133
153
170
141
161
178
135
155
172
135
155
172
120
140
157
129
149
166
121
141
158
