P3
# Created by GIMP version 2.10.36 PNM plug-in
16 16
255
79
116
104
81
118
106
87
124
112
82
119
107
84
121
109
81
118
106
91
128
116
83
120
108
84
121
109
80
117
105
71
108
96
83
120
108
83
120
108
84
121
109
80
117
105
86
123
111
88
125
113
73
110
98
77
114
102
83
120
108
83
120
108
79
116
104
86
123
111
84
121
109
83
120
108
81
118
106
81
118
106
73
110
98
72
109
97
72
109
97
75
112
100
83
120
108
84
121
109
83
120
108
77
114
102
83
120
108
75
112
100
75
112
100
78
115
103
77
114
102
80
117
105
73
110
98
77
114
102
80
117
105
75
112
100
70
107
95
65
102
90
82
119
107
84
121
109
80
117
105
71
108
96
81
118
106
81
118
106
81
118
106
72
109
97
68
105
93
80
117
105
80
117
105
70
107
95
74
111
99
77
114
102
76
113
101
68
105
93
82
119
107
82
119
107
81
118
106
80
117
105
72
109
97
71
108
96
77
114
102
71
108
96
71
108
96
84
121
109
83
120
108
73
110
98
72
109
97
64
101
89
69
106
94
81
118
106
82
119
107
82
119
107
73
110
98
75
112
100
79
116
104
73
110
98
71
108
96
75
112
100
92
129
117
95
132
120
103
140
128
100
137
125
92
129
117
81
118
106
76
113
101
78
115
103
75
112
100
86
123
111
84
121
109
69
106
94
70
107
95
73
110
98
70
107
95
67
104
92
92
129
117
104
141
129
109
146
134
120
157
145
115
152
140
94
131
119
88
125
113
90
127
115
82
119
107
93
130
118
88
125
113
76
113
101
73
110
98
67
104
92
68
105
93
74
111
99
66
103
91
83
120
108
106
143
131
109
146
134
121
158
146
120
157
145
95
132
120
85
122
110
93
130
118
98
135
123
96
133
121
98
135
123
89
126
114
91
128
116
81
118
106
77
114
102
75
112
100
70
107
95
74
111
99
88
125
113
100
137
125
123
160
148
102
139
127
93
130
118
107
144
132
100
137
125
122
159
147
105
142
130
95
132
120
98
135
123
93
130
118
91
128
116
85
122
110
79
116
104
74
111
99
75
112
100
80
117
105
86
123
111
84
121
109
92
129
117
106
143
131
92
129
117
93
130
118
110
147
135
102
139
127
86
123
111
87
124
112
95
132
120
95
132
120
83
120
108
80
117
105
79
116
104
73
110
98
69
106
94
67
104
92
70
107
95
92
129
117
85
122
110
92
129
117
115
152
140
98
135
123
89
126
114
87
124
112
83
120
108
84
121
109
85
122
110
82
119
107
92
129
117
86
123
111
78
115
103
70
107
95
71
108
96
77
114
102
75
112
100
87
124
112
102
139
127
91
128
116
79
116
104
86
123
111
80
117
105
73
110
98
75
112
100
75
112
100
76
113
101
83
120
108
84
121
109
81
118
106
84
121
109
81
118
106
75
112
100
73
110
98
71
108
96
61
98
86
67
104
92
70
107
95
82
119
107
87
124
112
94
131
119
89
126
114
72
109
97
70
107
95
72
109
97
85
122
110
96
133
121
90
127
115
71
108
96
59
96
84
68
105
93
69
106
94
74
111
99
71
108
96
81
118
106
78
115
103
79
116
104
92
129
117
91
128
116
84
121
109
69
106
94
72
109
97
80
117
105
69
106
94
69
106
94
81
118
106
71
108
96
63
100
88
66
103
91
79
116
104
87
124
112
83
120
108
73
110
98
81
118
106
89
126
114
83
120
108
83
120
108
68
105
93
77
114
102
69
106
94
