P3
# Created by GIMP version 2.10.36 PNM plug-in
16 16
255
152
138
71
154
140
73
160
146
79
155
141
74
157
143
76
154
140
73
164
150
83
156
142
75
157
143
76
153
139
72
144
130
63
156
142
75
156
142
75
157
143
76
153
139
72
159
145
78
161
147
80
146
132
65
150
136
69
156
142
75
156
142
75
152
138
71
159
145
78
157
143
76
156
142
75
154
140
73
154
140
73
146
132
65
145
131
64
145
131
64
148
134
67
156
142
75
157
143
76
156
142
75
150
136
69
156
142
75
148
134
67
148
134
67
151
137
70
150
136
69
153
139
72
146
132
65
150
136
69
153
139
72
148
134
67
143
129
62
138
124
57
155
141
74
157
143
76
153
139
72
144
130
63
154
140
73
154
140
73
154
140
73
145
131
64
141
127
60
153
139
72
153
139
72
143
129
62
147
133
66
150
136
69
149
135
68
141
127
60
155
141
74
155
141
74
154
140
73
153
139
72
145
131
64
144
130
63
150
136
69
144
130
63
144
130
63
157
143
76
156
142
75
146
132
65
145
131
64
137
123
56
142
128
61
154
140
73
155
141
74
155
141
74
146
132
65
148
134
67
152
138
71
146
132
65
144
130
63
148
134
67
165
151
84
168
154
87
176
162
95
173
159
92
165
151
84
154
140
73
149
135
68
151
137
70
148
134
67
159
145
78
157
143
76
142
128
61
143
129
62
146
132
65
143
129
62
140
126
59
165
151
84
177
163
96
182
168
101
193
179
112
188
174
107
167
153
86
161
147
80
163
149
82
155
141
74
166
152
85
161
147
80
149
135
68
146
132
65
140
126
59
141
127
60
147
133
66
139
125
58
156
142
75
179
165
98
182
168
101
194
180
113
193
179
112
168
154
87
158
144
77
166
152
85
171
157
90
169
155
88
171
157
90
162
148
81
164
150
83
154
140
73
150
136
69
148
134
67
143
129
62
147
133
66
161
147
80
173
159
92
196
182
115
175
161
94
166
152
85
180
166
99
173
159
92
195
181
114
178
164
97
168
154
87
171
157
90
166
152
85
164
150
83
158
144
77
152
138
71
147
133
66
148
134
67
153
139
72
159
145
78
157
143
76
165
151
84
179
165
98
165
151
84
166
152
85
183
169
102
175
161
94
159
145
78
160
146
79
168
154
87
168
154
87
156
142
75
153
139
72
152
138
71
146
132
65
142
128
61
140
126
59
143
129
62
165
151
84
158
144
77
165
151
84
188
174
107
171
157
90
162
148
81
160
146
79
156
142
75
157
143
76
158
144
77
155
141
74
165
151
84
159
145
78
151
137
70
143
129
62
144
130
63
150
136
69
148
134
67
160
146
79
175
161
94
164
150
83
152
138
71
159
145
78
153
139
72
146
132
65
148
134
67
148
134
67
149
135
68
156
142
75
157
143
76
154
140
73
157
143
76
154
140
73
148
134
67
146
132
65
144
130
63
134
120
53
140
126
59
143
129
62
155
141
74
160
146
79
167
153
86
162
148
81
145
131
64
143
129
62
145
131
64
158
144
77
169
155
88
163
149
82
144
130
63
132
118
51
141
127
60
142
128
61
147
133
66
144
130
63
154
140
73
151
137
70
152
138
71
165
151
84
164
150
83
157
143
76
142
128
61
145
131
64
153
139
72
142
128
61
142
128
61
154
140
73
144
130
63
136
122
55
139
125
58
152
138
71
160
146
79
156
142
75
146
132
65
154
140
73
162
148
81
156
142
75
156
142
75
141
127
60
150
136
69
142
128
61
