P3
# Created by GIMP version 2.10.36 PNM plug-in
16 16
255
60
72
36
62
74
38
68
80
44
63
75
39
65
77
41
62
74
38
72
84
48
64
76
40
65
77
41
61
73
37
52
64
28
64
76
40
64
76
40
65
77
41
61
73
37
67
79
43
69
81
45
54
66
30
58
70
34
64
76
40
64
76
40
60
72
36
67
79
43
65
77
41
64
76
40
62
74
38
62
74
38
54
66
30
53
65
29
53
65
29
56
68
32
64
76
40
65
77
41
64
76
40
58
70
34
64
76
40
56
68
32
56
68
32
59
71
35
58
70
34
61
73
37
54
66
30
58
70
34
61
73
37
56
68
32
51
63
27
46
58
22
63
75
39
65
77
41
61
73
37
52
64
28
62
74
38
62
74
38
62
74
38
53
65
29
49
61
25
61
73
37
61
73
37
51
63
27
55
67
31
58
70
34
57
69
33
49
61
25
63
75
39
63
75
39
62
74
38
61
73
37
53
65
29
52
64
28
58
70
34
52
64
28
52
64
28
65
77
41
64
76
40
54
66
30
53
65
29
45
57
21
50
62
26
62
74
38
63
75
39
63
75
39
54
66
30
56
68
32
60
72
36
54
66
30
52
64
28
56
68
32
73
85
49
76
88
52
84
96
60
81
93
57
73
85
49
62
74
38
57
69
33
59
71
35
56
68
32
67
79
43
65
77
41
50
62
26
51
63
27
54
66
30
51
63
27
48
60
24
73
85
49
85
97
61
90
102
66
101
113
77
96
108
72
75
87
51
69
81
45
71
83
47
63
75
39
74
86
50
69
81
45
57
69
33
54
66
30
48
60
24
49
61
25
55
67
31
47
59
23
64
76
40
87
99
63
90
102
66
102
114
78
101
113
77
76
88
52
66
78
42
74
86
50
79
91
55
77
89
53
79
91
55
70
82
46
72
84
48
62
74
38
58
70
34
56
68
32
51
63
27
55
67
31
69
81
45
81
93
57
104
116
80
83
95
59
74
86
50
88
100
64
81
93
57
103
115
79
86
98
62
76
88
52
79
91
55
74
86
50
72
84
48
66
78
42
60
72
36
55
67
31
56
68
32
61
73
37
67
79
43
65
77
41
73
85
49
87
99
63
73
85
49
74
86
50
91
103
67
83
95
59
67
79
43
68
80
44
76
88
52
76
88
52
64
76
40
61
73
37
60
72
36
54
66
30
50
62
26
48
60
24
51
63
27
73
85
49
66
78
42
73
85
49
96
108
72
79
91
55
70
82
46
68
80
44
64
76
40
65
77
41
66
78
42
63
75
39
73
85
49
67
79
43
59
71
35
51
63
27
52
64
28
58
70
34
56
68
32
68
80
44
83
95
59
72
84
48
60
72
36
67
79
43
61
73
37
54
66
30
56
68
32
56
68
32
57
69
33
64
76
40
65
77
41
62
74
38
65
77
41
62
74
38
56
68
32
54
66
30
52
64
28
42
54
18
48
60
24
51
63
27
63
75
39
68
80
44
75
87
51
70
82
46
53
65
29
51
63
27
53
65
29
66
78
42
77
89
53
71
83
47
52
64
28
40
52
16
49
61
25
50
62
26
55
67
31
52
64
28
62
74
38
59
71
35
60
72
36
73
85
49
72
84
48
65
77
41
50
62
26
53
65
29
61
73
37
50
62
26
50
62
26
62
74
38
52
64
28
44
56
20
47
59
23
60
72
36
68
80
44
64
76
40
54
66
30
62
74
38
70
82
46
64
76
40
64
76
40
49
61
25
58
70
34
50
62
26
