P3
# Created by GIMP version 2.10.36 PNM plug-in
16 16
255
112
115
170
114
117
172
120
123
178
115
118
173
117
120
175
114
117
172
124
127
182
116
119
174
117
120
175
113
116
171
104
107
162
116
119
174
116
119
174
117
120
175
113
116
171
119
122
177
121
124
179
106
109
164
110
113
168
116
119
174
116
119
174
112
115
170
119
122
177
117
120
175
116
119
174
114
117
172
114
117
172
106
109
164
105
108
163
105
108
163
108
111
166
116
119
174
117
120
175
116
119
174
110
113
168
116
119
174
108
111
166
108
111
166
111
114
169
110
113
168
113
116
171
106
109
164
110
113
168
113
116
171
108
111
166
103
106
161
98
101
156
115
118
173
117
120
175
113
116
171
104
107
162
114
117
172
114
117
172
114
117
172
105
108
163
101
104
159
113
116
171
113
116
171
103
106
161
107
110
165
110
113
168
109
112
167
101
104
159
115
118
173
115
118
173
114
117
172
113
116
171
105
108
163
104
107
162
110
113
168
104
107
162
104
107
162
117
120
175
116
119
174
106
109
164
105
108
163
97
100
155
102
105
160
114
117
172
115
118
173
115
118
173
106
109
164
108
111
166
112
115
170
106
109
164
104
107
162
108
111
166
125
128
183
128
131
186
136
139
194
133
136
191
125
128
183
114
117
172
109
112
167
111
114
169
108
111
166
119
122
177
117
120
175
102
105
160
103
106
161
106
109
164
103
106
161
100
103
158
125
128
183
137
140
195
142
145
200
153
156
211
148
151
206
127
130
185
121
124
179
123
126
181
115
118
173
126
129
184
121
124
179
109
112
167
106
109
164
100
103
158
101
104
159
107
110
165
99
102
157
116
119
174
139
142
197
142
145
200
154
157
212
153
156
211
128
131
186
118
121
176
126
129
184
131
134
189
129
132
187
131
134
189
122
125
180
124
127
182
114
117
172
110
113
168
108
111
166
103
106
161
107
110
165
121
124
179
133
136
191
156
159
214
135
138
193
126
129
184
140
143
198
133
136
191
155
158
213
138
141
196
128
131
186
131
134
189
126
129
184
124
127
182
118
121
176
112
115
170
107
110
165
108
111
166
113
116
171
119
122
177
117
120
175
125
128
183
139
142
197
125
128
183
126
129
184
143
146
201
135
138
193
119
122
177
120
123
178
128
131
186
128
131
186
116
119
174
113
116
171
112
115
170
106
109
164
102
105
160
100
103
158
103
106
161
125
128
183
118
121
176
125
128
183
148
151
206
131
134
189
122
125
180
120
123
178
116
119
174
117
120
175
118
121
176
115
118
173
125
128
183
119
122
177
111
114
169
103
106
161
104
107
162
110
113
168
108
111
166
120
123
178
135
138
193
124
127
182
112
115
170
119
122
177
113
116
171
106
109
164
108
111
166
108
111
166
109
112
167
116
119
174
117
120
175
114
117
172
117
120
175
114
117
172
108
111
166
106
109
164
104
107
162
94
97
152
100
103
158
103
106
161
115
118
173
120
123
178
127
130
185
122
125
180
105
108
163
103
106
161
105
108
163
118
121
176
129
132
187
123
126
181
104
107
162
92
95
150
101
104
159
102
105
160
107
110
165
104
107
162
114
117
172
111
114
169
112
115
170
125
128
183
124
127
182
117
120
175
102
105
160
105
108
163
113
116
171
102
105
160
102
105
160
114
117
172
104
107
162
96
99
154
99
102
157
112
115
170
120
123
178
116
119
174
106
109
164
114
117
172
122
125
180
116
119
174
116
119
174
101
104
159
110
113
168
102
105
160
