P3
# Created by GIMP version 2.10.36 PNM plug-in
16 16
255
173
206
131
175
208
133
181
214
139
176
209
134
178
211
136
175
208
133
185
218
143
177
210
135
178
211
136
174
207
132
165
198
123
177
210
135
177
210
135
178
211
136
174
207
132
180
213
138
182
215
140
167
200
125
171
204
129
177
210
135
177
210
135
173
206
131
180
213
138
178
211
136
177
210
135
175
208
133
175
208
133
167
200
125
166
199
124
166
199
124
169
202
127
177
210
135
178
211
136
177
210
135
171
204
129
177
210
135
169
202
127
169
202
127
172
205
130
171
204
129
174
207
132
167
200
125
171
204
129
174
207
132
169
202
127
164
197
122
159
192
117
176
209
134
178
211
136
174
207
132
165
198
123
175
208
133
175
208
133
175
208
133
166
199
124
162
195
120
174
207
132
174
207
132
164
197
122
168
201
126
171
204
129
170
203
128
162
195
120
176
209
134
176
209
134
175
208
133
174
207
132
166
199
124
165
198
123
171
204
129
165
198
123
165
198
123
178
211
136
177
210
135
167
200
125
166
199
124
158
191
116
163
196
121
175
208
133
176
209
134
176
209
134
167
200
125
169
202
127
173
206
131
167
200
125
165
198
123
169
202
127
186
219
144
189
222
147
197
230
155
194
227
152
186
219
144
175
208
133
170
203
128
172
205
130
169
202
127
180
213
138
178
211
136
163
196
121
164
197
122
167
200
125
164
197
122
161
194
119
186
219
144
198
231
156
203
236
161
214
247
172
209
242
167
188
221
146
182
215
140
184
217
142
176
209
134
187
220
145
182
215
140
170
203
128
167
200
125
161
194
119
162
195
120
168
201
126
160
193
118
177
210
135
200
233
158
203
236
161
215
248
173
214
247
172
189
222
147
179
212
137
187
220
145
192
225
150
190
223
148
192
225
150
183
216
141
185
218
143
175
208
133
171
204
129
169
202
127
164
197
122
168
201
126
182
215
140
194
227
152
217
250
175
196
229
154
187
220
145
201
234
159
194
227
152
216
249
174
199
232
157
189
222
147
192
225
150
187
220
145
185
218
143
179
212
137
173
206
131
168
201
126
169
202
127
174
207
132
180
213
138
178
211
136
186
219
144
200
233
158
186
219
144
187
220
145
204
237
162
196
229
154
180
213
138
181
214
139
189
222
147
189
222
147
177
210
135
174
207
132
173
206
131
167
200
125
163
196
121
161
194
119
164
197
122
186
219
144
179
212
137
186
219
144
209
242
167
192
225
150
183
216
141
181
214
139
177
210
135
178
211
136
179
212
137
176
209
134
186
219
144
180
213
138
172
205
130
164
197
122
165
198
123
171
204
129
169
202
127
181
214
139
196
229
154
185
218
143
173
206
131
180
213
138
174
207
132
167
200
125
169
202
127
169
202
127
170
203
128
177
210
135
178
211
136
175
208
133
178
211
136
175
208
133
169
202
127
167
200
125
165
198
123
155
188
113
161
194
119
164
197
122
176
209
134
181
214
139
188
221
146
183
216
141
166
199
124
164
197
122
166
199
124
179
212
137
190
223
148
184
217
142
165
198
123
153
186
111
162
195
120
163
196
121
168
201
126
165
198
123
175
208
133
172
205
130
173
206
131
186
219
144
185
218
143
178
211
136
163
196
121
166
199
124
174
207
132
163
196
121
163
196
121
175
208
133
165
198
123
157
190
115
160
193
118
173
206
131
181
214
139
177
210
135
167
200
125
175
208
133
183
216
141
177
210
135
177
210
135
162
195
120
171
204
129
163
196
121
