P3
# Created by GIMP version 2.10.36 PNM plug-in
16 16
255
114
116
114
116
118
116
122
124
122
117
119
117
119
121
119
116
118
116
126
128
126
118
120
118
119
121
119
115
117
115
106
108
106
118
120
118
118
120
118
119
121
119
115
117
115
121
123
121
123
125
123
108
110
108
112
114
112
118
120
118
118
120
118
114
116
114
121
123
121
119
121
119
118
120
118
116
118
116
116
118
116
108
110
108
107
109
107
107
109
107
110
112
110
118
120
118
119
121
119
118
120
118
112
114
112
118
120
118
110
112
110
110
112
110
113
115
113
112
114
112
115
117
115
108
110
108
112
114
112
115
117
115
110
112
110
105
107
105
100
102
100
117
119
117
119
121
119
115
117
115
106
108
106
116
118
116
116
118
116
116
118
116
107
109
107
103
105
103
115
117
115
115
117
115
105
107
105
109
111
109
112
114
112
111
113
111
103
105
103
117
119
117
117
119
117
116
118
116
115
117
115
107
109
107
106
108
106
112
114
112
106
108
106
106
108
106
119
121
119
118
120
118
108
110
108
107
109
107
99
101
99
104
106
104
116
118
116
117
119
117
117
119
117
108
110
108
110
112
110
114
116
114
108
110
108
106
108
106
110
112
110
127
129
127
130
132
130
138
140
138
135
137
135
127
129
127
116
118
116
111
113
111
113
115
113
110
112
110
121
123
121
119
121
119
104
106
104
105
107
105
108
110
108
105
107
105
102
104
102
127
129
127
139
141
139
144
146
144
155
157
155
150
152
150
129
131
129
123
125
123
125
127
125
117
119
117
128
130
128
123
125
123
111
113
111
108
110
108
102
104
102
103
105
103
109
111
109
101
103
101
118
120
118
141
143
141
144
146
144
156
158
156
155
157
155
130
132
130
120
122
120
128
130
128
133
135
133
131
133
131
133
135
133
124
126
124
126
128
126
116
118
116
112
114
112
110
112
110
105
107
105
109
111
109
123
125
123
135
137
135
158
160
158
137
139
137
128
130
128
142
144
142
135
137
135
157
159
157
140
142
140
130
132
130
133
135
133
128
130
128
126
128
126
120
122
120
114
116
114
109
111
109
110
112
110
115
117
115
121
123
121
119
121
119
127
129
127
141
143
141
127
129
127
128
130
128
145
147
145
137
139
137
121
123
121
122
124
122
130
132
130
130
132
130
118
120
118
115
117
115
114
116
114
108
110
108
104
106
104
102
104
102
105
107
105
127
129
127
120
122
120
127
129
127
150
152
150
133
135
133
124
126
124
122
124
122
118
120
118
119
121
119
120
122
120
117
119
117
127
129
127
121
123
121
113
115
113
105
107
105
106
108
106
112
114
112
110
112
110
122
124
122
137
139
137
126
128
126
114
116
114
121
123
121
115
117
115
108
110
108
110
112
110
110
112
110
111
113
111
118
120
118
119
121
119
116
118
116
119
121
119
116
118
116
110
112
110
108
110
108
106
108
106
96
98
96
102
104
102
105
107
105
117
119
117
122
124
122
129
131
129
124
126
124
107
109
107
105
107
105
107
109
107
120
122
120
131
133
131
125
127
125
106
108
106
94
96
94
103
105
103
104
106
104
109
111
109
106
108
106
116
118
116
113
115
113
114
116
114
127
129
127
126
128
126
119
121
119
104
106
104
107
109
107
115
117
115
104
106
104
104
106
104
116
118
116
106
108
106
98
100
98
101
103
101
114
116
114
122
124
122
118
120
118
108
110
108
116
118
116
124
126
124
118
120
118
118
120
118
103
105
103
112
114
112
104
106
104
