P3
# Created by GIMP version 2.10.36 PNM plug-in
16 16
255
139
118
99
141
120
101
147
126
107
142
121
102
144
123
104
141
120
101
151
130
111
143
122
103
144
123
104
140
119
100
131
110
91
143
122
103
143
122
103
144
123
104
140
119
100
146
125
106
148
127
108
133
112
93
137
116
97
143
122
103
143
122
103
139
118
99
146
125
106
144
123
104
143
122
103
141
120
101
141
120
101
133
112
93
132
111
92
132
111
92
135
114
95
143
122
103
144
123
104
143
122
103
137
116
97
143
122
103
135
114
95
135
114
95
138
117
98
137
116
97
140
119
100
133
112
93
137
116
97
140
119
100
135
114
95
130
109
90
125
104
85
142
121
102
144
123
104
140
119
100
131
110
91
141
120
101
141
120
101
141
120
101
132
111
92
128
107
88
140
119
100
140
119
100
130
109
90
134
113
94
137
116
97
136
115
96
128
107
88
142
121
102
142
121
102
141
120
101
140
119
100
132
111
92
131
110
91
137
116
97
131
110
91
131
110
91
144
123
104
143
122
103
133
112
93
132
111
92
124
103
84
129
108
89
141
120
101
142
121
102
142
121
102
133
112
93
135
114
95
139
118
99
133
112
93
131
110
91
135
114
95
152
131
112
155
134
115
163
142
123
160
139
120
152
131
112
141
120
101
136
115
96
138
117
98
135
114
95
146
125
106
144
123
104
129
108
89
130
109
90
133
112
93
130
109
90
127
106
87
152
131
112
164
143
124
169
148
129
180
159
140
175
154
135
154
133
114
148
127
108
150
129
110
142
121
102
153
132
113
148
127
108
136
115
96
133
112
93
127
106
87
128
107
88
134
113
94
126
105
86
143
122
103
166
145
126
169
148
129
181
160
141
180
159
140
155
134
115
145
124
105
153
132
113
158
137
118
156
135
116
158
137
118
149
128
109
151
130
111
141
120
101
137
116
97
135
114
95
130
109
90
134
113
94
148
127
108
160
139
120
183
162
143
162
141
122
153
132
113
167
146
127
160
139
120
182
161
142
165
144
125
155
134
115
158
137
118
153
132
113
151
130
111
145
124
105
139
118
99
134
113
94
135
114
95
140
119
100
146
125
106
144
123
104
152
131
112
166
145
126
152
131
112
153
132
113
170
149
130
162
141
122
146
125
106
147
126
107
155
134
115
155
134
115
143
122
103
140
119
100
139
118
99
133
112
93
129
108
89
127
106
87
130
109
90
152
131
112
145
124
105
152
131
112
175
154
135
158
137
118
149
128
109
147
126
107
143
122
103
144
123
104
145
124
105
142
121
102
152
131
112
146
125
106
138
117
98
130
109
90
131
110
91
137
116
97
135
114
95
147
126
107
162
141
122
151
130
111
139
118
99
146
125
106
140
119
100
133
112
93
135
114
95
135
114
95
136
115
96
143
122
103
144
123
104
141
120
101
144
123
104
141
120
101
135
114
95
133
112
93
131
110
91
121
100
81
127
106
87
130
109
90
142
121
102
147
126
107
154
133
114
149
128
109
132
111
92
130
109
90
132
111
92
145
124
105
156
135
116
150
129
110
131
110
91
119
98
79
128
107
88
129
108
89
134
113
94
131
110
91
141
120
101
138
117
98
139
118
99
152
131
112
151
130
111
144
123
104
129
108
89
132
111
92
140
119
100
129
108
89
129
108
89
141
120
101
131
110
91
123
102
83
126
105
86
139
118
99
147
126
107
143
122
103
133
112
93
141
120
101
149
128
109
143
122
103
143
122
103
128
107
88
137
116
97
129
108
89
