P3
# Created by GIMP version 2.10.36 PNM plug-in
16 16
255
209
211
211
211
213
213
217
219
219
212
214
214
214
216
216
211
213
213
221
223
223
213
215
215
214
216
216
210
212
212
201
203
203
213
215
215
213
215
215
214
216
216
210
212
212
216
218
218
218
220
220
203
205
205
207
209
209
213
215
215
213
215
215
209
211
211
216
218
218
214
216
216
213
215
215
211
213
213
211
213
213
203
205
205
202
204
204
202
204
204
205
207
207
213
215
215
214
216
216
213
215
215
207
209
209
213
215
215
205
207
207
205
207
207
208
210
210
207
209
209
210
212
212
203
205
205
207
209
209
210
212
212
205
207
207
200
202
202
195
197
197
212
214
214
214
216
216
210
212
212
201
203
203
211
213
213
211
213
213
211
213
213
202
204
204
198
200
200
210
212
212
210
212
212
200
202
202
204
206
206
207
209
209
206
208
208
198
200
200
212
214
214
212
214
214
211
213
213
210
212
212
202
204
204
201
203
203
207
209
209
201
203
203
201
203
203
214
216
216
213
215
215
203
205
205
202
204
204
194
196
196
199
201
201
211
213
213
212
214
214
212
214
214
203
205
205
205
207
207
209
211
211
203
205
205
201
203
203
205
207
207
222
224
224
225
227
227
233
235
235
230
232
232
222
224
224
211
213
213
206
208
208
208
210
210
205
207
207
216
218
218
214
216
216
199
201
201
200
202
202
203
205
205
200
202
202
197
199
199
222
224
224
234
236
236
239
241
241
250
252
252
245
247
247
224
226
226
218
220
220
220
222
222
212
214
214
223
225
225
218
220
220
206
208
208
203
205
205
197
199
199
198
200
200
204
206
206
196
198
198
213
215
215
236
238
238
239
241
241
251
253
253
250
252
252
225
227
227
215
217
217
223
225
225
228
230
230
226
228
228
228
230
230
219
221
221
221
223
223
211
213
213
207
209
209
205
207
207
200
202
202
204
206
206
218
220
220
230
232
232
253
255
255
232
234
234
223
225
225
237
239
239
230
232
232
252
254
254
235
237
237
225
227
227
228
230
230
223
225
225
221
223
223
215
217
217
209
211
211
204
206
206
205
207
207
210
212
212
216
218
218
214
216
216
222
224
224
236
238
238
222
224
224
223
225
225
240
255
255
232
234
234
216
218
218
217
219
219
225
227
227
225
227
227
213
215
215
210
212
212
209
211
211
203
205
205
199
201
201
197
199
199
200
202
202
222
224
224
215
217
217
222
224
224
245
247
247
228
230
230
219
221
221
217
219
219
213
215
215
214
216
216
215
217
217
212
214
214
222
224
224
216
218
218
208
210
210
200
202
202
201
203
203
207
209
209
205
207
207
217
219
219
232
234
234
221
223
223
209
211
211
216
218
218
210
212
212
203
205
205
205
207
207
205
207
207
206
208
208
213
215
215
214
216
216
211
213
213
214
216
216
211
213
213
205
207
207
203
205
205
201
203
203
191
193
193
197
199
199
200
202
202
212
214
214
217
219
219
224
226
226
219
221
221
202
204
204
200
202
202
202
204
204
215
217
217
226
228
228
220
222
222
201
203
203
189
191
191
198
200
200
199
201
201
204
206
206
201
203
203
211
213
213
208
210
210
209
211
211
222
224
224
221
223
223
214
216
216
199
201
201
202
204
204
210
212
212
199
201
201
199
201
201
211
213
213
201
203
203
193
195
195
196
198
198
209
211
211
217
219
219
213
215
215
203
205
205
211
213
213
219
221
221
213
215
215
213
215
215
198
200
200
207
209
209
199
201
201
