P3
# Created by GIMP version 2.10.36 PNM plug-in
16 16
255
150
166
196
152
168
198
158
174
204
153
169
199
155
171
201
152
168
198
162
178
208
154
170
200
155
171
201
151
167
197
142
158
188
154
170
200
154
170
200
155
171
201
151
167
197
157
173
203
159
175
205
144
160
190
148
164
194
154
170
200
154
170
200
150
166
196
157
173
203
155
171
201
154
170
200
152
168
198
152
168
198
144
160
190
143
159
189
143
159
189
146
162
192
154
170
200
155
171
201
154
170
200
148
164
194
154
170
200
146
162
192
146
162
192
149
165
195
148
164
194
151
167
197
144
160
190
148
164
194
151
167
197
146
162
192
141
157
187
136
152
182
153
169
199
155
171
201
151
167
197
142
158
188
152
168
198
152
168
198
152
168
198
143
159
189
139
155
185
151
167
197
151
167
197
141
157
187
145
161
191
148
164
194
147
163
193
139
155
185
153
169
199
153
169
199
152
168
198
151
167
197
143
159
189
142
158
188
148
164
194
142
158
188
142
158
188
155
171
201
154
170
200
144
160
190
143
159
189
135
151
181
140
156
186
152
168
198
153
169
199
153
169
199
144
160
190
146
162
192
150
166
196
144
160
190
142
158
188
146
162
192
163
179
209
166
182
212
174
190
220
171
187
217
163
179
209
152
168
198
147
163
193
149
165
195
146
162
192
157
173
203
155
171
201
140
156
186
141
157
187
144
160
190
141
157
187
138
154
184
163
179
209
175
191
221
180
196
226
191
207
237
186
202
232
165
181
211
159
175
205
161
177
207
153
169
199
164
180
210
159
175
205
147
163
193
144
160
190
138
154
184
139
155
185
145
161
191
137
153
183
154
170
200
177
193
223
180
196
226
192
208
238
191
207
237
166
182
212
156
172
202
164
180
210
169
185
215
167
183
213
169
185
215
160
176
206
162
178
208
152
168
198
148
164
194
146
162
192
141
157
187
145
161
191
159
175
205
171
187
217
194
210
240
173
189
219
164
180
210
178
194
224
171
187
217
193
209
239
176
192
222
166
182
212
169
185
215
164
180
210
162
178
208
156
172
202
150
166
196
145
161
191
146
162
192
151
167
197
157
173
203
155
171
201
163
179
209
177
193
223
163
179
209
164
180
210
181
197
227
173
189
219
157
173
203
158
174
204
166
182
212
166
182
212
154
170
200
151
167
197
150
166
196
144
160
190
140
156
186
138
154
184
141
157
187
163
179
209
156
172
202
163
179
209
186
202
232
169
185
215
160
176
206
158
174
204
154
170
200
155
171
201
156
172
202
153
169
199
163
179
209
157
173
203
149
165
195
141
157
187
142
158
188
148
164
194
146
162
192
158
174
204
173
189
219
162
178
208
150
166
196
157
173
203
151
167
197
144
160
190
146
162
192
146
162
192
147
163
193
154
170
200
155
171
201
152
168
198
155
171
201
152
168
198
146
162
192
144
160
190
142
158
188
132
148
178
138
154
184
141
157
187
153
169
199
158
174
204
165
181
211
160
176
206
143
159
189
141
157
187
143
159
189
156
172
202
167
183
213
161
177
207
142
158
188
130
146
176
139
155
185
140
156
186
145
161
191
142
158
188
152
168
198
149
165
195
150
166
196
163
179
209
162
178
208
155
171
201
140
156
186
143
159
189
151
167
197
140
156
186
140
156
186
152
168
198
142
158
188
134
150
180
137
153
183
150
166
196
158
174
204
154
170
200
144
160
190
152
168
198
160
176
206
154
170
200
154
170
200
139
155
185
148
164
194
140
156
186
