P3
# Created by GIMP version 2.10.36 PNM plug-in
16 16
255
211
178
40
213
180
42
219
186
48
214
181
43
216
183
45
213
180
42
223
190
52
215
182
44
216
183
45
212
179
41
203
170
32
215
182
44
215
182
44
216
183
45
212
179
41
218
185
47
220
187
49
205
172
34
209
176
38
215
182
44
215
182
44
211
178
40
218
185
47
216
183
45
215
182
44
213
180
42
213
180
42
205
172
34
204
171
33
204
171
33
207
174
36
215
182
44
216
183
45
215
182
44
209
176
38
215
182
44
207
174
36
207
174
36
210
177
39
209
176
38
212
179
41
205
172
34
209
176
38
212
179
41
207
174
36
202
169
31
197
164
26
214
181
43
216
183
45
212
179
41
203
170
32
213
180
42
213
180
42
213
180
42
204
171
33
200
167
29
212
179
41
212
179
41
202
169
31
206
173
35
209
176
38
208
175
37
200
167
29
214
181
43
214
181
43
213
180
42
212
179
41
204
171
33
203
170
32
209
176
38
203
170
32
203
170
32
216
183
45
215
182
44
205
172
34
204
171
33
196
163
25
201
168
30
213
180
42
214
181
43
214
181
43
205
172
34
207
174
36
211
178
40
205
172
34
203
170
32
207
174
36
224
191
53
227
194
56
235
202
64
232
199
61
224
191
53
213
180
42
208
175
37
210
177
39
207
174
36
218
185
47
216
183
45
201
168
30
202
169
31
205
172
34
202
169
31
199
166
28
224
191
53
255
203
65
241
208
70
252
219
81
247
214
76
226
193
55
220
187
49
222
189
51
214
181
43
225
192
54
220
187
49
208
175
37
205
172
34
199
166
28
200
167
29
206
173
35
198
165
27
215
182
44
238
205
67
241
208
70
253
220
82
252
219
81
227
194
56
217
184
46
225
192
54
230
197
59
228
195
57
230
197
59
221
188
50
223
190
52
213
180
42
209
176
38
207
174
36
202
169
31
206
173
35
220
187
49
232
199
61
255
222
84
234
201
63
225
192
54
239
206
68
232
199
61
254
221
83
237
204
66
227
194
56
230
197
59
225
192
54
223
190
52
217
184
46
211
178
40
206
173
35
207
174
36
212
179
41
218
185
47
216
183
45
224
191
53
238
205
67
224
191
53
225
192
54
242
209
71
234
201
63
218
185
47
219
186
48
227
194
56
227
194
56
215
182
44
212
179
41
211
178
40
205
172
34
201
168
30
199
166
28
202
169
31
224
191
53
217
184
46
224
191
53
247
214
76
230
197
59
221
188
50
219
186
48
215
182
44
216
183
45
217
184
46
214
181
43
224
191
53
218
185
47
210
177
39
202
169
31
203
170
32
209
176
38
207
174
36
219
186
48
234
201
63
223
190
52
211
178
40
218
185
47
212
179
41
205
172
34
207
174
36
207
174
36
208
175
37
215
182
44
216
183
45
213
180
42
216
183
45
213
180
42
207
174
36
205
172
34
203
170
32
193
160
22
199
166
28
202
169
31
214
181
43
219
186
48
226
193
55
221
188
50
204
171
33
202
169
31
204
171
33
217
184
46
228
195
57
222
189
51
203
170
32
191
158
20
200
167
29
201
168
30
206
173
35
203
170
32
213
180
42
210
177
39
211
178
40
224
191
53
223
190
52
216
183
45
201
168
30
204
171
33
212
179
41
201
168
30
201
168
30
213
180
42
203
170
32
195
162
24
198
165
27
211
178
40
219
186
48
215
182
44
205
172
34
213
180
42
221
188
50
215
182
44
215
182
44
200
167
29
209
176
38
201
168
30
