P3
# Created by GIMP version 2.10.30 PNM plug-in
16 16
255
86
192
225
105
211
244
86
192
225
52
158
191
52
158
191
95
201
234
95
201
234
95
201
234
105
211
244
95
201
234
74
180
213
46
152
185
74
180
213
105
211
244
105
211
244
105
211
244
105
211
244
105
211
244
105
211
244
21
127
160
52
158
191
52
158
191
105
211
244
95
201
234
95
201
234
74
180
213
46
152
185
74
180
213
46
152
185
95
201
234
95
201
234
74
180
213
105
211
244
105
211
244
105
211
244
29
135
168
74
180
213
52
158
191
105
211
244
105
211
244
74
180
213
46
152
185
74
180
213
78
184
217
74
180
213
95
201
234
74
180
213
105
211
244
78
184
217
78
184
217
105
211
244
74
180
213
52
158
191
46
152
185
105
211
244
74
180
213
74
180
213
74
180
213
78
184
217
74
180
213
95
201
234
74
180
213
46
152
185
46
152
185
52
158
191
46
152
185
78
184
217
74
180
213
21
127
160
52
158
191
95
201
234
105
211
244
33
139
172
78
184
217
52
158
191
95
201
234
52
158
191
74
180
213
105
211
244
86
192
225
52
158
191
46
152
185
78
184
217
78
184
217
74
180
213
52
158
191
52
158
191
95
201
234
29
135
168
52
158
191
21
127
160
52
158
191
74
180
213
95
201
234
95
201
234
86
192
225
52
158
191
52
158
191
21
127
160
105
211
244
52
158
191
105
211
244
52
158
191
29
135
168
52
158
191
21
127
160
52
158
191
95
201
234
78
184
217
78
184
217
105
211
244
86
192
225
78
184
217
78
184
217
52
158
191
21
127
160
52
158
191
52
158
191
74
180
213
52
158
191
52
158
191
52
158
191
95
201
234
78
184
217
46
152
185
46
152
185
46
152
185
86
192
225
105
211
244
105
211
244
78
184
217
78
184
217
52
158
191
21
127
160
74
180
213
74
180
213
52
158
191
52
158
191
46
152
185
33
139
172
46
152
185
46
152
185
46
152
185
46
152
185
105
211
244
105
211
244
78
184
217
78
184
217
21
127
160
46
152
185
74
180
213
21
127
160
52
158
191
29
135
168
29
135
168
95
201
234
95
201
234
86
192
225
33
139
172
46
152
185
105
211
244
78
184
217
46
152
185
21
127
160
46
152
185
105
211
244
95
201
234
29
135
168
105
211
244
29
135
168
21
127
160
78
184
217
95
201
234
86
192
225
46
152
185
86
192
225
78
184
217
78
184
217
21
127
160
74
180
213
46
152
185
105
211
244
95
201
234
46
152
185
105
211
244
78
184
217
21
127
160
52
158
191
78
184
217
95
201
234
86
192
225
86
192
225
105
211
244
74
180
213
74
180
213
74
180
213
74
180
213
95
201
234
46
152
185
105
211
244
105
211
244
105
211
244
78
184
217
46
152
185
52
158
191
78
184
217
95
201
234
86
192
225
105
211
244
74
180
213
105
211
244
105
211
244
95
201
234
74
180
213
74
180
213
95
201
234
86
192
225
95
201
234
78
184
217
78
184
217
52
158
191
46
152
185
78
184
217
86
192
225
74
180
213
105
211
244
105
211
244
95
201
234
95
201
234
86
192
225
86
192
225
74
180
213
105
211
244
105
211
244
95
201
234
78
184
217
52
158
191
95
201
234
78
184
217
86
192
225
86
192
225
86
192
225
86
192
225
86
192
225
86
192
225
86
192
225
46
152
185
86
192
225
86
192
225
86
192
225
86
192
225
78
184
217
78
184
217
105
211
244
86
192
225
86
192
225
