P3
# Created by GIMP version 2.10.30 PNM plug-in
16 16
255
236
142
43
255
161
62
236
142
43
202
108
9
202
108
9
245
151
52
245
151
52
245
151
52
255
161
62
245
151
52
224
130
31
196
102
3
224
130
31
255
161
62
255
161
62
255
161
62
255
161
62
255
161
62
255
161
62
171
77
-22
202
108
9
202
108
9
255
161
62
245
151
52
245
151
52
224
130
31
196
102
3
224
130
31
196
102
3
245
151
52
245
151
52
224
130
31
255
161
62
255
161
62
255
161
62
179
85
-14
224
130
31
202
108
9
255
161
62
255
161
62
224
130
31
196
102
3
224
130
31
228
134
35
224
130
31
245
151
52
224
130
31
255
161
62
228
134
35
228
134
35
255
161
62
224
130
31
202
108
9
196
102
3
255
161
62
224
130
31
224
130
31
224
130
31
228
134
35
224
130
31
245
151
52
224
130
31
196
102
3
196
102
3
202
108
9
196
102
3
228
134
35
224
130
31
171
77
-22
202
108
9
245
151
52
255
161
62
183
89
-10
228
134
35
202
108
9
245
151
52
202
108
9
224
130
31
255
161
62
236
142
43
202
108
9
196
102
3
228
134
35
228
134
35
224
130
31
202
108
9
202
108
9
245
151
52
179
85
-14
202
108
9
171
77
-22
202
108
9
224
130
31
245
151
52
245
151
52
236
142
43
202
108
9
202
108
9
171
77
-22
255
161
62
202
108
9
255
161
62
202
108
9
179
85
-14
202
108
9
171
77
-22
202
108
9
245
151
52
228
134
35
228
134
35
255
161
62
236
142
43
228
134
35
228
134
35
202
108
9
171
77
-22
202
108
9
202
108
9
224
130
31
202
108
9
202
108
9
202
108
9
245
151
52
228
134
35
196
102
3
196
102
3
196
102
3
236
142
43
255
161
62
255
161
62
228
134
35
228
134
35
202
108
9
171
77
-22
224
130
31
224
130
31
202
108
9
202
108
9
196
102
3
183
89
-10
196
102
3
196
102
3
196
102
3
196
102
3
255
161
62
255
161
62
228
134
35
228
134
35
171
77
-22
196
102
3
224
130
31
171
77
-22
202
108
9
179
85
-14
179
85
-14
245
151
52
245
151
52
236
142
43
183
89
-10
196
102
3
255
161
62
228
134
35
196
102
3
171
77
-22
196
102
3
255
161
62
245
151
52
179
85
-14
255
161
62
179
85
-14
171
77
-22
228
134
35
245
151
52
236
142
43
196
102
3
236
142
43
228
134
35
228
134
35
171
77
-22
224
130
31
196
102
3
255
161
62
245
151
52
196
102
3
255
161
62
228
134
35
171
77
-22
202
108
9
228
134
35
245
151
52
236
142
43
236
142
43
255
161
62
224
130
31
224
130
31
224
130
31
224
130
31
245
151
52
196
102
3
255
161
62
255
161
62
255
161
62
228
134
35
196
102
3
202
108
9
228
134
35
245
151
52
236
142
43
255
161
62
224
130
31
255
161
62
255
161
62
245
151
52
224
130
31
224
130
31
245
151
52
236
142
43
245
151
52
228
134
35
228
134
35
202
108
9
196
102
3
228
134
35
236
142
43
224
130
31
255
161
62
255
161
62
245
151
52
245
151
52
236
142
43
236
142
43
224
130
31
255
161
62
255
161
62
245
151
52
228
134
35
202
108
9
245
151
52
228
134
35
236
142
43
236
142
43
236
142
43
236
142
43
236
142
43
236
142
43
236
142
43
196
102
3
236
142
43
236
142
43
236
142
43
236
142
43
228
134
35
228
134
35
255
161
62
236
142
43
236
142
43
