P3
# Created by GIMP version 2.10.30 PNM plug-in
16 16
255
236
221
152
255
240
171
236
221
152
202
187
118
202
187
118
245
230
161
245
230
161
245
230
161
255
240
171
245
230
161
224
209
140
196
181
112
224
209
140
255
240
171
255
240
171
255
240
171
255
240
171
255
240
171
255
240
171
171
156
87
202
187
118
202
187
118
255
240
171
245
230
161
245
230
161
224
209
140
196
181
112
224
209
140
196
181
112
245
230
161
245
230
161
224
209
140
255
240
171
255
240
171
255
240
171
179
164
95
224
209
140
202
187
118
255
240
171
255
240
171
224
209
140
196
181
112
224
209
140
228
213
144
224
209
140
245
230
161
224
209
140
255
240
171
228
213
144
228
213
144
255
240
171
224
209
140
202
187
118
196
181
112
255
240
171
224
209
140
224
209
140
224
209
140
228
213
144
224
209
140
245
230
161
224
209
140
196
181
112
196
181
112
202
187
118
196
181
112
228
213
144
224
209
140
171
156
87
202
187
118
245
230
161
255
240
171
183
168
99
228
213
144
202
187
118
245
230
161
202
187
118
224
209
140
255
240
171
236
221
152
202
187
118
196
181
112
228
213
144
228
213
144
224
209
140
202
187
118
202
187
118
245
230
161
179
164
95
202
187
118
171
156
87
202
187
118
224
209
140
245
230
161
245
230
161
236
221
152
202
187
118
202
187
118
171
156
87
255
240
171
202
187
118
255
240
171
202
187
118
179
164
95
202
187
118
171
156
87
202
187
118
245
230
161
228
213
144
228
213
144
255
240
171
236
221
152
228
213
144
228
213
144
202
187
118
171
156
87
202
187
118
202
187
118
224
209
140
202
187
118
202
187
118
202
187
118
245
230
161
228
213
144
196
181
112
196
181
112
196
181
112
236
221
152
255
240
171
255
240
171
228
213
144
228
213
144
202
187
118
171
156
87
224
209
140
224
209
140
202
187
118
202
187
118
196
181
112
183
168
99
196
181
112
196
181
112
196
181
112
196
181
112
255
240
171
255
240
171
228
213
144
228
213
144
171
156
87
196
181
112
224
209
140
171
156
87
202
187
118
179
164
95
179
164
95
245
230
161
245
230
161
236
221
152
183
168
99
196
181
112
255
240
171
228
213
144
196
181
112
171
156
87
196
181
112
255
240
171
245
230
161
179
164
95
255
240
171
179
164
95
171
156
87
228
213
144
245
230
161
236
221
152
196
181
112
236
221
152
228
213
144
228
213
144
171
156
87
224
209
140
196
181
112
255
240
171
245
230
161
196
181
112
255
240
171
228
213
144
171
156
87
202
187
118
228
213
144
245
230
161
236
221
152
236
221
152
255
240
171
224
209
140
224
209
140
224
209
140
224
209
140
245
230
161
196
181
112
255
240
171
255
240
171
255
240
171
228
213
144
196
181
112
202
187
118
228
213
144
245
230
161
236
221
152
255
240
171
224
209
140
255
240
171
255
240
171
245
230
161
224
209
140
224
209
140
245
230
161
236
221
152
245
230
161
228
213
144
228
213
144
202
187
118
196
181
112
228
213
144
236
221
152
224
209
140
255
240
171
255
240
171
245
230
161
245
230
161
236
221
152
236
221
152
224
209
140
255
240
171
255
240
171
245
230
161
228
213
144
202
187
118
245
230
161
228
213
144
236
221
152
236
221
152
236
221
152
236
221
152
236
221
152
236
221
152
236
221
152
196
181
112
236
221
152
236
221
152
236
221
152
236
221
152
228
213
144
228
213
144
255
240
171
236
221
152
236
221
152
