P3
# Created by GIMP version 2.10.36 PNM plug-in
16 16
255
63
63
63
63
63
63
46
46
46
63
63
63
63
63
63
63
63
63
46
46
46
63
63
63
63
63
63
46
46
46
63
63
63
63
63
63
63
63
63
46
46
46
46
46
46
33
33
33
63
63
63
46
46
46
33
33
33
46
46
46
46
46
46
63
63
63
33
33
33
46
46
46
33
33
33
33
33
33
46
46
46
33
33
33
46
46
46
33
33
33
33
33
33
4
4
4
46
46
46
33
33
33
63
63
63
46
46
46
46
46
46
33
33
33
33
33
33
33
33
33
22
22
22
33
33
33
46
46
46
63
63
63
46
46
46
46
46
46
33
33
33
9
9
9
63
63
63
63
63
63
33
33
33
46
46
46
46
46
46
33
33
33
33
33
33
46
46
46
46
46
46
33
33
33
33
33
33
46
46
46
33
33
33
46
46
46
22
22
22
9
9
9
63
63
63
63
63
63
46
46
46
33
33
33
22
22
22
33
33
33
22
22
22
33
33
33
46
46
46
33
33
33
46
46
46
33
33
33
22
22
22
33
33
33
22
22
22
33
33
33
63
63
63
33
33
33
63
63
63
63
63
63
46
46
46
46
46
46
46
46
46
33
33
33
22
22
22
33
33
33
46
46
46
63
63
63
46
46
46
46
46
46
33
33
33
33
33
33
46
46
46
46
46
46
33
33
33
46
46
46
46
46
46
33
33
33
33
33
33
46
46
46
46
46
46
33
33
33
33
33
33
46
46
46
33
33
33
46
46
46
22
22
22
33
33
33
46
46
46
63
63
63
33
33
33
63
63
63
46
46
46
46
46
46
33
33
33
22
22
22
63
63
63
46
46
46
46
46
46
22
22
22
33
33
33
22
22
22
22
22
22
9
9
9
63
63
63
63
63
63
46
46
46
63
63
63
33
33
33
46
46
46
22
22
22
22
22
22
46
46
46
46
46
46
33
33
33
22
22
22
33
33
33
22
22
22
46
46
46
4
4
4
46
46
46
46
46
46
33
33
33
46
46
46
33
33
33
63
63
63
46
46
46
46
46
46
33
33
33
22
22
22
22
22
22
33
33
33
33
33
33
33
33
33
46
46
46
9
9
9
63
63
63
46
46
46
63
63
63
46
46
46
46
46
46
46
46
46
22
22
22
33
33
33
22
22
22
9
9
9
46
46
46
46
46
46
22
22
22
46
46
46
46
46
46
22
22
22
63
63
63
33
33
33
46
46
46
33
33
33
46
46
46
33
33
33
33
33
33
46
46
46
33
33
33
22
22
22
46
46
46
33
33
33
22
22
22
9
9
9
33
33
33
22
22
22
63
63
63
46
46
46
33
33
33
33
33
33
33
33
33
33
33
33
46
46
46
33
33
33
46
46
46
22
22
22
33
33
33
22
22
22
9
9
9
33
33
33
33
33
33
9
9
9
63
63
63
33
33
33
46
46
46
46
46
46
9
9
9
22
22
22
33
33
33
33
33
33
46
46
46
33
33
33
33
33
33
46
46
46
9
9
9
46
46
46
46
46
46
9
9
9
46
46
46
33
33
33
46
46
46
33
33
33
22
22
22
33
33
33
22
22
22
22
22
22
22
22
22
9
9
9
9
9
9
33
33
33
33
33
33
46
46
46
33
33
33
22
22
22
33
33
33
22
22
22
22
22
22
22
22
22
22
22
22
22
22
22
9
9
9
22
22
22
22
22
22
22
22
22
22
22
22
22
22
22
22
22
22
22
22
22
9
9
9
22
22
22
