P3
# Created by GIMP version 2.10.36 PNM plug-in
16 16
255
102
102
102
102
102
102
85
85
85
102
102
102
102
102
102
102
102
102
85
85
85
102
102
102
102
102
102
85
85
85
102
102
102
102
102
102
102
102
102
85
85
85
85
85
85
72
72
72
102
102
102
85
85
85
72
72
72
85
85
85
85
85
85
102
102
102
72
72
72
85
85
85
72
72
72
72
72
72
85
85
85
72
72
72
85
85
85
72
72
72
72
72
72
43
43
43
85
85
85
72
72
72
102
102
102
85
85
85
85
85
85
72
72
72
72
72
72
72
72
72
61
61
61
72
72
72
85
85
85
102
102
102
85
85
85
85
85
85
72
72
72
48
48
48
102
102
102
102
102
102
72
72
72
85
85
85
85
85
85
72
72
72
72
72
72
85
85
85
85
85
85
72
72
72
72
72
72
85
85
85
72
72
72
85
85
85
61
61
61
48
48
48
102
102
102
102
102
102
85
85
85
72
72
72
61
61
61
72
72
72
61
61
61
72
72
72
85
85
85
72
72
72
85
85
85
72
72
72
61
61
61
72
72
72
61
61
61
72
72
72
102
102
102
72
72
72
102
102
102
102
102
102
85
85
85
85
85
85
85
85
85
72
72
72
61
61
61
72
72
72
85
85
85
102
102
102
85
85
85
85
85
85
72
72
72
72
72
72
85
85
85
85
85
85
72
72
72
85
85
85
85
85
85
72
72
72
72
72
72
85
85
85
85
85
85
72
72
72
72
72
72
85
85
85
72
72
72
85
85
85
61
61
61
72
72
72
85
85
85
102
102
102
72
72
72
102
102
102
85
85
85
85
85
85
72
72
72
61
61
61
102
102
102
85
85
85
85
85
85
61
61
61
72
72
72
61
61
61
61
61
61
48
48
48
102
102
102
102
102
102
85
85
85
102
102
102
72
72
72
85
85
85
61
61
61
61
61
61
85
85
85
85
85
85
72
72
72
61
61
61
72
72
72
61
61
61
85
85
85
43
43
43
85
85
85
85
85
85
72
72
72
85
85
85
72
72
72
102
102
102
85
85
85
85
85
85
72
72
72
61
61
61
61
61
61
72
72
72
72
72
72
72
72
72
85
85
85
48
48
48
102
102
102
85
85
85
102
102
102
85
85
85
85
85
85
85
85
85
61
61
61
72
72
72
61
61
61
48
48
48
85
85
85
85
85
85
61
61
61
85
85
85
85
85
85
61
61
61
102
102
102
72
72
72
85
85
85
72
72
72
85
85
85
72
72
72
72
72
72
85
85
85
72
72
72
61
61
61
85
85
85
72
72
72
61
61
61
48
48
48
72
72
72
61
61
61
102
102
102
85
85
85
72
72
72
72
72
72
72
72
72
72
72
72
85
85
85
72
72
72
85
85
85
61
61
61
72
72
72
61
61
61
48
48
48
72
72
72
72
72
72
48
48
48
102
102
102
72
72
72
85
85
85
85
85
85
48
48
48
61
61
61
72
72
72
72
72
72
85
85
85
72
72
72
72
72
72
85
85
85
48
48
48
85
85
85
85
85
85
48
48
48
85
85
85
72
72
72
85
85
85
72
72
72
61
61
61
72
72
72
61
61
61
61
61
61
61
61
61
48
48
48
48
48
48
72
72
72
72
72
72
85
85
85
72
72
72
61
61
61
72
72
72
61
61
61
61
61
61
61
61
61
61
61
61
61
61
61
48
48
48
61
61
61
61
61
61
61
61
61
61
61
61
61
61
61
61
61
61
61
61
61
48
48
48
61
61
61
