P3
# Created by GIMP version 2.10.36 PNM plug-in
16 16
255
46
46
46
76
76
76
76
76
76
17
17
17
76
76
76
76
76
76
59
59
59
76
76
76
76
76
76
59
59
59
76
76
76
76
76
76
59
59
59
59
59
59
46
46
46
17
17
17
46
46
46
59
59
59
46
46
46
26
26
26
46
46
46
76
76
76
59
59
59
59
59
59
46
46
46
35
35
35
26
26
26
46
46
46
46
46
46
46
46
46
59
59
59
17
17
17
46
46
46
59
59
59
76
76
76
76
76
76
26
26
26
26
26
26
35
35
35
46
46
46
35
35
35
35
35
35
46
46
46
26
26
26
59
59
59
26
26
26
59
59
59
17
17
17
59
59
59
26
26
26
59
59
59
46
46
46
76
76
76
46
46
46
59
59
59
59
59
59
59
59
59
46
46
46
46
46
46
17
17
17
17
17
17
26
26
26
46
46
46
17
17
17
17
17
17
35
35
35
35
35
35
46
46
46
46
46
46
46
46
46
59
59
59
35
35
35
59
59
59
35
35
35
17
17
17
59
59
59
59
59
59
46
46
46
46
46
46
17
17
17
35
35
35
35
35
35
46
46
46
46
46
46
35
35
35
35
35
35
35
35
35
46
46
46
46
46
46
26
26
26
35
35
35
46
46
46
35
35
35
26
26
26
35
35
35
17
17
17
35
35
35
26
26
26
26
26
26
35
35
35
17
17
17
26
26
26
35
35
35
46
46
46
35
35
35
26
26
26
26
26
26
35
35
35
26
26
26
26
26
26
26
26
26
17
17
17
26
26
26
26
26
26
17
17
17
17
17
17
26
26
26
26
26
26
17
17
17
17
17
17
17
17
17
17
17
17
26
26
26
17
17
17
26
26
26
17
17
17
17
17
17
26
26
26
46
46
46
26
26
26
46
46
46
17
17
17
46
46
46
46
46
46
35
35
35
17
17
17
26
26
26
46
46
46
59
59
59
35
35
35
76
76
76
76
76
76
59
59
59
76
76
76
46
46
46
35
35
35
59
59
59
26
26
26
46
46
46
35
35
35
35
35
35
17
17
17
35
35
35
59
59
59
35
35
35
59
59
59
59
59
59
76
76
76
59
59
59
46
46
46
35
35
35
46
46
46
59
59
59
76
76
76
26
26
26
46
46
46
35
35
35
17
17
17
17
17
17
59
59
59
59
59
59
76
76
76
59
59
59
59
59
59
46
46
46
46
46
46
59
59
59
59
59
59
46
46
46
59
59
59
26
26
26
46
46
46
46
46
46
17
17
17
76
76
76
76
76
76
46
46
46
59
59
59
59
59
59
26
26
26
59
59
59
59
59
59
46
46
46
17
17
17
35
35
35
46
46
46
59
59
59
26
26
26
17
17
17
17
17
17
59
59
59
76
76
76
59
59
59
46
46
46
26
26
26
76
76
76
59
59
59
17
17
17
35
35
35
17
17
17
35
35
35
35
35
35
35
35
35
46
46
46
35
35
35
17
17
17
59
59
59
59
59
59
46
46
46
46
46
46
17
17
17
46
46
46
26
26
26
46
46
46
35
35
35
26
26
26
17
17
17
26
26
26
26
26
26
26
26
26
26
26
26
17
17
17
35
35
35
26
26
26
26
26
26
26
26
26
17
17
17
26
26
26
26
26
26
26
26
26
17
17
17
17
17
17
17
17
17
26
26
26
26
26
26
17
17
17
17
17
17
17
17
17
17
17
17
17
17
17
26
26
26
17
17
17
26
26
26
26
26
26
17
17
17
17
17
17
