P3
# Created by GIMP version 2.10.36 PNM plug-in
16 16
255
76
76
76
76
76
76
59
59
59
76
76
76
76
76
76
76
76
76
59
59
59
76
76
76
76
76
76
59
59
59
76
76
76
76
76
76
76
76
76
59
59
59
59
59
59
46
46
46
76
76
76
59
59
59
46
46
46
59
59
59
59
59
59
76
76
76
46
46
46
59
59
59
46
46
46
46
46
46
59
59
59
46
46
46
59
59
59
46
46
46
46
46
46
17
17
17
59
59
59
46
46
46
76
76
76
59
59
59
59
59
59
46
46
46
46
46
46
46
46
46
35
35
35
46
46
46
59
59
59
76
76
76
59
59
59
59
59
59
46
46
46
22
22
22
76
76
76
76
76
76
46
46
46
59
59
59
59
59
59
46
46
46
46
46
46
59
59
59
59
59
59
46
46
46
46
46
46
59
59
59
46
46
46
59
59
59
35
35
35
22
22
22
76
76
76
76
76
76
59
59
59
46
46
46
35
35
35
46
46
46
35
35
35
46
46
46
59
59
59
46
46
46
59
59
59
46
46
46
35
35
35
46
46
46
35
35
35
46
46
46
76
76
76
46
46
46
76
76
76
76
76
76
59
59
59
59
59
59
59
59
59
46
46
46
35
35
35
46
46
46
59
59
59
76
76
76
59
59
59
59
59
59
46
46
46
46
46
46
59
59
59
59
59
59
46
46
46
59
59
59
59
59
59
46
46
46
46
46
46
59
59
59
59
59
59
46
46
46
46
46
46
59
59
59
46
46
46
59
59
59
35
35
35
46
46
46
59
59
59
76
76
76
46
46
46
76
76
76
59
59
59
59
59
59
46
46
46
35
35
35
76
76
76
59
59
59
59
59
59
35
35
35
46
46
46
35
35
35
35
35
35
22
22
22
76
76
76
76
76
76
59
59
59
76
76
76
46
46
46
59
59
59
35
35
35
35
35
35
59
59
59
59
59
59
46
46
46
35
35
35
46
46
46
35
35
35
59
59
59
17
17
17
59
59
59
59
59
59
46
46
46
59
59
59
46
46
46
76
76
76
59
59
59
59
59
59
46
46
46
35
35
35
35
35
35
46
46
46
46
46
46
46
46
46
59
59
59
22
22
22
76
76
76
59
59
59
76
76
76
59
59
59
59
59
59
59
59
59
35
35
35
46
46
46
35
35
35
22
22
22
59
59
59
59
59
59
35
35
35
59
59
59
59
59
59
35
35
35
76
76
76
46
46
46
59
59
59
46
46
46
59
59
59
46
46
46
46
46
46
59
59
59
46
46
46
35
35
35
59
59
59
46
46
46
35
35
35
22
22
22
46
46
46
35
35
35
76
76
76
59
59
59
46
46
46
46
46
46
46
46
46
46
46
46
59
59
59
46
46
46
59
59
59
35
35
35
46
46
46
35
35
35
22
22
22
46
46
46
46
46
46
22
22
22
76
76
76
46
46
46
59
59
59
59
59
59
22
22
22
35
35
35
46
46
46
46
46
46
59
59
59
46
46
46
46
46
46
59
59
59
22
22
22
59
59
59
59
59
59
22
22
22
59
59
59
46
46
46
59
59
59
46
46
46
35
35
35
46
46
46
35
35
35
35
35
35
35
35
35
22
22
22
22
22
22
46
46
46
46
46
46
59
59
59
46
46
46
35
35
35
46
46
46
35
35
35
35
35
35
35
35
35
35
35
35
35
35
35
22
22
22
35
35
35
35
35
35
35
35
35
35
35
35
35
35
35
35
35
35
35
35
35
22
22
22
35
35
35
