P3
# Created by GIMP version 2.10.36 PNM plug-in
16 16
255
63
63
63
63
63
63
46
46
46
63
63
63
63
63
63
63
63
63
46
46
46
63
63
63
63
63
63
46
46
46
63
63
63
63
63
63
63
63
63
46
46
46
46
46
46
72
72
72
63
63
63
59
59
59
46
46
46
59
59
59
59
59
59
76
76
76
46
46
46
59
59
59
46
46
46
46
46
46
59
59
59
46
46
46
59
59
59
46
46
46
46
46
46
43
43
43
46
46
46
46
46
46
76
76
76
59
59
59
59
59
59
46
46
46
46
46
46
46
46
46
35
35
35
46
46
46
59
59
59
76
76
76
59
59
59
59
59
59
46
46
46
48
48
48
63
63
63
76
76
76
46
46
46
59
59
59
59
59
59
46
46
46
46
46
46
59
59
59
59
59
59
46
46
46
46
46
46
59
59
59
46
46
46
59
59
59
35
35
35
48
48
48
63
63
63
76
76
76
59
59
59
46
46
46
35
35
35
46
46
46
35
35
35
46
46
46
59
59
59
46
46
46
59
59
59
46
46
46
35
35
35
46
46
46
35
35
35
72
72
72
63
63
63
46
46
46
76
76
76
76
76
76
59
59
59
59
59
59
59
59
59
46
46
46
35
35
35
46
46
46
59
59
59
76
76
76
59
59
59
59
59
59
46
46
46
72
72
72
46
46
46
59
59
59
46
46
46
59
59
59
59
59
59
46
46
46
46
46
46
59
59
59
59
59
59
46
46
46
46
46
46
59
59
59
46
46
46
59
59
59
35
35
35
72
72
72
46
46
46
76
76
76
46
46
46
76
76
76
59
59
59
59
59
59
46
46
46
35
35
35
76
76
76
59
59
59
59
59
59
35
35
35
46
46
46
35
35
35
35
35
35
48
48
48
63
63
63
76
76
76
59
59
59
76
76
76
46
46
46
59
59
59
35
35
35
35
35
35
59
59
59
59
59
59
46
46
46
35
35
35
46
46
46
35
35
35
59
59
59
43
43
43
46
46
46
59
59
59
46
46
46
59
59
59
46
46
46
76
76
76
59
59
59
59
59
59
46
46
46
35
35
35
35
35
35
46
46
46
46
46
46
46
46
46
59
59
59
48
48
48
63
63
63
59
59
59
76
76
76
59
59
59
59
59
59
59
59
59
35
35
35
46
46
46
35
35
35
22
22
22
59
59
59
59
59
59
35
35
35
59
59
59
59
59
59
61
61
61
63
63
63
46
46
46
59
59
59
46
46
46
59
59
59
46
46
46
46
46
46
59
59
59
46
46
46
35
35
35
59
59
59
46
46
46
35
35
35
22
22
22
46
46
46
61
61
61
63
63
63
59
59
59
46
46
46
46
46
46
46
46
46
46
46
46
59
59
59
46
46
46
59
59
59
35
35
35
46
46
46
35
35
35
22
22
22
46
46
46
46
46
46
48
48
48
63
63
63
46
46
46
59
59
59
59
59
59
22
22
22
35
35
35
46
46
46
46
46
46
59
59
59
46
46
46
46
46
46
59
59
59
22
22
22
59
59
59
59
59
59
48
48
48
46
46
46
46
46
46
59
59
59
46
46
46
35
35
35
46
46
46
35
35
35
35
35
35
35
35
35
22
22
22
22
22
22
46
46
46
46
46
46
59
59
59
46
46
46
61
61
61
33
33
33
61
61
61
61
61
61
61
61
61
61
61
61
61
61
61
48
48
48
61
61
61
61
61
61
61
61
61
61
61
61
61
61
61
61
61
61
61
61
61
48
48
48
61
61
61
