P3
# Created by GIMP version 2.10.36 PNM plug-in
16 16
255
210
210
210
210
210
210
210
210
210
210
210
210
210
210
210
210
210
210
210
210
210
210
210
210
210
210
210
210
210
210
210
210
210
210
210
210
210
210
210
210
210
210
210
210
210
210
210
210
210
210
210
210
210
210
210
210
210
210
210
210
210
210
210
234
234
234
210
210
210
201
201
201
232
232
232
210
210
210
210
210
210
210
210
210
210
210
210
210
210
210
210
210
210
210
210
210
210
210
210
210
210
210
210
210
210
222
222
222
210
210
210
192
192
192
210
210
210
218
218
218
205
205
205
210
210
210
209
209
209
210
210
210
210
210
210
210
210
210
210
210
210
210
210
210
210
210
210
210
210
210
210
210
210
210
210
210
199
199
199
210
210
210
225
225
225
210
210
210
223
223
223
215
215
215
192
192
192
210
210
210
210
210
210
210
210
210
210
210
210
210
210
210
210
210
210
210
210
210
210
210
210
210
210
210
230
230
230
210
210
210
221
221
221
210
210
210
230
230
230
225
225
225
210
210
210
188
188
188
210
210
210
227
227
227
173
173
173
210
210
210
210
210
210
210
210
210
210
210
210
210
210
210
210
210
210
230
230
230
210
210
210
210
210
210
210
210
210
210
210
210
226
226
226
192
192
192
210
210
210
210
210
210
210
210
210
230
230
230
210
210
210
210
210
210
210
210
210
210
210
210
210
210
210
210
210
210
210
210
210
210
210
210
210
210
210
210
210
210
210
210
210
210
210
210
210
210
210
210
210
210
210
210
210
214
214
214
210
210
210
210
210
210
210
210
210
210
210
210
229
229
229
210
210
210
182
182
182
222
222
222
210
210
210
210
210
210
210
210
210
227
227
227
223
223
223
210
210
210
210
210
210
210
210
210
210
210
210
210
210
210
211
211
211
210
210
210
179
179
179
210
210
210
211
211
211
194
194
194
210
210
210
194
194
194
210
210
210
210
210
210
210
210
210
210
210
210
210
210
210
210
210
210
210
210
210
210
210
210
210
210
210
203
203
203
210
210
210
210
210
210
210
210
210
210
210
210
210
210
210
177
177
177
210
210
210
210
210
210
210
210
210
160
160
160
210
210
210
210
210
210
210
210
210
210
210
210
210
210
210
210
210
210
210
210
210
210
210
210
210
210
210
210
210
210
210
210
210
210
210
210
173
173
173
210
210
210
210
210
210
173
173
173
210
210
210
210
210
210
210
210
210
210
210
210
210
210
210
210
210
210
210
210
210
210
210
210
210
210
210
210
210
210
210
210
210
210
210
210
187
187
187
210
210
210
210
210
210
210
210
210
210
210
210
210
210
210
210
210
210
210
210
210
210
210
210
210
210
210
210
210
210
210
210
210
210
210
210
210
210
210
210
210
210
210
210
210
210
210
210
210
210
210
210
210
210
210
210
210
210
210
210
210
210
210
210
210
210
210
210
210
210
210
210
210
210
210
210
210
210
210
210
210
210
210
210
210
210
210
210
210
210
210
210
210
210
210
210
210
210
210
210
210
210
210
210
210
210
210
210
210
210
210
210
210
210
210
210
210
210
210
210
210
210
210
210
210
210
210
210
210
210
210
210
210
210
210
210
210
210
210
210
210
210
210
210
210
210
210
210
210
210
210
210
210
210
210
210
210
210
210
210
210
210
210
210
210
210
210
210
210
210
210
210
210
210
210
210
210
210
210
210
210
210
210
210
210
210
210
210
210
210
210
210
210
210
210
210
210
210
210
210
210
210
210
210
210
210
210
