P2
# Created by GIMP version 2.10.36 PNM plug-in
16 16
255
155
154
154
153
155
155
154
154
153
155
153
154
155
153
155
108
155
123
124
124
125
124
124
124
123
123
124
123
123
125
125
96
153
125
125
124
124
124
125
124
124
124
125
123
124
125
123
96
155
124
125
95
95
95
96
96
95
95
96
95
110
123
125
95
154
123
125
94
124
124
123
123
124
124
124
123
153
124
124
95
155
123
125
95
123
123
123
124
124
124
124
125
154
124
124
96
154
125
123
94
123
123
124
124
124
124
124
124
155
123
125
95
155
124
124
95
125
124
124
123
125
124
124
123
154
123
124
95
154
124
125
95
124
124
123
124
125
125
123
124
154
124
125
94
153
123
124
96
125
124
124
123
124
124
124
125
155
125
124
96
155
125
123
95
124
125
124
124
125
124
125
125
154
123
125
95
153
125
123
95
125
124
124
125
123
125
125
124
153
124
123
94
153
123
123
109
154
155
155
153
154
155
154
153
155
123
124
96
154
123
125
123
125
123
124
123
124
124
124
124
123
125
123
95
153
124
124
124
123
124
125
124
125
124
124
125
125
124
123
95
108
95
95
95
95
94
96
95
95
95
95
94
96
95
95
96
