P2
# Created by GIMP version 2.10.36 PNM plug-in
16 16
255
149
148
148
147
149
149
110
112
147
149
147
148
149
147
149
111
149
123
124
124
125
95
95
85
108
123
124
123
123
125
125
102
147
125
125
124
95
105
141
144
126
95
102
123
124
111
114
102
98
113
125
95
101
101
149
125
124
124
125
101
104
119
148
101
148
145
106
104
148
148
123
123
124
124
124
108
143
124
124
101
149
123
106
148
123
123
123
124
124
124
124
102
124
124
124
102
135
105
104
150
123
107
108
108
142
124
110
117
157
123
125
101
113
99
99
101
102
101
101
100
102
101
101
100
101
100
101
101
148
110
149
148
148
148
147
112
81
149
147
116
109
148
149
147
123
104
144
125
125
124
124
100
158
124
101
145
149
125
124
125
125
125
104
109
124
125
124
101
149
101
102
125
124
123
125
124
123
125
143
95
125
124
124
102
106
96
153
109
123
124
123
123
123
123
123
95
124
125
125
100
148
149
124
123
106
123
124
125
124
123
125
104
125
123
124
100
148
124
124
124
123
106
94
124
123
119
119
112
113
151
125
101
149
124
124
125
125
124
114
115
100
101
101
98
98
100
102
101
112
101
101
100
102
101
101
100
