P3
# Created by GIMP version 2.10.36 PNM plug-in
16 16
255
195
195
195
191
191
191
169
169
169
169
169
169
169
169
169
155
155
155
155
155
155
169
169
169
169
169
169
178
178
178
191
191
191
191
191
191
178
178
178
191
191
191
178
178
178
178
178
178
169
169
169
178
178
178
191
191
191
195
195
195
195
195
195
191
191
191
195
195
195
195
195
195
191
191
191
191
191
191
191
191
191
178
178
178
178
178
178
169
169
169
155
155
155
155
155
155
195
195
195
195
195
195
191
191
191
195
195
195
195
195
195
195
195
195
195
195
195
195
195
195
195
195
195
195
195
195
195
195
195
195
195
195
195
195
195
195
195
195
178
178
178
195
195
195
195
195
195
191
191
191
195
195
195
195
195
195
178
178
178
191
191
191
195
195
195
191
191
191
191
191
191
195
195
195
195
195
195
195
195
195
191
191
191
195
195
195
191
191
191
191
191
191
155
155
155
155
155
155
155
155
155
169
169
169
155
155
155
155
155
155
155
155
155
155
155
155
191
191
191
191
191
191
191
191
191
195
195
195
191
191
191
155
155
155
155
155
155
155
155
155
169
169
169
169
169
169
169
169
169
169
169
169
169
169
169
169
169
169
155
155
155
155
155
155
155
155
155
155
155
155
155
155
155
169
169
169
169
169
169
169
169
169
169
169
169
155
155
155
178
178
178
169
169
169
178
178
178
178
178
178
178
178
178
178
178
178
178
178
178
169
169
169
169
169
169
169
169
169
169
169
169
169
169
169
169
169
169
178
178
178
169
169
169
169
169
169
178
178
178
191
191
191
178
178
178
195
195
195
195
195
195
195
195
195
191
191
191
195
195
195
169
169
169
178
178
178
178
178
178
169
169
169
169
169
169
169
169
169
178
178
178
178
178
178
195
195
195
191
191
191
195
195
195
195
195
195
195
195
195
195
195
195
195
195
195
195
195
195
195
195
195
195
195
195
191
191
191
191
191
191
178
178
178
178
178
178
178
178
178
178
178
178
191
191
191
191
191
191
195
195
195
191
191
191
191
191
191
195
195
195
191
191
191
191
191
191
178
178
178
191
191
191
195
195
195
195
195
195
195
195
195
195
195
195
195
195
195
195
195
195
191
191
191
178
178
178
191
191
191
191
191
191
191
191
191
191
191
191
191
191
191
178
178
178
169
169
169
191
191
191
195
195
195
195
195
195
191
191
191
195
195
195
191
191
191
191
191
191
191
191
191
155
155
155
155
155
155
169
169
169
169
169
169
155
155
155
155
155
155
155
155
155
169
169
169
169
169
169
191
191
191
191
191
191
178
178
178
191
191
191
191
191
191
178
178
178
155
155
155
155
155
155
169
169
169
169
169
169
178
178
178
178
178
178
169
169
169
155
155
155
169
169
169
178
178
178
155
155
155
155
155
155
169
169
169
169
169
169
155
155
155
155
155
155
169
169
169
169
169
169
169
169
169
178
178
178
195
195
195
195
195
195
195
195
195
178
178
178
178
178
178
169
169
169
169
169
169
178
178
178
191
191
191
195
195
195
178
178
178
155
155
155
195
195
195
195
195
195
191
191
191
195
195
195
195
195
195
191
191
191
195
195
195
195
195
195
191
191
191
178
178
178
178
178
178
191
191
191
195
195
195
195
195
195
195
195
195
195
195
195
191
191
191
178
178
178
169
169
169
155
155
155
155
155
155
178
178
178
191
191
191
191
191
191
195
195
195
195
195
195
191
191
191
195
195
195
195
195
195
191
191
191
178
178
178
178
178
178
