P3
# Created by GIMP version 2.10.36 PNM plug-in
16 16
65535
50023
50023
50023
49539
49539
49539
46825
46825
46825
46825
46825
46825
46825
46825
46825
45341
45341
45341
45341
45341
45341
46825
46825
46825
46825
46825
46825
47953
47953
47953
49539
49539
49539
49539
49539
49539
47953
47953
47953
49539
49539
49539
47953
47953
47953
47953
47953
47953
46825
46825
46825
47953
47953
47953
49539
49539
49539
50023
50023
50023
50023
50023
50023
49539
49539
49539
50023
50023
50023
50023
50023
50023
49539
49539
49539
49539
49539
49539
49539
49539
49539
47953
47953
47953
47953
47953
47953
46825
46825
46825
45341
45341
45341
45341
45341
45341
50023
50023
50023
50023
50023
50023
49539
49539
49539
50023
50023
50023
50023
50023
50023
50023
50023
50023
50023
50023
50023
50023
50023
50023
50023
50023
50023
50023
50023
50023
50023
50023
50023
50023
50023
50023
50023
50023
50023
50023
50023
50023
47953
47953
47953
50023
50023
50023
50023
50023
50023
49539
49539
49539
50023
50023
50023
50023
50023
50023
47953
47953
47953
49539
49539
49539
50023
50023
50023
49539
49539
49539
49539
49539
49539
50023
50023
50023
50023
50023
50023
50023
50023
50023
49539
49539
49539
50023
50023
50023
49539
49539
49539
49539
49539
49539
45341
45341
45341
45341
45341
45341
45341
45341
45341
46825
46825
46825
45341
45341
45341
45341
45341
45341
45341
45341
45341
45341
45341
45341
49539
49539
49539
49539
49539
49539
49539
49539
49539
50023
50023
50023
49539
49539
49539
45341
45341
45341
45341
45341
45341
45341
45341
45341
46825
46825
46825
46825
46825
46825
46825
46825
46825
46825
46825
46825
46825
46825
46825
46825
46825
46825
45341
45341
45341
45341
45341
45341
45341
45341
45341
45341
45341
45341
45341
45341
45341
46825
46825
46825
46825
46825
46825
46825
46825
46825
46825
46825
46825
45341
45341
45341
47953
47953
47953
46825
46825
46825
47953
47953
47953
47953
47953
47953
47953
47953
47953
47953
47953
47953
47953
47953
47953
46825
46825
46825
46825
46825
46825
46825
46825
46825
46825
46825
46825
46825
46825
46825
46825
46825
46825
47953
47953
47953
46825
46825
46825
46825
46825
46825
47953
47953
47953
49539
49539
49539
47953
47953
47953
50023
50023
50023
50023
50023
50023
50023
50023
50023
49539
49539
49539
50023
50023
50023
46825
46825
46825
47953
47953
47953
47953
47953
47953
46825
46825
46825
46825
46825
46825
46825
46825
46825
47953
47953
47953
47953
47953
47953
50023
50023
50023
49539
49539
49539
50023
50023
50023
50023
50023
50023
50023
50023
50023
50023
50023
50023
50023
50023
50023
50023
50023
50023
50023
50023
50023
50023
50023
50023
49539
49539
49539
49539
49539
49539
47953
47953
47953
47953
47953
47953
47953
47953
47953
47953
47953
47953
49539
49539
49539
49539
49539
49539
50023
50023
50023
49539
49539
49539
49539
49539
49539
50023
50023
50023
49539
49539
49539
49539
49539
49539
47953
47953
47953
49539
49539
49539
50023
50023
50023
50023
50023
50023
50023
50023
50023
50023
50023
50023
50023
50023
50023
50023
50023
50023
49539
49539
49539
47953
47953
47953
49539
49539
49539
49539
49539
49539
49539
49539
49539
49539
49539
49539
49539
49539
49539
47953
47953
47953
46825
46825
46825
49539
49539
49539
50023
50023
50023
50023
50023
50023
49539
49539
49539
50023
50023
50023
49539
49539
49539
49539
49539
49539
49539
49539
49539
45341
45341
45341
45341
45341
45341
46825
46825
46825
46825
46825
46825
45341
45341
45341
45341
45341
45341
45341
45341
45341
46825
46825
46825
46825
46825
46825
49539
49539
49539
49539
49539
49539
47953
47953
47953
49539
49539
49539
49539
49539
49539
47953
47953
47953
45341
45341
45341
45341
45341
45341
46825
46825
46825
46825
46825
46825
47953
47953
47953
47953
47953
47953
46825
46825
46825
45341
45341
45341
46825
46825
46825
47953
47953
47953
45341
45341
45341
45341
45341
45341
46825
46825
46825
46825
46825
46825
45341
45341
45341
45341
45341
45341
46825
46825
46825
46825
46825
46825
46825
46825
46825
47953
47953
47953
50023
50023
50023
50023
50023
50023
50023
50023
50023
47953
47953
47953
47953
47953
47953
46825
46825
46825
46825
46825
46825
47953
47953
47953
49539
49539
49539
50023
50023
50023
47953
47953
47953
45341
45341
45341
50023
50023
50023
50023
50023
50023
49539
49539
49539
50023
50023
50023
50023
50023
50023
49539
49539
49539
50023
50023
50023
50023
50023
50023
49539
49539
49539
47953
47953
47953
47953
47953
47953
49539
49539
49539
50023
50023
50023
50023
50023
50023
50023
50023
50023
50023
50023
50023
49539
49539
49539
47953
47953
47953
46825
46825
46825
45341
45341
45341
45341
45341
45341
47953
47953
47953
49539
49539
49539
49539
49539
49539
50023
50023
50023
50023
50023
50023
49539
49539
49539
50023
50023
50023
50023
50023
50023
49539
49539
49539
47953
47953
47953
47953
47953
47953
