P3
# Created by GIMP version 2.10.30 PNM plug-in
16 16
255
79
81
86
40
42
47
40
42
47
85
87
92
85
87
92
85
87
92
63
65
70
32
34
39
32
34
39
79
81
86
79
81
86
66
68
73
35
37
42
35
37
42
73
75
80
73
75
80
79
81
86
40
42
47
26
28
33
40
42
47
82
84
89
85
87
92
58
60
65
32
34
39
54
56
61
75
77
82
75
77
82
35
37
42
35
37
42
35
37
42
50
52
57
73
75
80
79
81
86
26
28
33
40
42
47
26
28
33
82
84
89
75
77
82
46
48
53
34
36
41
32
34
39
75
77
82
79
81
86
35
37
42
10
12
17
35
37
42
35
37
42
73
75
80
40
42
47
0
2
7
26
28
33
21
23
28
82
84
89
75
77
82
51
53
58
13
15
20
32
34
39
75
77
82
75
77
82
35
37
42
6
8
13
35
37
42
35
37
42
77
79
84
40
42
47
26
28
33
1
3
8
21
23
28
82
84
89
75
77
82
81
83
88
13
15
20
13
15
20
75
77
82
75
77
82
22
24
29
6
8
13
35
37
42
77
79
84
79
81
86
40
42
47
1
3
8
1
3
8
1
3
8
40
42
47
75
77
82
47
49
54
8
10
15
13
15
20
75
77
82
75
77
82
13
15
20
6
8
13
0
2
7
75
77
82
85
87
92
40
42
47
1
3
8
1
3
8
1
3
8
40
42
47
75
77
82
47
49
54
1
3
8
1
3
8
35
37
42
75
77
82
13
15
20
6
8
13
0
2
7
75
77
82
85
87
92
40
42
47
21
23
28
1
3
8
1
3
8
44
46
51
85
87
92
81
83
88
1
3
8
1
3
8
35
37
42
75
77
82
13
15
20
13
15
20
0
2
7
50
52
57
85
87
92
40
42
47
21
23
28
1
3
8
21
23
28
50
52
57
85
87
92
81
83
88
1
3
8
1
3
8
75
77
82
85
87
92
13
15
20
13
15
20
0
2
7
50
52
57
85
87
92
47
49
54
21
23
28
1
3
8
21
23
28
82
84
89
85
87
92
81
83
88
8
10
15
1
3
8
75
77
82
85
87
92
22
24
29
13
15
20
0
2
7
63
65
70
85
87
92
47
49
54
21
23
28
21
23
28
21
23
28
75
77
82
85
87
92
81
83
88
8
10
15
1
3
8
85
87
92
75
77
82
22
24
29
13
15
20
0
2
7
63
65
70
85
87
92
47
49
54
21
23
28
1
3
8
21
23
28
75
77
82
85
87
92
44
46
51
8
10
15
1
3
8
35
37
42
75
77
82
35
37
42
13
15
20
0
2
7
75
77
82
85
87
92
58
60
65
21
23
28
1
3
8
21
23
28
75
77
82
82
84
89
40
42
47
8
10
15
26
28
33
40
42
47
75
77
82
35
37
42
0
2
7
35
37
42
75
77
82
85
87
92
58
60
65
21
23
28
21
23
28
40
42
47
75
77
82
85
87
92
65
67
72
40
42
47
26
28
33
68
70
75
69
71
76
35
37
42
35
37
42
35
37
42
69
71
76
60
62
67
58
60
65
40
42
47
40
42
47
40
42
47
85
87
92
75
77
82
82
84
89
32
34
39
26
28
33
59
61
66
50
52
57
40
42
47
35
37
42
35
37
42
60
62
67
85
87
92
79
81
86
40
42
47
40
42
47
75
77
82
85
87
92
85
87
92
58
60
65
32
34
39
32
34
39
55
57
62
75
77
82
53
55
60
35
37
42
60
62
67
71
73
78
79
81
86
