P3
# Created by GIMP version 2.10.30 PNM plug-in
16 16
255
134
156
79
95
117
40
95
117
40
140
162
85
140
162
85
140
162
85
118
140
63
87
109
32
87
109
32
134
156
79
134
156
79
121
143
66
90
112
35
90
112
35
128
150
73
128
150
73
134
156
79
95
117
40
81
103
26
95
117
40
137
159
82
140
162
85
113
135
58
87
109
32
109
131
54
130
152
75
130
152
75
90
112
35
90
112
35
90
112
35
105
127
50
128
150
73
134
156
79
81
103
26
95
117
40
81
103
26
137
159
82
130
152
75
101
123
46
89
111
34
87
109
32
130
152
75
134
156
79
90
112
35
65
87
10
90
112
35
90
112
35
128
150
73
95
117
40
55
77
0
81
103
26
76
98
21
137
159
82
130
152
75
106
128
51
68
90
13
87
109
32
130
152
75
130
152
75
90
112
35
61
83
6
90
112
35
90
112
35
132
154
77
95
117
40
81
103
26
56
78
1
76
98
21
137
159
82
130
152
75
136
158
81
68
90
13
68
90
13
130
152
75
130
152
75
77
99
22
61
83
6
90
112
35
132
154
77
134
156
79
95
117
40
56
78
1
56
78
1
56
78
1
95
117
40
130
152
75
102
124
47
63
85
8
68
90
13
130
152
75
130
152
75
68
90
13
61
83
6
55
77
0
130
152
75
140
162
85
95
117
40
56
78
1
56
78
1
56
78
1
95
117
40
130
152
75
102
124
47
56
78
1
56
78
1
90
112
35
130
152
75
68
90
13
61
83
6
55
77
0
130
152
75
140
162
85
95
117
40
76
98
21
56
78
1
56
78
1
99
121
44
140
162
85
136
158
81
56
78
1
56
78
1
90
112
35
130
152
75
68
90
13
68
90
13
55
77
0
105
127
50
140
162
85
95
117
40
76
98
21
56
78
1
76
98
21
105
127
50
140
162
85
136
158
81
56
78
1
56
78
1
130
152
75
140
162
85
68
90
13
68
90
13
55
77
0
105
127
50
140
162
85
102
124
47
76
98
21
56
78
1
76
98
21
137
159
82
140
162
85
136
158
81
63
85
8
56
78
1
130
152
75
140
162
85
77
99
22
68
90
13
55
77
0
118
140
63
140
162
85
102
124
47
76
98
21
76
98
21
76
98
21
130
152
75
140
162
85
136
158
81
63
85
8
56
78
1
140
162
85
130
152
75
77
99
22
68
90
13
55
77
0
118
140
63
140
162
85
102
124
47
76
98
21
56
78
1
76
98
21
130
152
75
140
162
85
99
121
44
63
85
8
56
78
1
90
112
35
130
152
75
90
112
35
68
90
13
55
77
0
130
152
75
140
162
85
113
135
58
76
98
21
56
78
1
76
98
21
130
152
75
137
159
82
95
117
40
63
85
8
81
103
26
95
117
40
130
152
75
90
112
35
55
77
0
90
112
35
130
152
75
140
162
85
113
135
58
76
98
21
76
98
21
95
117
40
130
152
75
140
162
85
120
142
65
95
117
40
81
103
26
123
145
68
124
146
69
90
112
35
90
112
35
90
112
35
124
146
69
115
137
60
113
135
58
95
117
40
95
117
40
95
117
40
140
162
85
130
152
75
137
159
82
87
109
32
81
103
26
114
136
59
105
127
50
95
117
40
90
112
35
90
112
35
115
137
60
140
162
85
134
156
79
95
117
40
95
117
40
130
152
75
140
162
85
140
162
85
113
135
58
87
109
32
87
109
32
110
132
55
130
152
75
108
130
53
90
112
35
115
137
60
126
148
71
134
156
79
