P3
# Created by GIMP version 2.10.30 PNM plug-in
16 16
255
200
233
158
161
194
119
161
194
119
206
239
164
206
239
164
206
239
164
184
217
142
153
186
111
153
186
111
200
233
158
200
233
158
187
220
145
156
189
114
156
189
114
194
227
152
194
227
152
200
233
158
161
194
119
147
180
105
161
194
119
203
236
161
206
239
164
179
212
137
153
186
111
175
208
133
196
229
154
196
229
154
156
189
114
156
189
114
156
189
114
171
204
129
194
227
152
200
233
158
147
180
105
161
194
119
147
180
105
203
236
161
196
229
154
167
200
125
155
188
113
153
186
111
196
229
154
200
233
158
156
189
114
131
164
89
156
189
114
156
189
114
194
227
152
161
194
119
121
154
79
147
180
105
142
175
100
203
236
161
196
229
154
172
205
130
134
167
92
153
186
111
196
229
154
196
229
154
156
189
114
127
160
85
156
189
114
156
189
114
198
231
156
161
194
119
147
180
105
122
155
80
142
175
100
203
236
161
196
229
154
202
235
160
134
167
92
134
167
92
196
229
154
196
229
154
143
176
101
127
160
85
156
189
114
198
231
156
200
233
158
161
194
119
122
155
80
122
155
80
122
155
80
161
194
119
196
229
154
168
201
126
129
162
87
134
167
92
196
229
154
196
229
154
134
167
92
127
160
85
121
154
79
196
229
154
206
239
164
161
194
119
122
155
80
122
155
80
122
155
80
161
194
119
196
229
154
168
201
126
122
155
80
122
155
80
156
189
114
196
229
154
134
167
92
127
160
85
121
154
79
196
229
154
206
239
164
161
194
119
142
175
100
122
155
80
122
155
80
165
198
123
206
239
164
202
235
160
122
155
80
122
155
80
156
189
114
196
229
154
134
167
92
134
167
92
121
154
79
171
204
129
206
239
164
161
194
119
142
175
100
122
155
80
142
175
100
171
204
129
206
239
164
202
235
160
122
155
80
122
155
80
196
229
154
206
239
164
134
167
92
134
167
92
121
154
79
171
204
129
206
239
164
168
201
126
142
175
100
122
155
80
142
175
100
203
236
161
206
239
164
202
235
160
129
162
87
122
155
80
196
229
154
206
239
164
143
176
101
134
167
92
121
154
79
184
217
142
206
239
164
168
201
126
142
175
100
142
175
100
142
175
100
196
229
154
206
239
164
202
235
160
129
162
87
122
155
80
206
239
164
196
229
154
143
176
101
134
167
92
121
154
79
184
217
142
206
239
164
168
201
126
142
175
100
122
155
80
142
175
100
196
229
154
206
239
164
165
198
123
129
162
87
122
155
80
156
189
114
196
229
154
156
189
114
134
167
92
121
154
79
196
229
154
206
239
164
179
212
137
142
175
100
122
155
80
142
175
100
196
229
154
203
236
161
161
194
119
129
162
87
147
180
105
161
194
119
196
229
154
156
189
114
121
154
79
156
189
114
196
229
154
206
239
164
179
212
137
142
175
100
142
175
100
161
194
119
196
229
154
206
239
164
186
219
144
161
194
119
147
180
105
189
222
147
190
223
148
156
189
114
156
189
114
156
189
114
190
223
148
181
214
139
179
212
137
161
194
119
161
194
119
161
194
119
206
239
164
196
229
154
203
236
161
153
186
111
147
180
105
180
213
138
171
204
129
161
194
119
156
189
114
156
189
114
181
214
139
206
239
164
200
233
158
161
194
119
161
194
119
196
229
154
206
239
164
206
239
164
179
212
137
153
186
111
153
186
111
176
209
134
196
229
154
174
207
132
156
189
114
181
214
139
192
225
150
200
233
158
