P3
# Created by GIMP version 2.10.30 PNM plug-in
16 16
255
249
175
202
210
136
163
210
136
163
255
181
208
255
181
208
255
181
208
233
159
186
202
128
155
202
128
155
249
175
202
249
175
202
236
162
189
205
131
158
205
131
158
243
169
196
243
169
196
249
175
202
210
136
163
196
122
149
210
136
163
252
178
205
255
181
208
228
154
181
202
128
155
224
150
177
245
171
198
245
171
198
205
131
158
205
131
158
205
131
158
220
146
173
243
169
196
249
175
202
196
122
149
210
136
163
196
122
149
252
178
205
245
171
198
216
142
169
204
130
157
202
128
155
245
171
198
249
175
202
205
131
158
180
106
133
205
131
158
205
131
158
243
169
196
210
136
163
170
96
123
196
122
149
191
117
144
252
178
205
245
171
198
221
147
174
183
109
136
202
128
155
245
171
198
245
171
198
205
131
158
176
102
129
205
131
158
205
131
158
247
173
200
210
136
163
196
122
149
171
97
124
191
117
144
252
178
205
245
171
198
251
177
204
183
109
136
183
109
136
245
171
198
245
171
198
192
118
145
176
102
129
205
131
158
247
173
200
249
175
202
210
136
163
171
97
124
171
97
124
171
97
124
210
136
163
245
171
198
217
143
170
178
104
131
183
109
136
245
171
198
245
171
198
183
109
136
176
102
129
170
96
123
245
171
198
255
181
208
210
136
163
171
97
124
171
97
124
171
97
124
210
136
163
245
171
198
217
143
170
171
97
124
171
97
124
205
131
158
245
171
198
183
109
136
176
102
129
170
96
123
245
171
198
255
181
208
210
136
163
191
117
144
171
97
124
171
97
124
214
140
167
255
181
208
251
177
204
171
97
124
171
97
124
205
131
158
245
171
198
183
109
136
183
109
136
170
96
123
220
146
173
255
181
208
210
136
163
191
117
144
171
97
124
191
117
144
220
146
173
255
181
208
251
177
204
171
97
124
171
97
124
245
171
198
255
181
208
183
109
136
183
109
136
170
96
123
220
146
173
255
181
208
217
143
170
191
117
144
171
97
124
191
117
144
252
178
205
255
181
208
251
177
204
178
104
131
171
97
124
245
171
198
255
181
208
192
118
145
183
109
136
170
96
123
233
159
186
255
181
208
217
143
170
191
117
144
191
117
144
191
117
144
245
171
198
255
181
208
251
177
204
178
104
131
171
97
124
255
181
208
245
171
198
192
118
145
183
109
136
170
96
123
233
159
186
255
181
208
217
143
170
191
117
144
171
97
124
191
117
144
245
171
198
255
181
208
214
140
167
178
104
131
171
97
124
205
131
158
245
171
198
205
131
158
183
109
136
170
96
123
245
171
198
255
181
208
228
154
181
191
117
144
171
97
124
191
117
144
245
171
198
252
178
205
210
136
163
178
104
131
196
122
149
210
136
163
245
171
198
205
131
158
170
96
123
205
131
158
245
171
198
255
181
208
228
154
181
191
117
144
191
117
144
210
136
163
245
171
198
255
181
208
235
161
188
210
136
163
196
122
149
238
164
191
239
165
192
205
131
158
205
131
158
205
131
158
239
165
192
230
156
183
228
154
181
210
136
163
210
136
163
210
136
163
255
181
208
245
171
198
252
178
205
202
128
155
196
122
149
229
155
182
220
146
173
210
136
163
205
131
158
205
131
158
230
156
183
255
181
208
249
175
202
210
136
163
210
136
163
245
171
198
255
181
208
255
181
208
228
154
181
202
128
155
202
128
155
225
151
178
245
171
198
223
149
176
205
131
158
230
156
183
241
167
194
249
175
202
