P3
# Created by GIMP version 2.10.30 PNM plug-in
16 16
255
203
166
227
164
127
188
164
127
188
209
172
233
209
172
233
209
172
233
187
150
211
156
119
180
156
119
180
203
166
227
203
166
227
190
153
214
159
122
183
159
122
183
197
160
221
197
160
221
203
166
227
164
127
188
150
113
174
164
127
188
206
169
230
209
172
233
182
145
206
156
119
180
178
141
202
199
162
223
199
162
223
159
122
183
159
122
183
159
122
183
174
137
198
197
160
221
203
166
227
150
113
174
164
127
188
150
113
174
206
169
230
199
162
223
170
133
194
158
121
182
156
119
180
199
162
223
203
166
227
159
122
183
134
97
158
159
122
183
159
122
183
197
160
221
164
127
188
124
87
148
150
113
174
145
108
169
206
169
230
199
162
223
175
138
199
137
100
161
156
119
180
199
162
223
199
162
223
159
122
183
130
93
154
159
122
183
159
122
183
201
164
225
164
127
188
150
113
174
125
88
149
145
108
169
206
169
230
199
162
223
205
168
229
137
100
161
137
100
161
199
162
223
199
162
223
146
109
170
130
93
154
159
122
183
201
164
225
203
166
227
164
127
188
125
88
149
125
88
149
125
88
149
164
127
188
199
162
223
171
134
195
132
95
156
137
100
161
199
162
223
199
162
223
137
100
161
130
93
154
124
87
148
199
162
223
209
172
233
164
127
188
125
88
149
125
88
149
125
88
149
164
127
188
199
162
223
171
134
195
125
88
149
125
88
149
159
122
183
199
162
223
137
100
161
130
93
154
124
87
148
199
162
223
209
172
233
164
127
188
145
108
169
125
88
149
125
88
149
168
131
192
209
172
233
205
168
229
125
88
149
125
88
149
159
122
183
199
162
223
137
100
161
137
100
161
124
87
148
174
137
198
209
172
233
164
127
188
145
108
169
125
88
149
145
108
169
174
137
198
209
172
233
205
168
229
125
88
149
125
88
149
199
162
223
209
172
233
137
100
161
137
100
161
124
87
148
174
137
198
209
172
233
171
134
195
145
108
169
125
88
149
145
108
169
206
169
230
209
172
233
205
168
229
132
95
156
125
88
149
199
162
223
209
172
233
146
109
170
137
100
161
124
87
148
187
150
211
209
172
233
171
134
195
145
108
169
145
108
169
145
108
169
199
162
223
209
172
233
205
168
229
132
95
156
125
88
149
209
172
233
199
162
223
146
109
170
137
100
161
124
87
148
187
150
211
209
172
233
171
134
195
145
108
169
125
88
149
145
108
169
199
162
223
209
172
233
168
131
192
132
95
156
125
88
149
159
122
183
199
162
223
159
122
183
137
100
161
124
87
148
199
162
223
209
172
233
182
145
206
145
108
169
125
88
149
145
108
169
199
162
223
206
169
230
164
127
188
132
95
156
150
113
174
164
127
188
199
162
223
159
122
183
124
87
148
159
122
183
199
162
223
209
172
233
182
145
206
145
108
169
145
108
169
164
127
188
199
162
223
209
172
233
189
152
213
164
127
188
150
113
174
192
155
216
193
156
217
159
122
183
159
122
183
159
122
183
193
156
217
184
147
208
182
145
206
164
127
188
164
127
188
164
127
188
209
172
233
199
162
223
206
169
230
156
119
180
150
113
174
183
146
207
174
137
198
164
127
188
159
122
183
159
122
183
184
147
208
209
172
233
203
166
227
164
127
188
164
127
188
199
162
223
209
172
233
209
172
233
182
145
206
156
119
180
156
119
180
179
142
203
199
162
223
177
140
201
159
122
183
184
147
208
195
158
219
203
166
227
