P3
# Created by GIMP version 2.10.30 PNM plug-in
16 16
255
198
83
79
159
44
40
159
44
40
204
89
85
204
89
85
204
89
85
182
67
63
151
36
32
151
36
32
198
83
79
198
83
79
185
70
66
154
39
35
154
39
35
192
77
73
192
77
73
198
83
79
159
44
40
145
30
26
159
44
40
201
86
82
204
89
85
177
62
58
151
36
32
173
58
54
194
79
75
194
79
75
154
39
35
154
39
35
154
39
35
169
54
50
192
77
73
198
83
79
145
30
26
159
44
40
145
30
26
201
86
82
194
79
75
165
50
46
153
38
34
151
36
32
194
79
75
198
83
79
154
39
35
129
14
10
154
39
35
154
39
35
192
77
73
159
44
40
119
4
0
145
30
26
140
25
21
201
86
82
194
79
75
170
55
51
132
17
13
151
36
32
194
79
75
194
79
75
154
39
35
125
10
6
154
39
35
154
39
35
196
81
77
159
44
40
145
30
26
120
5
1
140
25
21
201
86
82
194
79
75
200
85
81
132
17
13
132
17
13
194
79
75
194
79
75
141
26
22
125
10
6
154
39
35
196
81
77
198
83
79
159
44
40
120
5
1
120
5
1
120
5
1
159
44
40
194
79
75
166
51
47
127
12
8
132
17
13
194
79
75
194
79
75
132
17
13
125
10
6
119
4
0
194
79
75
204
89
85
159
44
40
120
5
1
120
5
1
120
5
1
159
44
40
194
79
75
166
51
47
120
5
1
120
5
1
154
39
35
194
79
75
132
17
13
125
10
6
119
4
0
194
79
75
204
89
85
159
44
40
140
25
21
120
5
1
120
5
1
163
48
44
204
89
85
200
85
81
120
5
1
120
5
1
154
39
35
194
79
75
132
17
13
132
17
13
119
4
0
169
54
50
204
89
85
159
44
40
140
25
21
120
5
1
140
25
21
169
54
50
204
89
85
200
85
81
120
5
1
120
5
1
194
79
75
204
89
85
132
17
13
132
17
13
119
4
0
169
54
50
204
89
85
166
51
47
140
25
21
120
5
1
140
25
21
201
86
82
204
89
85
200
85
81
127
12
8
120
5
1
194
79
75
204
89
85
141
26
22
132
17
13
119
4
0
182
67
63
204
89
85
166
51
47
140
25
21
140
25
21
140
25
21
194
79
75
204
89
85
200
85
81
127
12
8
120
5
1
204
89
85
194
79
75
141
26
22
132
17
13
119
4
0
182
67
63
204
89
85
166
51
47
140
25
21
120
5
1
140
25
21
194
79
75
204
89
85
163
48
44
127
12
8
120
5
1
154
39
35
194
79
75
154
39
35
132
17
13
119
4
0
194
79
75
204
89
85
177
62
58
140
25
21
120
5
1
140
25
21
194
79
75
201
86
82
159
44
40
127
12
8
145
30
26
159
44
40
194
79
75
154
39
35
119
4
0
154
39
35
194
79
75
204
89
85
177
62
58
140
25
21
140
25
21
159
44
40
194
79
75
204
89
85
184
69
65
159
44
40
145
30
26
187
72
68
188
73
69
154
39
35
154
39
35
154
39
35
188
73
69
179
64
60
177
62
58
159
44
40
159
44
40
159
44
40
204
89
85
194
79
75
201
86
82
151
36
32
145
30
26
178
63
59
169
54
50
159
44
40
154
39
35
154
39
35
179
64
60
204
89
85
198
83
79
159
44
40
159
44
40
194
79
75
204
89
85
204
89
85
177
62
58
151
36
32
151
36
32
174
59
55
194
79
75
172
57
53
154
39
35
179
64
60
190
75
71
198
83
79
