P3
# Created by GIMP version 2.10.30 PNM plug-in
16 16
255
247
249
249
208
210
210
208
210
210
253
255
255
253
255
255
253
255
255
231
233
233
200
202
202
200
202
202
247
249
249
247
249
249
234
236
236
203
205
205
203
205
205
241
243
243
241
243
243
247
249
249
208
210
210
194
196
196
208
210
210
250
252
252
253
255
255
226
228
228
200
202
202
222
224
224
243
245
245
243
245
245
203
205
205
203
205
205
203
205
205
218
220
220
241
243
243
247
249
249
194
196
196
208
210
210
194
196
196
250
252
252
243
245
245
214
216
216
202
204
204
200
202
202
243
245
245
247
249
249
203
205
205
178
180
180
203
205
205
203
205
205
241
243
243
208
210
210
168
170
170
194
196
196
189
191
191
250
252
252
243
245
245
219
221
221
181
183
183
200
202
202
243
245
245
243
245
245
203
205
205
174
176
176
203
205
205
203
205
205
245
247
247
208
210
210
194
196
196
169
171
171
189
191
191
250
252
252
243
245
245
249
251
251
181
183
183
181
183
183
243
245
245
243
245
245
190
192
192
174
176
176
203
205
205
245
247
247
247
249
249
208
210
210
169
171
171
169
171
171
169
171
171
208
210
210
243
245
245
215
217
217
176
178
178
181
183
183
243
245
245
243
245
245
181
183
183
174
176
176
168
170
170
243
245
245
253
255
255
208
210
210
169
171
171
169
171
171
169
171
171
208
210
210
243
245
245
215
217
217
169
171
171
169
171
171
203
205
205
243
245
245
181
183
183
174
176
176
168
170
170
243
245
245
253
255
255
208
210
210
189
191
191
169
171
171
169
171
171
212
214
214
253
255
255
249
251
251
169
171
171
169
171
171
203
205
205
243
245
245
181
183
183
181
183
183
168
170
170
218
220
220
253
255
255
208
210
210
189
191
191
169
171
171
189
191
191
218
220
220
253
255
255
249
251
251
169
171
171
169
171
171
243
245
245
253
255
255
181
183
183
181
183
183
168
170
170
218
220
220
253
255
255
215
217
217
189
191
191
169
171
171
189
191
191
250
252
252
253
255
255
249
251
251
176
178
178
169
171
171
243
245
245
253
255
255
190
192
192
181
183
183
168
170
170
231
233
233
253
255
255
215
217
217
189
191
191
189
191
191
189
191
191
243
245
245
253
255
255
249
251
251
176
178
178
169
171
171
253
255
255
243
245
245
190
192
192
181
183
183
168
170
170
231
233
233
253
255
255
215
217
217
189
191
191
169
171
171
189
191
191
243
245
245
253
255
255
212
214
214
176
178
178
169
171
171
203
205
205
243
245
245
203
205
205
181
183
183
168
170
170
243
245
245
253
255
255
226
228
228
189
191
191
169
171
171
189
191
191
243
245
245
250
252
252
208
210
210
176
178
178
194
196
196
208
210
210
243
245
245
203
205
205
168
170
170
203
205
205
243
245
245
253
255
255
226
228
228
189
191
191
189
191
191
208
210
210
243
245
245
253
255
255
233
235
235
208
210
210
194
196
196
236
238
238
237
239
239
203
205
205
203
205
205
203
205
205
237
239
239
228
230
230
226
228
228
208
210
210
208
210
210
208
210
210
253
255
255
243
245
245
250
252
252
200
202
202
194
196
196
227
229
229
218
220
220
208
210
210
203
205
205
203
205
205
228
230
230
253
255
255
247
249
249
208
210
210
208
210
210
243
245
245
253
255
255
253
255
255
226
228
228
200
202
202
200
202
202
223
225
225
243
245
245
221
223
223
203
205
205
228
230
230
239
241
241
247
249
249
