P3
# Created by GIMP version 2.10.36 PNM plug-in
16 16
255
169
169
169
153
153
153
161
161
161
157
157
157
168
168
168
159
159
159
156
156
156
121
121
121
168
168
168
158
158
158
154
154
154
156
156
156
169
169
169
152
152
152
151
151
151
117
117
117
164
164
164
139
139
139
134
134
134
134
134
134
135
135
135
136
136
136
136
136
136
115
115
115
159
159
159
130
130
130
130
130
130
131
131
131
138
138
138
135
135
135
135
135
135
114
114
114
160
160
160
136
136
136
138
138
138
133
133
133
138
138
138
132
132
132
136
136
136
115
115
115
156
156
156
140
140
140
143
143
143
132
132
132
137
137
137
136
136
136
136
136
136
115
115
115
161
161
161
142
142
142
138
138
138
133
133
133
134
134
134
134
134
134
131
131
131
115
115
115
144
144
144
135
135
135
132
132
132
132
132
132
139
139
139
133
133
133
139
139
139
115
115
115
169
169
169
138
138
138
138
138
138
134
134
134
136
136
136
136
136
136
138
138
138
115
115
115
159
159
159
142
142
142
139
139
139
134
134
134
136
136
136
136
136
136
138
138
138
115
115
115
164
164
164
137
137
137
137
137
137
133
133
133
140
140
140
132
132
132
132
132
132
114
114
114
155
155
155
139
139
139
139
139
139
136
136
136
137
137
137
135
135
135
135
135
135
114
114
114
161
161
161
138
138
138
136
136
136
134
134
134
136
136
136
135
135
135
135
135
135
114
114
114
157
157
157
136
136
136
133
133
133
133
133
133
137
137
137
134
134
134
135
135
135
115
115
115
117
117
117
116
116
116
115
115
115
115
115
115
115
115
115
114
114
114
114
114
114
115
115
115
114
114
114
114
114
114
115
115
115
115
115
115
116
116
116
115
115
115
116
116
116
115
115
115
177
177
177
161
161
161
161
161
161
157
157
157
168
168
168
162
162
162
159
159
159
116
116
116
171
171
171
162
162
162
154
154
154
155
155
155
158
158
158
155
155
155
151
151
151
114
114
114
161
161
161
136
136
136
136
136
136
135
135
135
138
138
138
135
135
135
143
143
143
116
116
116
160
160
160
138
138
138
141
141
141
136
136
136
138
138
138
137
137
137
138
138
138
115
115
115
163
163
163
142
142
142
138
138
138
135
135
135
138
138
138
138
138
138
138
138
138
117
117
117
157
157
157
141
141
141
137
137
137
136
136
136
138
138
138
134
134
134
136
136
136
115
115
115
157
157
157
141
141
141
141
141
141
138
138
138
137
137
137
138
138
138
133
133
133
114
114
114
154
154
154
140
140
140
136
136
136
139
139
139
139
139
139
136
136
136
136
136
136
115
115
115
168
168
168
138
138
138
137
137
137
137
137
137
138
138
138
139
139
139
140
140
140
115
115
115
171
171
171
145
145
145
138
138
138
139
139
139
140
140
140
142
142
142
140
140
140
114
114
114
163
163
163
141
141
141
137
137
137
135
135
135
136
136
136
133
133
133
135
135
135
114
114
114
159
159
159
145
145
145
141
141
141
137
137
137
138
138
138
136
136
136
138
138
138
113
113
113
160
160
160
138
138
138
136
136
136
132
132
132
137
137
137
139
139
139
134
134
134
115
115
115
154
154
154
138
138
138
136
136
136
136
136
136
138
138
138
137
137
137
140
140
140
116
116
116
121
121
121
116
116
116
116
116
116
115
115
115
116
116
116
116
116
116
116
116
116
116
116
116
114
114
114
115
115
115
115
115
115
115
115
115
116
116
116
117
117
117
118
118
118
115
115
115
