P2
# Created by GIMP version 2.10.36 PNM plug-in
16 16
255
149
148
148
147
149
149
148
148
147
149
147
148
149
147
149
111
149
123
124
124
125
124
124
124
123
123
124
123
123
125
125
102
147
125
125
124
124
124
125
124
124
124
125
123
124
125
123
102
149
124
125
124
124
124
125
125
124
124
125
124
125
123
125
101
148
123
125
123
124
124
123
123
124
124
124
123
123
124
124
101
149
123
125
124
123
123
123
124
124
124
124
125
124
124
124
102
148
125
123
123
123
123
124
124
124
124
124
124
125
123
125
101
113
101
101
101
102
101
101
100
102
101
101
100
101
100
101
101
148
148
149
148
148
148
147
112
149
149
147
148
148
148
149
147
123
123
124
125
125
124
124
100
148
124
124
125
125
125
124
125
125
125
123
124
124
125
124
101
149
124
125
125
124
123
125
124
123
125
123
124
125
124
124
102
147
125
125
124
123
124
123
123
123
123
123
124
124
125
125
100
148
125
124
123
125
123
124
125
124
123
125
123
125
123
124
100
148
124
124
124
123
125
123
124
123
124
124
124
123
124
125
101
149
124
124
125
125
124
123
124
100
101
101
101
101
100
102
101
112
101
101
100
102
101
101
102
