P2
# Created by GIMP version 2.10.36 PNM plug-in
16 16
255
150
149
149
148
150
150
149
149
148
150
148
149
150
148
150
110
150
123
124
124
125
124
124
124
123
123
124
123
123
125
125
101
148
125
125
124
124
124
125
124
124
124
125
123
124
125
123
101
150
124
125
124
124
124
125
125
124
124
125
124
125
123
125
100
149
123
125
123
124
124
123
123
124
124
124
123
123
124
124
100
150
123
125
124
123
123
123
124
124
124
124
125
124
124
124
101
149
125
123
123
123
123
124
124
124
124
124
124
125
123
125
100
150
124
124
124
125
124
124
123
125
124
124
123
124
123
124
100
149
124
125
124
124
124
123
124
125
125
123
124
124
124
125
99
148
123
124
125
125
124
124
123
124
124
124
125
125
125
124
101
150
125
123
124
124
125
124
124
125
124
125
125
124
123
125
100
148
125
123
124
125
124
124
125
123
125
125
124
123
124
123
99
148
123
123
124
124
125
125
123
124
125
124
123
125
123
124
101
149
123
125
123
125
123
124
123
124
124
124
124
123
125
123
100
148
124
124
124
123
124
125
124
125
124
124
125
125
124
123
100
110
100
100
100
100
99
101
100
100
100
100
99
101
100
100
101
