P3
# Created by GIMP version 2.10.36 PNM plug-in
16 16
255
99
121
84
99
121
84
99
121
84
99
121
84
99
121
84
99
121
84
99
121
84
99
121
84
99
121
84
99
121
84
99
121
84
99
121
84
99
121
84
99
121
84
99
121
84
99
121
84
99
121
84
99
121
84
99
121
84
99
121
84
99
121
84
99
121
84
99
121
84
99
121
84
99
121
84
99
121
84
99
121
84
99
121
84
99
121
84
99
121
84
99
121
84
99
121
84
99
121
84
99
121
84
99
121
84
99
121
84
99
121
84
99
121
84
99
121
84
99
121
84
99
121
84
99
121
84
99
121
84
99
121
84
99
121
84
99
121
84
99
121
84
99
121
84
99
121
84
99
121
84
99
121
84
99
121
84
99
121
84
99
121
84
99
121
84
99
121
84
99
121
84
99
121
84
99
121
84
99
121
84
99
121
84
99
121
84
99
121
84
99
121
84
99
121
84
99
121
84
99
121
84
99
121
84
99
121
84
99
121
84
99
121
84
99
121
84
99
121
84
99
121
84
99
121
84
99
121
84
99
121
84
99
121
84
99
121
84
99
121
84
99
121
84
99
121
84
99
121
84
99
121
84
99
121
84
99
121
84
99
121
84
99
121
84
99
121
84
99
121
84
99
121
84
99
121
84
99
121
84
99
121
84
99
121
84
99
121
84
99
121
84
99
121
84
99
121
84
99
121
84
99
121
84
99
121
84
99
121
84
99
121
84
99
121
84
99
121
84
99
121
84
99
121
84
99
121
84
99
121
84
99
121
84
99
121
84
99
121
84
99
121
84
99
121
84
99
121
84
99
121
84
99
121
84
99
121
84
99
121
84
99
121
84
99
121
84
99
121
84
99
121
84
99
121
84
99
121
84
99
121
84
99
121
84
99
121
84
99
121
84
99
121
84
99
121
84
99
121
84
99
121
84
99
121
84
99
121
84
99
121
84
99
121
84
99
121
84
99
121
84
99
121
84
99
121
84
99
121
84
99
121
84
99
121
84
99
121
84
99
121
84
99
121
84
99
121
84
99
121
84
99
121
84
99
121
84
99
121
84
99
121
84
99
121
84
99
121
84
99
121
84
99
121
84
99
121
84
99
121
84
99
121
84
99
121
84
99
121
84
99
121
84
99
121
84
99
121
84
99
121
84
99
121
84
99
121
84
99
121
84
99
121
84
99
121
84
99
121
84
99
121
84
99
121
84
99
121
84
99
121
84
99
121
84
99
121
84
99
121
84
99
121
84
99
121
84
99
121
84
99
121
84
99
121
84
99
121
84
99
121
84
99
121
84
99
121
84
99
121
84
99
121
84
99
121
84
99
121
84
99
121
84
99
121
84
99
121
84
99
121
84
99
121
84
99
121
84
99
121
84
99
121
84
99
121
84
99
121
84
99
121
84
99
121
84
99
121
84
99
121
84
99
121
84
99
121
84
99
121
84
99
121
84
99
121
84
99
121
84
99
121
84
99
121
84
99
121
84
99
121
84
99
121
84
99
121
84
99
121
84
99
121
84
99
121
84
99
121
84
99
121
84
99
121
84
99
121
84
99
121
84
99
121
84
99
121
84
99
121
84
99
121
84
99
121
84
99
121
84
99
121
84
99
121
84
99
121
84
99
121
84
99
121
84
99
121
84
99
121
84
99
121
84
99
121
84
99
121
84
99
121
84
99
121
84
99
121
84
99
121
84
99
121
84
99
121
84
99
121
84
99
121
84
99
121
84
99
121
84
99
121
84
99
121
84
99
121
84
