P3
# Created by GIMP version 2.10.36 PNM plug-in
16 16
255
122
106
112
122
106
112
122
106
112
122
106
112
122
106
112
122
106
112
122
106
112
122
106
112
122
106
112
122
106
112
122
106
112
122
106
112
122
106
112
122
106
112
122
106
112
122
106
112
122
106
112
122
106
112
122
106
112
122
106
112
122
106
112
122
106
112
122
106
112
122
106
112
122
106
112
122
106
112
122
106
112
122
106
112
122
106
112
122
106
112
122
106
112
122
106
112
122
106
112
122
106
112
122
106
112
122
106
112
122
106
112
122
106
112
122
106
112
122
106
112
122
106
112
122
106
112
122
106
112
122
106
112
122
106
112
122
106
112
122
106
112
122
106
112
122
106
112
122
106
112
122
106
112
122
106
112
122
106
112
122
106
112
122
106
112
122
106
112
122
106
112
122
106
112
122
106
112
122
106
112
122
106
112
122
106
112
122
106
112
122
106
112
122
106
112
122
106
112
122
106
112
122
106
112
122
106
112
122
106
112
122
106
112
122
106
112
122
106
112
122
106
112
122
106
112
122
106
112
122
106
112
122
106
112
122
106
112
122
106
112
122
106
112
122
106
112
122
106
112
122
106
112
122
106
112
122
106
112
122
106
112
122
106
112
122
106
112
122
106
112
122
106
112
122
106
112
122
106
112
122
106
112
122
106
112
122
106
112
122
106
112
122
106
112
122
106
112
122
106
112
122
106
112
122
106
112
122
106
112
122
106
112
122
106
112
122
106
112
122
106
112
122
106
112
122
106
112
122
106
112
122
106
112
122
106
112
122
106
112
122
106
112
122
106
112
122
106
112
122
106
112
122
106
112
122
106
112
122
106
112
122
106
112
122
106
112
122
106
112
122
106
112
122
106
112
122
106
112
122
106
112
122
106
112
122
106
112
122
106
112
122
106
112
122
106
112
122
106
112
122
106
112
122
106
112
122
106
112
122
106
112
122
106
112
122
106
112
122
106
112
122
106
112
122
106
112
122
106
112
122
106
112
122
106
112
122
106
112
122
106
112
122
106
112
122
106
112
122
106
112
122
106
112
122
106
112
122
106
112
122
106
112
122
106
112
122
106
112
122
106
112
122
106
112
122
106
112
122
106
112
122
106
112
122
106
112
122
106
112
122
106
112
122
106
112
122
106
112
122
106
112
122
106
112
122
106
112
122
106
112
122
106
112
122
106
112
122
106
112
122
106
112
122
106
112
122
106
112
122
106
112
122
106
112
122
106
112
122
106
112
122
106
112
122
106
112
122
106
112
122
106
112
122
106
112
122
106
112
122
106
112
122
106
112
122
106
112
122
106
112
122
106
112
122
106
112
122
106
112
122
106
112
122
106
112
122
106
112
122
106
112
122
106
112
122
106
112
122
106
112
122
106
112
122
106
112
122
106
112
122
106
112
122
106
112
122
106
112
122
106
112
122
106
112
122
106
112
122
106
112
122
106
112
122
106
112
122
106
112
122
106
112
122
106
112
122
106
112
122
106
112
122
106
112
122
106
112
122
106
112
122
106
112
122
106
112
122
106
112
122
106
112
122
106
112
122
106
112
122
106
112
122
106
112
122
106
112
122
106
112
122
106
112
122
106
112
122
106
112
122
106
112
122
106
112
122
106
112
122
106
112
122
106
112
122
106
112
122
106
112
122
106
112
122
106
112
122
106
112
122
106
112
122
106
112
122
106
112
122
106
112
122
106
112
122
106
112
122
106
112
122
106
112
122
106
112
122
106
112
122
106
112
122
106
112
122
106
112
