P3
# Created by GIMP version 2.10.36 PNM plug-in
16 16
255
206
206
206
200
200
200
200
200
200
200
200
200
193
193
193
193
193
193
200
200
200
193
193
193
193
193
193
206
206
206
200
200
200
200
200
200
206
206
206
206
206
206
206
206
206
200
200
200
200
200
200
200
200
200
200
200
200
200
200
200
200
200
200
193
193
193
200
200
200
193
193
193
206
206
206
193
193
193
193
193
193
200
200
200
200
200
200
200
200
200
200
200
200
200
200
200
206
206
206
200
200
200
153
153
153
153
153
153
174
174
174
174
174
174
182
182
182
174
174
174
182
182
182
182
182
182
182
182
182
182
182
182
153
153
153
153
153
153
206
206
206
200
200
200
200
200
200
200
200
200
153
153
153
206
206
206
206
206
206
200
200
200
200
200
200
200
200
200
200
200
200
193
193
193
200
200
200
200
200
200
200
200
200
153
153
153
200
200
200
200
200
200
193
193
193
193
193
193
174
174
174
200
200
200
193
193
193
193
193
193
193
193
193
193
193
193
193
193
193
193
193
193
193
193
193
193
193
193
200
200
200
182
182
182
193
193
193
193
193
193
193
193
193
200
200
200
174
174
174
200
200
200
193
193
193
174
174
174
174
174
174
182
182
182
182
182
182
174
174
174
174
174
174
193
193
193
200
200
200
153
153
153
193
193
193
200
200
200
200
200
200
193
193
193
174
174
174
193
193
193
193
193
193
153
153
153
193
193
193
193
193
193
193
193
193
193
193
193
174
174
174
193
193
193
193
193
193
153
153
153
200
200
200
193
193
193
193
193
193
193
193
193
182
182
182
200
200
200
193
193
193
174
174
174
193
193
193
182
182
182
182
182
182
193
193
193
182
182
182
193
193
193
200
200
200
182
182
182
193
193
193
193
193
193
193
193
193
193
193
193
182
182
182
200
200
200
193
193
193
174
174
174
193
193
193
182
182
182
174
174
174
193
193
193
174
174
174
193
193
193
200
200
200
153
153
153
193
193
193
193
193
193
193
193
193
193
193
193
182
182
182
200
200
200
193
193
193
174
174
174
193
193
193
193
193
193
193
193
193
193
193
193
182
182
182
193
193
193
193
193
193
153
153
153
193
193
193
193
193
193
193
193
193
193
193
193
174
174
174
200
200
200
193
193
193
174
174
174
174
174
174
153
153
153
174
174
174
182
182
182
182
182
182
193
193
193
200
200
200
182
182
182
193
193
193
193
193
193
193
193
193
193
193
193
182
182
182
200
200
200
193
193
193
193
193
193
193
193
193
193
193
193
193
193
193
193
193
193
193
193
193
193
193
193
200
200
200
174
174
174
193
193
193
193
193
193
193
193
193
200
200
200
182
182
182
200
200
200
200
200
200
193
193
193
200
200
200
200
200
200
200
200
200
200
200
200
200
200
200
206
206
206
200
200
200
153
153
153
193
193
193
200
200
200
206
206
206
200
200
200
182
182
182
174
174
174
182
182
182
174
174
174
174
174
174
174
174
174
174
174
174
153
153
153
153
153
153
153
153
153
153
153
153
153
153
153
206
206
206
200
200
200
206
206
206
200
200
200
200
200
200
200
200
200
193
193
193
193
193
193
200
200
200
193
193
193
193
193
193
206
206
206
200
200
200
200
200
200
206
206
206
206
206
206
206
206
206
200
200
200
200
200
200
200
200
200
200
200
200
200
200
200
200
200
200
193
193
193
200
200
200
193
193
193
206
206
206
193
193
193
193
193
193
200
200
200
200
200
200
200
200
200
200
200
200
200
200
200
