P3
# Created by GIMP version 2.10.36 PNM plug-in
16 16
255
66
66
66
66
66
66
66
66
66
75
75
75
86
86
86
86
86
86
86
86
86
86
86
86
86
86
86
75
75
75
75
75
75
75
75
75
86
86
86
86
86
86
75
75
75
66
66
66
66
66
66
56
56
56
66
66
66
66
66
66
66
66
66
75
75
75
86
86
86
86
86
86
66
66
66
66
66
66
56
56
56
56
56
56
50
50
50
50
50
50
56
56
56
56
56
56
75
75
75
66
66
66
66
66
66
75
75
75
86
86
86
86
86
86
75
75
75
66
66
66
75
75
75
75
75
75
75
75
75
66
66
66
86
86
86
86
86
86
86
86
86
75
75
75
66
66
66
66
66
66
66
66
66
66
66
66
66
66
66
56
56
56
56
56
56
56
56
56
66
66
66
75
75
75
86
86
86
86
86
86
75
75
75
66
66
66
56
56
56
56
56
56
66
66
66
56
56
56
56
56
56
66
66
66
66
66
66
66
66
66
66
66
66
66
66
66
75
75
75
75
75
75
75
75
75
75
75
75
75
75
75
75
75
75
75
75
75
75
75
75
86
86
86
86
86
86
75
75
75
66
66
66
75
75
75
75
75
75
75
75
75
66
66
66
66
66
66
66
66
66
66
66
66
86
86
86
86
86
86
66
66
66
66
66
66
75
75
75
56
56
56
56
56
56
56
56
56
56
56
56
66
66
66
75
75
75
75
75
75
75
75
75
86
86
86
86
86
86
86
86
86
86
86
86
66
66
66
56
56
56
66
66
66
56
56
56
50
50
50
56
56
56
75
75
75
75
75
75
75
75
75
75
75
75
66
66
66
56
56
56
56
56
56
56
56
56
66
66
66
66
66
66
56
56
56
66
66
66
56
56
56
50
50
50
75
75
75
75
75
75
75
75
75
86
86
86
86
86
86
75
75
75
75
75
75
66
66
66
75
75
75
75
75
75
75
75
75
66
66
66
66
66
66
56
56
56
56
56
56
66
66
66
56
56
56
56
56
56
66
66
66
66
66
66
66
66
66
75
75
75
86
86
86
86
86
86
86
86
86
86
86
86
86
86
86
75
75
75
75
75
75
75
75
75
50
50
50
50
50
50
50
50
50
50
50
50
50
50
50
66
66
66
66
66
66
66
66
66
75
75
75
86
86
86
86
86
86
75
75
75
75
75
75
75
75
75
66
66
66
56
56
56
56
56
56
50
50
50
66
66
66
66
66
66
66
66
66
75
75
75
75
75
75
75
75
75
86
86
86
56
56
56
56
56
56
75
75
75
75
75
75
86
86
86
75
75
75
75
75
75
75
75
75
75
75
75
86
86
86
86
86
86
86
86
86
75
75
75
66
66
66
66
66
66
66
66
66
66
66
66
66
66
66
75
75
75
75
75
75
66
66
66
75
75
75
86
86
86
86
86
86
86
86
86
86
86
86
86
86
86
75
75
75
66
66
66
56
56
56
56
56
56
66
66
66
66
66
66
66
66
66
66
66
66
86
86
86
66
66
66
66
66
66
66
66
66
75
75
75
75
75
75
75
75
75
66
66
66
66
66
66
56
56
56
56
56
56
66
66
66
56
56
56
56
56
56
50
50
50
50
50
50
50
50
50
56
56
56
75
75
75
66
66
66
66
66
66
75
75
75
66
66
66
66
66
66
86
86
86
75
75
75
66
66
66
75
75
75
75
75
75
75
75
75
66
66
66
66
66
66
75
75
75
75
75
75
75
75
75
75
75
75
66
66
66
66
66
66
