P3
# Created by GIMP version 2.10.36 PNM plug-in
16 16
255
155
155
155
155
155
155
155
155
155
155
155
155
148
148
148
148
148
148
155
155
155
148
148
148
148
148
148
164
164
164
148
148
148
148
148
148
155
155
155
155
155
155
155
155
155
155
155
155
155
155
155
155
155
155
155
155
155
155
155
155
155
155
155
148
148
148
155
155
155
148
148
148
164
164
164
148
148
148
148
148
148
155
155
155
155
155
155
155
155
155
155
155
155
155
155
155
164
164
164
155
155
155
103
103
103
103
103
103
122
122
122
122
122
122
136
136
136
122
122
122
136
136
136
136
136
136
136
136
136
136
136
136
122
122
122
122
122
122
164
164
164
155
155
155
155
155
155
155
155
155
103
103
103
164
164
164
164
164
164
155
155
155
155
155
155
155
155
155
155
155
155
148
148
148
155
155
155
155
155
155
155
155
155
122
122
122
155
155
155
155
155
155
148
148
148
148
148
148
122
122
122
155
155
155
148
148
148
148
148
148
148
148
148
148
148
148
148
148
148
148
148
148
148
148
148
148
148
148
155
155
155
136
136
136
148
148
148
148
148
148
148
148
148
155
155
155
136
136
136
155
155
155
148
148
148
122
122
122
122
122
122
136
136
136
136
136
136
122
122
122
122
122
122
148
148
148
155
155
155
122
122
122
148
148
148
155
155
155
155
155
155
148
148
148
122
122
122
148
148
148
148
148
148
103
103
103
148
148
148
148
148
148
148
148
148
148
148
148
122
122
122
148
148
148
148
148
148
122
122
122
155
155
155
148
148
148
148
148
148
148
148
148
136
136
136
155
155
155
148
148
148
122
122
122
148
148
148
136
136
136
136
136
136
148
148
148
136
136
136
148
148
148
155
155
155
136
136
136
148
148
148
148
148
148
148
148
148
148
148
148
136
136
136
155
155
155
148
148
148
122
122
122
148
148
148
136
136
136
122
122
122
148
148
148
122
122
122
148
148
148
155
155
155
122
122
122
148
148
148
148
148
148
148
148
148
148
148
148
136
136
136
155
155
155
148
148
148
122
122
122
148
148
148
148
148
148
148
148
148
148
148
148
136
136
136
148
148
148
148
148
148
122
122
122
148
148
148
148
148
148
148
148
148
148
148
148
122
122
122
155
155
155
148
148
148
122
122
122
122
122
122
103
103
103
122
122
122
136
136
136
136
136
136
148
148
148
155
155
155
136
136
136
148
148
148
148
148
148
148
148
148
148
148
148
136
136
136
155
155
155
148
148
148
148
148
148
148
148
148
148
148
148
148
148
148
148
148
148
148
148
148
148
148
148
155
155
155
122
122
122
148
148
148
148
148
148
148
148
148
155
155
155
136
136
136
155
155
155
155
155
155
148
148
148
155
155
155
155
155
155
155
155
155
155
155
155
155
155
155
164
164
164
155
155
155
122
122
122
148
148
148
155
155
155
155
155
155
155
155
155
136
136
136
122
122
122
136
136
136
122
122
122
122
122
122
122
122
122
122
122
122
122
122
122
122
122
122
122
122
122
122
122
122
122
122
122
155
155
155
155
155
155
155
155
155
155
155
155
155
155
155
155
155
155
148
148
148
148
148
148
155
155
155
148
148
148
148
148
148
164
164
164
148
148
148
148
148
148
155
155
155
155
155
155
155
155
155
155
155
155
155
155
155
155
155
155
155
155
155
155
155
155
155
155
155
148
148
148
155
155
155
148
148
148
164
164
164
148
148
148
148
148
148
155
155
155
155
155
155
155
155
155
155
155
155
155
155
155
