P3
# Created by GIMP version 2.10.30 PNM plug-in
16 16
255
227
133
34
227
133
34
227
133
34
236
142
43
247
153
54
247
153
54
247
153
54
247
153
54
247
153
54
236
142
43
236
142
43
236
142
43
247
153
54
247
153
54
236
142
43
227
133
34
227
133
34
217
123
24
227
133
34
227
133
34
227
133
34
236
142
43
247
153
54
247
153
54
227
133
34
227
133
34
217
123
24
217
123
24
211
117
18
211
117
18
217
123
24
217
123
24
236
142
43
227
133
34
227
133
34
236
142
43
247
153
54
247
153
54
236
142
43
227
133
34
236
142
43
236
142
43
236
142
43
227
133
34
247
153
54
247
153
54
247
153
54
236
142
43
227
133
34
227
133
34
227
133
34
227
133
34
227
133
34
217
123
24
217
123
24
217
123
24
227
133
34
236
142
43
247
153
54
247
153
54
236
142
43
227
133
34
217
123
24
217
123
24
227
133
34
217
123
24
217
123
24
227
133
34
227
133
34
227
133
34
227
133
34
227
133
34
236
142
43
236
142
43
236
142
43
236
142
43
236
142
43
236
142
43
236
142
43
236
142
43
247
153
54
247
153
54
236
142
43
227
133
34
236
142
43
236
142
43
236
142
43
227
133
34
227
133
34
227
133
34
227
133
34
247
153
54
247
153
54
227
133
34
227
133
34
236
142
43
217
123
24
217
123
24
217
123
24
217
123
24
227
133
34
236
142
43
236
142
43
236
142
43
247
153
54
247
153
54
247
153
54
247
153
54
227
133
34
217
123
24
227
133
34
217
123
24
211
117
18
217
123
24
236
142
43
236
142
43
236
142
43
236
142
43
227
133
34
217
123
24
217
123
24
217
123
24
227
133
34
227
133
34
217
123
24
227
133
34
217
123
24
211
117
18
236
142
43
236
142
43
236
142
43
247
153
54
247
153
54
236
142
43
236
142
43
227
133
34
236
142
43
236
142
43
236
142
43
227
133
34
227
133
34
217
123
24
217
123
24
227
133
34
217
123
24
217
123
24
227
133
34
227
133
34
227
133
34
236
142
43
247
153
54
247
153
54
247
153
54
247
153
54
247
153
54
236
142
43
236
142
43
236
142
43
211
117
18
211
117
18
211
117
18
211
117
18
211
117
18
227
133
34
227
133
34
227
133
34
236
142
43
247
153
54
247
153
54
236
142
43
236
142
43
236
142
43
227
133
34
217
123
24
217
123
24
211
117
18
227
133
34
227
133
34
227
133
34
236
142
43
236
142
43
236
142
43
247
153
54
217
123
24
217
123
24
236
142
43
236
142
43
247
153
54
236
142
43
236
142
43
236
142
43
236
142
43
247
153
54
247
153
54
247
153
54
236
142
43
227
133
34
227
133
34
227
133
34
227
133
34
227
133
34
236
142
43
236
142
43
227
133
34
236
142
43
247
153
54
247
153
54
247
153
54
247
153
54
247
153
54
236
142
43
227
133
34
217
123
24
217
123
24
227
133
34
227
133
34
227
133
34
227
133
34
247
153
54
227
133
34
227
133
34
227
133
34
236
142
43
236
142
43
236
142
43
227
133
34
227
133
34
217
123
24
217
123
24
227
133
34
217
123
24
217
123
24
211
117
18
211
117
18
211
117
18
217
123
24
236
142
43
227
133
34
227
133
34
236
142
43
227
133
34
227
133
34
247
153
54
236
142
43
227
133
34
236
142
43
236
142
43
236
142
43
227
133
34
227
133
34
236
142
43
236
142
43
236
142
43
236
142
43
227
133
34
227
133
34
