P3
# Created by GIMP version 2.10.30 PNM plug-in
16 16
255
179
94
106
179
94
106
179
94
106
188
103
115
199
114
126
199
114
126
199
114
126
199
114
126
199
114
126
188
103
115
188
103
115
188
103
115
199
114
126
199
114
126
188
103
115
179
94
106
179
94
106
169
84
96
179
94
106
179
94
106
179
94
106
188
103
115
199
114
126
199
114
126
179
94
106
179
94
106
169
84
96
169
84
96
163
78
90
163
78
90
169
84
96
169
84
96
188
103
115
179
94
106
179
94
106
188
103
115
199
114
126
199
114
126
188
103
115
179
94
106
188
103
115
188
103
115
188
103
115
179
94
106
199
114
126
199
114
126
199
114
126
188
103
115
179
94
106
179
94
106
179
94
106
179
94
106
179
94
106
169
84
96
169
84
96
169
84
96
179
94
106
188
103
115
199
114
126
199
114
126
188
103
115
179
94
106
169
84
96
169
84
96
179
94
106
169
84
96
169
84
96
179
94
106
179
94
106
179
94
106
179
94
106
179
94
106
188
103
115
188
103
115
188
103
115
188
103
115
188
103
115
188
103
115
188
103
115
188
103
115
199
114
126
199
114
126
188
103
115
179
94
106
188
103
115
188
103
115
188
103
115
179
94
106
179
94
106
179
94
106
179
94
106
199
114
126
199
114
126
179
94
106
179
94
106
188
103
115
169
84
96
169
84
96
169
84
96
169
84
96
179
94
106
188
103
115
188
103
115
188
103
115
199
114
126
199
114
126
199
114
126
199
114
126
179
94
106
169
84
96
179
94
106
169
84
96
163
78
90
169
84
96
188
103
115
188
103
115
188
103
115
188
103
115
179
94
106
169
84
96
169
84
96
169
84
96
179
94
106
179
94
106
169
84
96
179
94
106
169
84
96
163
78
90
188
103
115
188
103
115
188
103
115
199
114
126
199
114
126
188
103
115
188
103
115
179
94
106
188
103
115
188
103
115
188
103
115
179
94
106
179
94
106
169
84
96
169
84
96
179
94
106
169
84
96
169
84
96
179
94
106
179
94
106
179
94
106
188
103
115
199
114
126
199
114
126
199
114
126
199
114
126
199
114
126
188
103
115
188
103
115
188
103
115
163
78
90
163
78
90
163
78
90
163
78
90
163
78
90
179
94
106
179
94
106
179
94
106
188
103
115
199
114
126
199
114
126
188
103
115
188
103
115
188
103
115
179
94
106
169
84
96
169
84
96
163
78
90
179
94
106
179
94
106
179
94
106
188
103
115
188
103
115
188
103
115
199
114
126
169
84
96
169
84
96
188
103
115
188
103
115
199
114
126
188
103
115
188
103
115
188
103
115
188
103
115
199
114
126
199
114
126
199
114
126
188
103
115
179
94
106
179
94
106
179
94
106
179
94
106
179
94
106
188
103
115
188
103
115
179
94
106
188
103
115
199
114
126
199
114
126
199
114
126
199
114
126
199
114
126
188
103
115
179
94
106
169
84
96
169
84
96
179
94
106
179
94
106
179
94
106
179
94
106
199
114
126
179
94
106
179
94
106
179
94
106
188
103
115
188
103
115
188
103
115
179
94
106
179
94
106
169
84
96
169
84
96
179
94
106
169
84
96
169
84
96
163
78
90
163
78
90
163
78
90
169
84
96
188
103
115
179
94
106
179
94
106
188
103
115
179
94
106
179
94
106
199
114
126
188
103
115
179
94
106
188
103
115
188
103
115
188
103
115
179
94
106
179
94
106
188
103
115
188
103
115
188
103
115
188
103
115
179
94
106
179
94
106
