P3
# Created by GIMP version 2.10.36 PNM plug-in
16 16
255
241
241
241
241
241
241
241
241
241
241
241
241
228
228
228
228
228
228
241
241
241
228
228
228
228
228
228
252
252
252
228
228
228
228
228
228
241
241
241
241
241
241
241
241
241
241
241
241
241
241
241
241
241
241
241
241
241
241
241
241
241
241
241
228
228
228
241
241
241
228
228
228
252
252
252
228
228
228
228
228
228
241
241
241
241
241
241
241
241
241
241
241
241
241
241
241
252
252
252
241
241
241
187
187
187
187
187
187
201
201
201
201
201
201
209
209
209
201
201
201
209
209
209
209
209
209
209
209
209
209
209
209
201
201
201
201
201
201
252
252
252
241
241
241
241
241
241
241
241
241
187
187
187
252
252
252
252
252
252
241
241
241
241
241
241
241
241
241
241
241
241
228
228
228
241
241
241
241
241
241
241
241
241
201
201
201
241
241
241
241
241
241
228
228
228
228
228
228
201
201
201
241
241
241
228
228
228
228
228
228
228
228
228
228
228
228
228
228
228
228
228
228
228
228
228
228
228
228
241
241
241
209
209
209
228
228
228
228
228
228
228
228
228
241
241
241
209
209
209
241
241
241
228
228
228
201
201
201
201
201
201
209
209
209
209
209
209
201
201
201
201
201
201
228
228
228
241
241
241
201
201
201
228
228
228
241
241
241
241
241
241
228
228
228
201
201
201
228
228
228
228
228
228
187
187
187
228
228
228
228
228
228
228
228
228
228
228
228
201
201
201
228
228
228
228
228
228
201
201
201
241
241
241
228
228
228
228
228
228
228
228
228
209
209
209
241
241
241
228
228
228
201
201
201
228
228
228
209
209
209
209
209
209
228
228
228
209
209
209
228
228
228
241
241
241
209
209
209
228
228
228
228
228
228
228
228
228
228
228
228
209
209
209
241
241
241
228
228
228
201
201
201
228
228
228
209
209
209
201
201
201
228
228
228
201
201
201
228
228
228
241
241
241
201
201
201
228
228
228
228
228
228
228
228
228
228
228
228
209
209
209
241
241
241
228
228
228
201
201
201
228
228
228
228
228
228
228
228
228
228
228
228
209
209
209
228
228
228
228
228
228
201
201
201
228
228
228
228
228
228
228
228
228
228
228
228
201
201
201
241
241
241
228
228
228
201
201
201
201
201
201
187
187
187
201
201
201
209
209
209
209
209
209
228
228
228
241
241
241
209
209
209
228
228
228
228
228
228
228
228
228
228
228
228
209
209
209
241
241
241
228
228
228
228
228
228
228
228
228
228
228
228
228
228
228
228
228
228
228
228
228
228
228
228
241
241
241
201
201
201
228
228
228
228
228
228
228
228
228
241
241
241
209
209
209
241
241
241
241
241
241
228
228
228
241
241
241
241
241
241
241
241
241
241
241
241
241
241
241
252
252
252
241
241
241
201
201
201
228
228
228
241
241
241
241
241
241
241
241
241
209
209
209
201
201
201
209
209
209
201
201
201
201
201
201
201
201
201
201
201
201
201
201
201
201
201
201
201
201
201
201
201
201
201
201
201
241
241
241
241
241
241
241
241
241
241
241
241
241
241
241
241
241
241
228
228
228
228
228
228
241
241
241
228
228
228
228
228
228
252
252
252
228
228
228
228
228
228
241
241
241
241
241
241
241
241
241
241
241
241
241
241
241
241
241
241
241
241
241
241
241
241
241
241
241
228
228
228
241
241
241
228
228
228
252
252
252
228
228
228
228
228
228
241
241
241
241
241
241
241
241
241
241
241
241
241
241
241
