P3
# Created by GIMP version 2.10.30 PNM plug-in
16 16
255
131
55
177
131
55
177
131
55
177
140
64
186
151
75
197
151
75
197
151
75
197
151
75
197
151
75
197
140
64
186
140
64
186
140
64
186
151
75
197
151
75
197
140
64
186
131
55
177
131
55
177
121
45
167
131
55
177
131
55
177
131
55
177
140
64
186
151
75
197
151
75
197
131
55
177
131
55
177
121
45
167
121
45
167
115
39
161
115
39
161
121
45
167
121
45
167
140
64
186
131
55
177
131
55
177
140
64
186
151
75
197
151
75
197
140
64
186
131
55
177
140
64
186
140
64
186
140
64
186
131
55
177
151
75
197
151
75
197
151
75
197
140
64
186
131
55
177
131
55
177
131
55
177
131
55
177
131
55
177
121
45
167
121
45
167
121
45
167
131
55
177
140
64
186
151
75
197
151
75
197
140
64
186
131
55
177
121
45
167
121
45
167
131
55
177
121
45
167
121
45
167
131
55
177
131
55
177
131
55
177
131
55
177
131
55
177
140
64
186
140
64
186
140
64
186
140
64
186
140
64
186
140
64
186
140
64
186
140
64
186
151
75
197
151
75
197
140
64
186
131
55
177
140
64
186
140
64
186
140
64
186
131
55
177
131
55
177
131
55
177
131
55
177
151
75
197
151
75
197
131
55
177
131
55
177
140
64
186
121
45
167
121
45
167
121
45
167
121
45
167
131
55
177
140
64
186
140
64
186
140
64
186
151
75
197
151
75
197
151
75
197
151
75
197
131
55
177
121
45
167
131
55
177
121
45
167
115
39
161
121
45
167
140
64
186
140
64
186
140
64
186
140
64
186
131
55
177
121
45
167
121
45
167
121
45
167
131
55
177
131
55
177
121
45
167
131
55
177
121
45
167
115
39
161
140
64
186
140
64
186
140
64
186
151
75
197
151
75
197
140
64
186
140
64
186
131
55
177
140
64
186
140
64
186
140
64
186
131
55
177
131
55
177
121
45
167
121
45
167
131
55
177
121
45
167
121
45
167
131
55
177
131
55
177
131
55
177
140
64
186
151
75
197
151
75
197
151
75
197
151
75
197
151
75
197
140
64
186
140
64
186
140
64
186
115
39
161
115
39
161
115
39
161
115
39
161
115
39
161
131
55
177
131
55
177
131
55
177
140
64
186
151
75
197
151
75
197
140
64
186
140
64
186
140
64
186
131
55
177
121
45
167
121
45
167
115
39
161
131
55
177
131
55
177
131
55
177
140
64
186
140
64
186
140
64
186
151
75
197
121
45
167
121
45
167
140
64
186
140
64
186
151
75
197
140
64
186
140
64
186
140
64
186
140
64
186
151
75
197
151
75
197
151
75
197
140
64
186
131
55
177
131
55
177
131
55
177
131
55
177
131
55
177
140
64
186
140
64
186
131
55
177
140
64
186
151
75
197
151
75
197
151
75
197
151
75
197
151
75
197
140
64
186
131
55
177
121
45
167
121
45
167
131
55
177
131
55
177
131
55
177
131
55
177
151
75
197
131
55
177
131
55
177
131
55
177
140
64
186
140
64
186
140
64
186
131
55
177
131
55
177
121
45
167
121
45
167
131
55
177
121
45
167
121
45
167
115
39
161
115
39
161
115
39
161
121
45
167
140
64
186
131
55
177
131
55
177
140
64
186
131
55
177
131
55
177
151
75
197
140
64
186
131
55
177
140
64
186
140
64
186
140
64
186
131
55
177
131
55
177
140
64
186
140
64
186
140
64
186
140
64
186
131
55
177
131
55
177
