P3
# Created by GIMP version 2.10.36 PNM plug-in
16 16
255
66
66
66
66
66
66
67
67
67
71
71
71
71
71
71
66
66
66
66
66
66
66
66
66
66
66
66
66
66
66
66
66
66
66
66
66
66
66
66
71
71
71
71
71
71
67
67
67
76
76
76
76
76
76
76
76
76
76
76
76
76
76
76
65
65
65
76
76
76
65
65
65
84
84
84
65
65
65
65
65
65
76
76
76
76
76
76
76
76
76
76
76
76
76
76
76
84
84
84
76
76
76
51
51
51
51
51
51
51
51
51
51
51
51
58
58
58
51
51
51
58
58
58
58
58
58
58
58
58
58
58
58
51
51
51
51
51
51
84
84
84
76
76
76
76
76
76
76
76
76
51
51
51
84
84
84
84
84
84
76
76
76
76
76
76
76
76
76
76
76
76
65
65
65
76
76
76
76
76
76
76
76
76
51
51
51
76
76
76
76
76
76
65
65
65
65
65
65
51
51
51
76
76
76
65
65
65
65
65
65
65
65
65
65
65
65
65
65
65
65
65
65
65
65
65
65
65
65
76
76
76
58
58
58
65
65
65
65
65
65
65
65
65
76
76
76
58
58
58
76
76
76
65
65
65
51
51
51
51
51
51
58
58
58
58
58
58
51
51
51
51
51
51
65
65
65
76
76
76
51
51
51
65
65
65
76
76
76
76
76
76
65
65
65
51
51
51
65
65
65
65
65
65
51
51
51
65
65
65
65
65
65
65
65
65
65
65
65
51
51
51
65
65
65
65
65
65
51
51
51
76
76
76
65
65
65
65
65
65
65
65
65
58
58
58
76
76
76
65
65
65
51
51
51
65
65
65
58
58
58
58
58
58
65
65
65
58
58
58
65
65
65
76
76
76
58
58
58
65
65
65
65
65
65
65
65
65
65
65
65
58
58
58
76
76
76
65
65
65
51
51
51
65
65
65
58
58
58
51
51
51
65
65
65
51
51
51
65
65
65
76
76
76
51
51
51
65
65
65
65
65
65
65
65
65
65
65
65
58
58
58
76
76
76
65
65
65
51
51
51
65
65
65
65
65
65
65
65
65
65
65
65
58
58
58
65
65
65
65
65
65
51
51
51
65
65
65
65
65
65
65
65
65
65
65
65
51
51
51
76
76
76
65
65
65
51
51
51
51
51
51
51
51
51
51
51
51
58
58
58
58
58
58
65
65
65
76
76
76
58
58
58
65
65
65
65
65
65
65
65
65
65
65
65
58
58
58
76
76
76
65
65
65
65
65
65
65
65
65
65
65
65
65
65
65
65
65
65
65
65
65
65
65
65
76
76
76
51
51
51
65
65
65
65
65
65
65
65
65
76
76
76
58
58
58
76
76
76
76
76
76
65
65
65
76
76
76
76
76
76
76
76
76
76
76
76
76
76
76
84
84
84
76
76
76
51
51
51
65
65
65
76
76
76
76
76
76
76
76
76
58
58
58
51
51
51
58
58
58
51
51
51
51
51
51
51
51
51
51
51
51
51
51
51
51
51
51
51
51
51
51
51
51
51
51
51
76
76
76
76
76
76
76
76
76
76
76
76
76
76
76
76
76
76
65
65
65
65
65
65
76
76
76
65
65
65
65
65
65
84
84
84
65
65
65
65
65
65
76
76
76
76
76
76
76
76
76
76
76
76
76
76
76
76
76
76
76
76
76
76
76
76
76
76
76
65
65
65
76
76
76
65
65
65
84
84
84
65
65
65
65
65
65
76
76
76
76
76
76
76
76
76
76
76
76
76
76
76
