P3
# Created by GIMP version 2.10.36 PNM plug-in
16 16
255
105
105
105
105
105
105
105
105
105
105
105
105
105
105
105
105
105
105
105
105
105
105
105
105
105
105
105
105
105
105
105
105
105
105
105
105
105
105
105
105
105
105
105
105
105
105
105
105
105
105
105
105
105
105
105
105
105
105
105
105
105
105
105
105
105
105
105
105
105
105
105
105
105
105
105
105
105
105
105
105
105
105
105
105
105
105
105
105
105
105
105
105
105
105
105
105
105
105
105
105
105
105
105
105
105
105
105
105
105
105
105
105
105
105
105
105
105
105
105
105
105
105
105
105
105
105
105
105
105
105
105
105
105
105
105
105
105
105
105
105
105
105
105
105
105
105
105
105
105
105
105
105
105
105
105
105
105
105
105
105
105
105
105
105
105
105
105
105
105
105
105
105
105
105
105
105
105
105
105
105
105
105
105
105
105
105
105
105
105
105
105
105
105
105
105
105
105
105
105
105
105
105
105
105
105
105
105
105
105
105
105
105
105
105
105
105
105
105
105
105
105
105
105
105
105
105
105
105
105
105
105
105
105
105
105
105
105
105
105
105
105
105
105
105
105
105
105
105
105
105
105
105
105
105
105
105
105
105
105
105
105
105
105
105
105
105
105
105
105
105
105
105
105
105
105
105
105
105
105
105
105
105
105
105
105
105
105
105
105
105
105
105
105
105
105
105
105
105
105
105
105
105
105
105
105
105
105
105
105
105
105
105
105
105
105
105
105
105
105
105
105
105
105
105
105
105
105
105
105
105
105
105
105
105
105
105
105
105
105
105
105
105
105
105
105
105
105
105
105
105
105
105
105
105
105
105
105
136
136
136
131
131
131
119
119
119
105
105
105
105
105
105
105
105
105
105
105
105
105
105
105
105
105
105
105
105
105
105
105
105
105
105
105
105
105
105
105
105
105
105
105
105
121
121
121
48
48
48
42
42
42
46
46
46
132
132
132
105
105
105
105
105
105
125
125
125
105
105
105
105
105
105
105
105
105
138
138
138
105
105
105
105
105
105
105
105
105
105
105
105
93
93
93
129
129
129
120
120
120
124
124
124
86
86
86
105
105
105
126
126
126
53
53
53
142
142
142
105
105
105
135
135
135
64
64
64
128
128
128
105
105
105
105
105
105
105
105
105
105
105
105
80
80
80
86
86
86
84
84
84
105
105
105
105
105
105
98
98
98
129
129
129
97
97
97
105
105
105
77
77
77
133
133
133
83
83
83
105
105
105
112
112
112
105
105
105
105
105
105
105
105
105
105
105
105
105
105
105
105
105
105
105
105
105
105
105
105
67
67
67
105
105
105
105
105
105
105
105
105
88
88
88
105
105
105
130
130
130
47
47
47
129
129
129
105
105
105
105
105
105
105
105
105
105
105
105
105
105
105
127
127
127
105
105
105
105
105
105
105
105
105
105
105
105
105
105
105
105
105
105
105
105
105
91
91
91
129
129
129
85
85
85
105
105
105
105
105
105
105
105
105
105
105
105
125
125
125
52
52
52
125
125
125
105
105
105
105
105
105
105
105
105
105
105
105
105
105
105
105
105
105
105
105
105
73
73
73
105
105
105
105
105
105
105
105
105
105
105
105
105
105
105
86
86
86
129
129
129
77
77
77
105
105
105
105
105
105
105
105
105
105
105
105
105
105
105
105
105
105
105
105
105
105
105
105
105
105
105
105
105
105
105
105
105
105
105
105
105
105
105
105
105
105
93
93
93
105
105
105
105
105
105
105
105
105
105
105
105
