P3
# Created by GIMP version 2.10.36 PNM plug-in
16 16
255
199
202
203
199
202
203
199
202
203
199
202
203
199
202
203
199
202
203
199
202
203
199
202
203
199
202
203
199
202
203
199
202
203
199
202
203
199
202
203
199
202
203
199
202
203
199
202
203
199
202
203
199
202
203
199
202
203
199
202
203
199
202
203
199
202
203
199
202
203
199
202
203
199
202
203
199
202
203
199
202
203
199
202
203
199
202
203
199
202
203
199
202
203
199
202
203
199
202
203
199
202
203
199
202
203
199
202
203
199
202
203
199
202
203
199
202
203
199
202
203
199
202
203
199
202
203
199
202
203
199
202
203
199
202
203
199
202
203
199
202
203
199
202
203
199
202
203
199
202
203
199
202
203
199
202
203
199
202
203
199
202
203
199
202
203
199
202
203
199
202
203
199
202
203
199
202
203
199
202
203
199
202
203
199
202
203
199
202
203
199
202
203
199
202
203
199
202
203
199
202
203
199
202
203
199
202
203
199
202
203
199
202
203
199
202
203
199
202
203
199
202
203
199
202
203
199
202
203
199
202
203
199
202
203
199
202
203
199
202
203
199
202
203
199
202
203
199
202
203
199
202
203
199
202
203
199
202
203
199
202
203
199
202
203
199
202
203
199
202
203
199
202
203
199
202
203
199
202
203
199
202
203
199
202
203
199
202
203
199
202
203
199
202
203
199
202
203
199
202
203
199
202
203
199
202
203
199
202
203
199
202
203
199
202
203
199
202
203
199
202
203
199
202
203
199
202
203
199
202
203
199
202
203
199
202
203
199
202
203
199
202
203
199
202
203
199
202
203
199
202
203
199
202
203
199
202
203
199
202
203
199
202
203
199
202
203
199
202
203
199
202
203
199
202
203
199
202
203
199
202
203
199
202
203
199
202
203
199
202
203
199
202
203
199
202
203
199
202
203
199
202
203
199
202
203
199
202
203
199
202
203
199
202
203
199
202
203
199
202
203
199
202
203
199
202
203
199
202
203
199
202
203
199
202
203
199
202
203
199
202
203
199
202
203
199
202
203
199
202
203
199
202
203
199
202
203
199
202
203
199
202
203
199
202
203
199
202
203
199
202
203
199
202
203
199
202
203
199
202
203
199
202
203
199
202
203
199
202
203
199
202
203
199
202
203
199
202
203
199
202
203
199
202
203
199
202
203
199
202
203
199
202
203
199
202
203
199
202
203
199
202
203
199
202
203
199
202
203
199
202
203
199
202
203
199
202
203
199
202
203
199
202
203
199
202
203
199
202
203
199
202
203
199
202
203
199
202
203
199
202
203
199
202
203
199
202
203
199
202
203
199
202
203
199
202
203
199
202
203
199
202
203
199
202
203
199
202
203
199
202
203
199
202
203
199
202
203
199
202
203
199
202
203
199
202
203
199
202
203
199
202
203
199
202
203
199
202
203
199
202
203
199
202
203
199
202
203
199
202
203
199
202
203
199
202
203
199
202
203
199
202
203
199
202
203
199
202
203
199
202
203
199
202
203
199
202
203
199
202
203
199
202
203
199
202
203
199
202
203
199
202
203
199
202
203
199
202
203
199
202
203
199
202
203
199
202
203
199
202
203
199
202
203
199
202
203
199
202
203
199
202
203
199
202
203
199
202
203
199
202
203
199
202
203
199
202
203
199
202
203
199
202
203
199
202
203
199
202
203
199
202
203
199
202
203
199
202
203
199
202
203
199
202
203
199
202
203
199
202
203
199
202
203
199
202
203
199
202
203
199
202
203
199
202
203
199
202
203
