P3
# Created by GIMP version 2.10.36 PNM plug-in
16 16
255
204
206
207
201
201
201
191
194
194
201
204
205
201
203
205
191
193
193
185
187
188
192
196
199
201
204
207
195
199
202
189
193
195
190
195
196
190
196
196
206
209
209
197
200
200
201
201
201
205
207
208
203
205
207
201
204
205
196
199
201
207
210
212
208
210
212
202
207
208
203
205
207
199
203
203
199
202
203
198
202
203
195
199
199
186
192
193
190
195
195
197
201
203
202
206
208
216
221
222
198
200
201
200
202
203
209
211
212
195
200
201
205
208
210
227
231
234
211
214
216
192
195
198
196
202
202
195
201
201
197
203
203
192
197
198
192
196
198
195
201
204
213
218
218
214
216
217
212
213
215
194
196
197
203
205
206
197
201
203
205
207
210
205
209
211
191
195
196
203
206
208
199
202
203
204
208
209
213
217
219
206
209
211
201
203
206
204
206
209
218
220
222
213
215
217
217
220
220
201
204
206
190
192
194
191
195
197
206
208
211
213
216
218
198
201
202
197
202
203
216
219
218
214
217
219
218
221
223
221
224
225
207
211
212
206
210
212
209
212
211
206
209
208
210
212
212
207
209
210
199
201
201
196
200
201
184
187
190
210
215
218
211
214
215
191
195
195
196
200
201
198
201
201
215
219
220
231
233
234
219
221
223
209
211
213
200
203
203
213
217
216
205
208
205
201
205
204
206
208
210
201
202
204
182
186
187
194
198
200
205
209
209
201
205
206
202
205
207
191
194
196
201
205
206
222
225
226
221
224
225
204
207
208
202
205
204
209
211
210
203
205
203
204
209
210
201
205
204
193
196
197
181
183
184
186
190
191
193
198
198
212
215
217
220
223
225
194
199
201
187
192
193
210
213
214
213
216
217
198
203
202
214
215
216
210
212
213
196
198
197
190
194
193
189
194
195
182
185
185
188
191
193
186
190
192
191
196
198
206
210
212
213
216
218
194
199
201
190
195
196
203
206
208
209
212
212
194
197
200
198
199
202
216
220
220
195
199
200
177
182
182
189
192
191
203
205
206
204
207
208
190
193
194
190
194
195
202
206
208
202
206
209
202
207
209
205
209
211
208
212
214
204
206
208
201
204
206
213
216
217
198
201
202
176
182
181
165
170
171
191
195
194
209
210
210
190
194
195
181
185
185
186
190
191
201
206
207
196
201
203
227
231
231
224
228
229
218
221
224
201
205
206
201
204
205
212
215
216
188
192
192
180
184
184
176
180
180
210
212
214
202
205
206
191
195
196
191
196
196
189
194
194
188
193
195
194
199
201
212
216
218
219
222
225
207
211
213
202
206
207
196
200
200
209
211
212
183
188
189
189
194
195
194
198
199
183
188
189
188
194
194
190
195
196
192
196
198
184
189
190
191
196
197
202
206
208
204
207
209
205
209
211
200
203
206
203
207
208
210
213
214
197
201
202
185
189
189
198
202
202
181
186
186
182
184
187
194
197
199
190
194
194
185
188
189
181
184
184
186
190
192
197
200
202
189
194
195
195
199
200
198
201
203
194
197
199
186
191
191
202
205
206
198
202
203
206
208
209
195
199
198
193
197
197
199
202
203
190
196
197
198
203
204
204
207
209
184
188
189
184
188
188
185
190
190
194
198
198
196
200
201
191
195
196
194
198
198
199
205
204
203
205
206
200
202
203
205
209
208
195
199
200
212
214
216
202
205
207
197
202
203
212
216
217
194
198
199
188
193
194
187
194
194
191
196
196
195
199
201
193
197
198
201
205
204
199
202
203
