P3
# Created by GIMP version 2.10.36 PNM plug-in
16 16
255
46
13
36
36
3
26
37
4
27
42
9
32
47
14
37
51
18
41
52
19
42
51
18
41
51
18
41
51
18
41
52
19
42
40
7
30
41
8
31
41
8
31
41
8
31
42
9
32
58
25
48
88
55
78
88
55
78
90
57
80
93
60
83
94
61
84
93
60
83
93
60
83
86
53
76
86
53
76
86
53
76
86
53
76
86
53
76
86
53
76
86
53
76
45
12
35
52
19
42
86
53
76
86
53
76
86
53
76
86
53
76
86
53
76
86
53
76
86
53
76
86
53
76
86
53
76
86
53
76
86
53
76
86
53
76
86
53
76
86
53
76
45
12
35
39
6
29
78
45
68
76
43
66
76
43
66
76
43
66
76
43
66
76
43
66
80
47
70
80
47
70
80
47
70
80
47
70
73
40
63
72
39
62
70
37
60
70
37
60
33
0
23
52
19
42
96
63
86
94
61
84
95
62
85
94
61
84
96
63
86
95
62
85
95
62
85
95
62
85
86
53
76
86
53
76
86
53
76
86
53
76
86
53
76
86
53
76
46
13
36
52
19
42
86
53
76
86
53
76
86
53
76
86
53
76
86
53
76
86
53
76
86
53
76
86
53
76
86
53
76
86
53
76
86
53
76
86
53
76
86
53
76
86
53
76
46
13
36
41
8
31
76
43
66
76
43
66
76
43
66
76
43
66
75
42
65
80
47
70
80
47
70
80
47
70
80
47
70
73
40
63
73
40
63
73
40
63
72
39
62
73
40
63
33
0
23
52
19
42
97
64
87
94
61
84
93
60
83
89
56
79
89
56
79
89
56
79
89
56
79
86
53
76
86
53
76
86
53
76
86
53
76
86
53
76
86
53
76
86
53
76
45
12
35
53
20
43
86
53
76
86
53
76
86
53
76
86
53
76
86
53
76
86
53
76
86
53
76
86
53
76
86
53
76
86
53
76
86
53
76
86
53
76
86
53
76
86
53
76
45
12
35
39
6
29
78
45
68
76
43
66
76
43
66
80
47
70
80
47
70
80
47
70
77
44
67
77
44
67
80
47
70
73
40
63
73
40
63
70
37
60
70
37
60
76
43
66
33
0
23
53
20
43
98
65
88
99
66
89
99
66
89
98
65
88
98
65
88
98
65
88
92
59
82
92
59
82
92
59
82
92
59
82
86
53
76
86
53
76
86
53
76
86
53
76
44
11
34
54
21
44
86
53
76
86
53
76
86
53
76
86
53
76
86
53
76
86
53
76
86
53
76
86
53
76
86
53
76
86
53
76
86
53
76
86
53
76
86
53
76
86
53
76
43
10
33
39
6
29
76
43
66
76
43
66
76
43
66
76
43
66
76
43
66
81
48
71
81
48
71
80
47
70
80
47
70
72
39
62
72
39
62
72
39
62
70
37
60
73
40
63
33
0
23
54
21
44
98
65
88
96
63
86
95
62
85
98
65
88
98
65
88
98
65
88
97
64
87
94
61
84
86
53
76
86
53
76
86
53
76
86
53
76
86
53
76
86
53
76
42
9
32
53
20
43
86
53
76
86
53
76
86
53
76
86
53
76
86
53
76
86
53
76
86
53
76
86
53
76
86
53
76
86
53
76
86
53
76
86
53
76
86
53
76
86
53
76
41
8
31
47
14
37
42
9
32
42
9
32
41
8
31
41
8
31
41
8
31
40
7
30
39
6
29
44
11
34
45
12
35
44
11
34
44
11
34
36
3
26
36
3
26
36
3
26
37
4
27
