P3
# Created by GIMP version 2.10.36 PNM plug-in
16 16
255
77
73
77
77
73
77
77
73
77
77
73
77
77
73
77
77
73
77
77
73
77
77
73
77
77
73
77
77
73
77
77
73
77
77
73
77
77
73
77
77
73
77
77
73
77
77
73
77
77
73
77
77
73
77
77
73
77
77
73
77
77
73
77
77
73
77
77
73
77
77
73
77
77
73
77
77
73
77
77
73
77
77
73
77
77
73
77
77
73
77
77
73
77
77
73
77
77
73
77
77
73
77
77
73
77
77
73
77
77
73
77
77
73
77
77
73
77
77
73
77
77
73
77
77
73
77
77
73
77
77
73
77
77
73
77
77
73
77
77
73
77
77
73
77
77
73
77
77
73
77
77
73
77
77
73
77
77
73
77
77
73
77
77
73
77
77
73
77
77
73
77
77
73
77
77
73
77
77
73
77
77
73
77
77
73
77
77
73
77
77
73
77
77
73
77
77
73
77
77
73
77
77
73
77
77
73
77
77
73
77
77
73
77
77
73
77
77
73
77
77
73
77
77
73
77
77
73
77
77
73
77
77
73
77
77
73
77
77
73
77
77
73
77
77
73
77
77
73
77
77
73
77
77
73
77
77
73
77
77
73
77
77
73
77
77
73
77
77
73
77
77
73
77
77
73
77
77
73
77
77
73
77
77
73
77
77
73
77
77
73
77
77
73
77
77
73
77
77
73
77
77
73
77
77
73
77
77
73
77
77
73
77
77
73
77
77
73
77
77
73
77
77
73
77
77
73
77
77
73
77
77
73
77
77
73
77
77
73
77
77
73
77
77
73
77
77
73
77
77
73
77
77
73
77
77
73
77
77
73
77
77
73
77
77
73
77
77
73
77
77
73
77
77
73
77
77
73
77
77
73
77
77
73
77
77
73
77
77
73
77
77
73
77
77
73
77
77
73
77
77
73
77
77
73
77
77
73
77
77
73
77
77
73
77
77
73
77
77
73
77
77
73
77
77
73
77
77
73
77
77
73
77
77
73
77
77
73
77
77
73
77
77
73
77
77
73
77
77
73
77
77
73
77
77
73
77
77
73
77
77
73
77
77
73
77
77
73
77
77
73
77
77
73
77
77
73
77
77
73
77
77
73
77
77
73
77
77
73
77
77
73
77
77
73
77
77
73
77
77
73
77
77
73
77
77
73
77
77
73
77
77
73
77
77
73
77
77
73
77
77
73
77
77
73
77
77
73
77
77
73
77
77
73
77
77
73
77
77
73
77
77
73
77
77
73
77
77
73
77
77
73
77
77
73
77
77
73
77
77
73
77
77
73
77
77
73
77
77
73
77
77
73
77
77
73
77
77
73
77
77
73
77
77
73
77
77
73
77
77
73
77
77
73
77
77
73
77
77
73
77
77
73
77
77
73
77
77
73
77
77
73
77
77
73
77
77
73
77
77
73
77
77
73
77
77
73
77
77
73
77
77
73
77
77
73
77
77
73
77
77
73
77
77
73
77
77
73
77
77
73
77
77
73
77
77
73
77
77
73
77
77
73
77
77
73
77
77
73
77
77
73
77
77
73
77
77
73
77
77
73
77
77
73
77
77
73
77
77
73
77
77
73
77
77
73
77
77
73
77
77
73
77
77
73
77
77
73
77
77
73
77
77
73
77
77
73
77
77
73
77
77
73
77
77
73
77
77
73
77
77
73
77
77
73
77
77
73
77
77
73
77
77
73
77
77
73
77
77
73
77
77
73
77
77
73
77
77
73
77
77
73
77
77
73
77
77
73
77
