P3
# Created by GIMP version 2.10.36 PNM plug-in
16 16
255
30
30
30
30
30
30
21
21
21
21
21
21
13
13
13
21
21
21
21
21
21
5
5
5
5
5
5
21
21
21
21
21
21
13
13
13
5
5
5
5
5
5
13
13
13
21
21
21
21
21
21
21
21
21
21
21
21
13
13
13
21
21
21
13
13
13
5
5
5
5
5
5
5
5
5
21
21
21
13
13
13
5
5
5
13
13
13
21
21
21
30
30
30
30
30
30
21
21
21
13
13
13
5
5
5
5
5
5
5
5
5
13
13
13
21
21
21
21
21
21
5
5
5
5
5
5
5
5
5
5
5
5
21
21
21
21
21
21
21
21
21
21
21
21
13
13
13
5
5
5
5
5
5
13
13
13
21
21
21
40
40
40
30
30
30
21
21
21
21
21
21
21
21
21
21
21
21
5
5
5
21
21
21
21
21
21
13
13
13
5
5
5
5
5
5
5
5
5
13
13
13
21
21
21
30
30
30
30
30
30
21
21
21
21
21
21
21
21
21
13
13
13
5
5
5
5
5
5
21
21
21
13
13
13
5
5
5
5
5
5
21
21
21
5
5
5
21
21
21
21
21
21
21
21
21
21
21
21
21
21
21
13
13
13
5
5
5
5
5
5
5
5
5
5
5
5
5
5
5
13
13
13
21
21
21
21
21
21
5
5
5
13
13
13
30
30
30
21
21
21
21
21
21
13
13
13
13
13
13
5
5
5
5
5
5
13
13
13
13
13
13
21
21
21
21
21
21
21
21
21
21
21
21
21
21
21
5
5
5
21
21
21
21
21
21
21
21
21
13
13
13
5
5
5
13
13
13
21
21
21
21
21
21
30
30
30
40
40
40
30
30
30
21
21
21
21
21
21
13
13
13
5
5
5
5
5
5
21
21
21
13
13
13
13
13
13
5
5
5
13
13
13
21
21
21
30
30
30
30
30
30
21
21
21
21
21
21
21
21
21
13
13
13
5
5
5
5
5
5
5
5
5
5
5
5
5
5
5
13
13
13
21
21
21
13
13
13
21
21
21
30
30
30
21
21
21
21
21
21
13
13
13
13
13
13
5
5
5
30
30
30
21
21
21
5
5
5
5
5
5
21
21
21
13
13
13
21
21
21
13
13
13
21
21
21
21
21
21
21
21
21
13
13
13
5
5
5
5
5
5
5
5
5
21
21
21
21
21
21
13
13
13
13
13
13
21
21
21
30
30
30
21
21
21
13
13
13
5
5
5
21
21
21
13
13
13
13
13
13
21
21
21
21
21
21
13
13
13
5
5
5
5
5
5
13
13
13
21
21
21
21
21
21
30
30
30
5
5
5
5
5
5
5
5
5
21
21
21
13
13
13
13
13
13
30
30
30
40
40
40
30
30
30
21
21
21
13
13
13
21
21
21
30
30
30
30
30
30
21
21
21
21
21
21
5
5
5
5
5
5
5
5
5
13
13
13
21
21
21
30
30
30
40
40
40
21
21
21
5
5
5
5
5
5
21
21
21
30
30
30
21
21
21
21
21
21
13
13
13
5
5
5
5
5
5
5
5
5
13
13
13
21
21
21
30
30
30
21
21
21
13
13
13
5
5
5
5
5
5
13
13
13
21
21
21
21
21
21
21
21
21
13
13
13
5
5
5
5
5
5
13
13
13
21
21
21
21
21
21
21
21
21
21
21
21
13
13
13
21
21
21
21
21
21
13
13
13
21
21
21
21
21
21
21
21
21
13
13
13
5
5
5
5
5
5
5
5
5
