P3
# Created by GIMP version 2.10.36 PNM plug-in
16 16
255
106
106
106
104
104
104
104
104
104
104
104
104
105
105
105
109
109
109
115
115
115
112
112
112
106
106
106
114
114
114
113
113
113
106
106
106
102
102
102
102
102
102
103
103
103
106
106
106
106
106
106
107
107
107
114
114
114
115
115
115
112
112
112
109
109
109
107
107
107
106
106
106
107
107
107
109
109
109
114
114
114
112
112
112
103
103
103
107
107
107
107
107
107
104
104
104
107
107
107
103
103
103
107
107
107
106
106
106
104
104
104
102
102
102
104
104
104
106
106
106
111
111
111
109
109
109
110
110
110
109
109
109
107
107
107
114
114
114
109
109
109
109
109
109
110
110
110
113
113
113
109
109
109
105
105
105
102
102
102
102
102
102
104
104
104
109
109
109
107
107
107
106
106
106
106
106
106
108
108
108
107
107
107
107
107
107
107
107
107
106
106
106
109
109
109
114
114
114
113
113
113
111
111
111
110
110
110
101
101
101
103
103
103
104
104
104
104
104
104
104
104
104
115
115
115
115
115
115
108
108
108
106
106
106
109
109
109
106
106
106
114
114
114
109
109
109
111
111
111
107
107
107
105
105
105
108
108
108
108
108
108
107
107
107
107
107
107
107
107
107
109
109
109
110
110
110
110
110
110
109
109
109
106
106
106
114
114
114
111
111
111
112
112
112
110
110
110
107
107
107
106
106
106
104
104
104
106
106
106
110
110
110
105
105
105
104
104
104
106
106
106
109
109
109
113
113
113
112
112
112
110
110
110
105
105
105
111
111
111
107
107
107
106
106
106
104
104
104
111
111
111
111
111
111
104
104
104
112
112
112
113
113
113
107
107
107
106
106
106
107
107
107
107
107
107
109
109
109
111
111
111
111
111
111
111
111
111
112
112
112
111
111
111
102
102
102
105
105
105
104
104
104
105
105
105
105
105
105
106
106
106
110
110
110
113
113
113
113
113
113
113
113
113
114
114
114
115
115
115
107
107
107
111
111
111
107
107
107
105
105
105
104
104
104
104
104
104
104
104
104
105
105
105
104
104
104
107
107
107
107
107
107
105
105
105
105
105
105
110
110
110
110
110
110
116
116
116
113
113
113
107
107
107
108
108
108
107
107
107
104
104
104
103
103
103
115
115
115
116
116
116
104
104
104
109
109
109
110
110
110
115
115
115
114
114
114
108
108
108
108
108
108
107
107
107
104
104
104
103
103
103
107
107
107
108
108
108
105
105
105
104
104
104
108
108
108
109
109
109
106
106
106
113
113
113
115
115
115
111
111
111
110
110
110
110
110
110
113
113
113
112
112
112
107
107
107
104
104
104
105
105
105
106
106
106
107
107
107
107
107
107
105
105
105
104
104
104
105
105
105
116
116
116
113
113
113
106
106
106
103
103
103
105
105
105
108
108
108
107
107
107
109
109
109
109
109
109
110
110
110
110
110
110
113
113
113
109
109
109
115
115
115
107
107
107
104
104
104
106
106
106
105
105
105
102
102
102
104
104
104
105
105
105
108
108
108
116
116
116
114
114
114
107
107
107
109
109
109
107
107
107
103
103
103
102
102
102
106
106
106
105
105
105
104
104
104
106
106
106
107
107
107
110
110
110
110
110
110
107
107
107
105
105
105
105
105
105
111
111
111
107
107
107
109
109
109
109
109
109
109
109
109
109
109
109
111
111
111
114
114
114
110
110
110
108
108
108
110
110
110
109
109
109
105
105
105
104
104
104
103
103
103
107
107
107
109
109
109
