P3
# Created by GIMP version 2.10.36 PNM plug-in
16 16
255
220
220
220
210
210
210
214
214
214
217
217
217
229
229
229
230
230
230
206
206
206
219
219
219
235
235
235
196
196
196
204
204
204
217
217
217
209
209
209
224
224
224
199
199
199
209
209
209
210
210
210
207
207
207
219
219
219
224
224
224
201
201
201
202
202
202
210
210
210
225
225
225
201
201
201
194
194
194
211
211
211
223
223
223
215
215
215
208
208
208
217
217
217
216
216
216
217
217
217
219
219
219
221
221
221
210
210
210
215
215
215
214
214
214
201
201
201
216
216
216
193
193
193
192
192
192
203
203
203
202
202
202
223
223
223
201
201
201
207
207
207
223
223
223
198
198
198
212
212
212
210
210
210
202
202
202
201
201
201
210
210
210
216
216
216
223
223
223
216
216
216
201
201
201
191
191
191
216
216
216
220
220
220
223
223
223
208
208
208
200
200
200
199
199
199
199
199
199
193
193
193
202
202
202
192
192
192
201
201
201
210
210
210
223
223
223
220
220
220
216
216
216
200
200
200
210
210
210
216
216
216
220
220
220
198
198
198
201
201
201
214
214
214
201
201
201
179
179
179
192
192
192
202
202
202
191
191
191
201
201
201
216
216
216
210
210
210
191
191
191
201
201
201
191
191
191
191
191
191
210
210
210
214
214
214
209
209
209
211
211
211
217
217
217
197
197
197
174
174
174
191
191
191
201
201
201
216
216
216
201
201
201
191
191
191
174
174
174
174
174
174
201
201
201
192
192
192
193
193
193
215
215
215
213
213
213
231
231
231
221
221
221
216
216
216
191
191
191
201
201
201
209
209
209
220
220
220
191
191
191
174
174
174
174
174
174
191
191
191
191
191
191
201
201
201
215
215
215
214
214
214
210
210
210
233
233
233
203
203
203
219
219
219
201
201
201
191
191
191
216
216
216
223
223
223
191
191
191
201
201
201
191
191
191
191
191
191
201
201
201
216
216
216
220
220
220
211
211
211
229
229
229
229
229
229
210
210
210
196
196
196
210
210
210
220
220
220
223
223
223
216
216
216
201
201
201
191
191
191
201
201
201
220
220
220
220
220
220
191
191
191
202
202
202
214
214
214
219
219
219
210
210
210
190
190
190
200
200
200
216
216
216
202
202
202
193
193
193
201
201
201
216
216
216
216
216
216
220
220
220
201
201
201
201
201
201
191
191
191
193
193
193
211
211
211
234
234
234
198
198
198
214
214
214
216
216
216
201
201
201
192
192
192
178
178
178
194
194
194
202
202
202
223
223
223
217
217
217
201
201
201
191
191
191
201
201
201
193
193
193
207
207
207
215
215
215
216
216
216
215
215
215
211
211
211
191
191
191
201
201
201
191
191
191
191
191
191
202
202
202
224
224
224
216
216
216
191
191
191
174
174
174
191
191
191
191
191
191
218
218
218
224
224
224
233
233
233
219
219
219
203
203
203
216
216
216
216
216
216
191
191
191
201
201
201
215
215
215
220
220
220
223
223
223
216
216
216
191
191
191
201
201
201
221
221
221
229
229
229
235
235
235
198
198
198
231
231
231
227
227
227
210
210
210
195
195
195
198
198
198
211
211
211
196
196
196
203
203
203
221
221
221
218
218
218
220
220
220
223
223
223
198
198
198
207
207
207
191
191
191
211
211
211
202
202
202
220
220
220
221
221
221
208
208
208
203
203
203
210
210
210
198
198
198
211
211
211
216
216
216
199
199
199
206
206
206
218
218
218
224
224
224
190
190
190
195
195
195
