P3
# Created by GIMP version 2.10.36 PNM plug-in
16 16
255
226
226
226
207
207
207
207
207
207
219
219
219
207
207
207
198
198
198
219
219
219
207
207
207
219
219
219
207
207
207
198
198
198
219
219
219
207
207
207
219
219
219
198
198
198
219
219
219
198
198
198
207
207
207
207
207
207
198
198
198
207
207
207
198
198
198
198
198
198
219
219
219
189
189
189
198
198
198
226
226
226
207
207
207
234
234
234
189
189
189
207
207
207
226
226
226
219
219
219
207
207
207
189
189
189
198
198
198
198
198
198
226
226
226
207
207
207
207
207
207
207
207
207
207
207
207
207
207
207
198
198
198
207
207
207
198
198
198
198
198
198
207
207
207
207
207
207
219
219
219
219
219
219
198
198
198
207
207
207
198
198
198
219
219
219
198
198
198
219
219
219
219
219
219
198
198
198
219
219
219
207
207
207
198
198
198
207
207
207
207
207
207
198
198
198
207
207
207
234
234
234
207
207
207
198
198
198
219
219
219
207
207
207
219
219
219
207
207
207
219
219
219
207
207
207
207
207
207
198
198
198
207
207
207
207
207
207
219
219
219
207
207
207
198
198
198
207
207
207
207
207
207
219
219
219
219
219
219
219
219
219
207
207
207
198
198
198
207
207
207
219
219
219
198
198
198
207
207
207
207
207
207
198
198
198
207
207
207
198
198
198
226
226
226
207
207
207
198
198
198
198
198
198
234
234
234
198
198
198
207
207
207
198
198
198
198
198
198
189
189
189
207
207
207
207
207
207
198
198
198
207
207
207
198
198
198
207
207
207
198
198
198
207
207
207
207
207
207
198
198
198
207
207
207
207
207
207
198
198
198
207
207
207
198
198
198
198
198
198
198
198
198
207
207
207
226
226
226
207
207
207
198
198
198
198
198
198
207
207
207
219
219
219
207
207
207
207
207
207
219
219
219
198
198
198
189
189
189
198
198
198
219
219
219
198
198
198
207
207
207
219
219
219
207
207
207
198
198
198
207
207
207
226
226
226
207
207
207
198
198
198
207
207
207
207
207
207
207
207
207
198
198
198
198
198
198
207
207
207
189
189
189
207
207
207
198
198
198
207
207
207
207
207
207
219
219
219
198
198
198
207
207
207
189
189
189
207
207
207
219
219
219
207
207
207
198
198
198
207
207
207
219
219
219
207
207
207
207
207
207
219
219
219
207
207
207
189
189
189
198
198
198
207
207
207
219
219
219
198
198
198
198
198
198
207
207
207
207
207
207
219
219
219
207
207
207
198
198
198
207
207
207
219
219
219
219
219
219
198
198
198
198
198
198
198
198
198
207
207
207
198
198
198
207
207
207
198
198
198
207
207
207
198
198
198
219
219
219
198
198
198
219
219
219
207
207
207
198
198
198
226
226
226
234
234
234
219
219
219
207
207
207
198
198
198
198
198
198
207
207
207
219
219
219
219
219
219
207
207
207
219
219
219
207
207
207
219
219
219
189
189
189
207
207
207
219
219
219
207
207
207
219
219
219
207
207
207
219
219
219
207
207
207
207
207
207
198
198
198
207
207
207
207
207
207
219
219
219
207
207
207
219
219
219
234
234
234
219
219
219
219
219
219
207
207
207
219
219
219
207
207
207
219
219
219
207
207
207
189
189
189
219
219
219
207
207
207
207
207
207
219
219
219
207
207
207
219
219
219
207
207
207
219
219
219
219
219
219
207
207
207
219
219
219
207
207
207
198
198
198
207
207
207
207
207
207
219
219
219
207
207
207
219
219
219
207
207
207
