P3
# Created by GIMP version 2.10.36 PNM plug-in
16 16
255
84
54
28
94
61
29
79
58
28
81
87
18
69
56
27
69
57
27
68
52
28
68
46
28
78
52
28
139
87
32
139
87
32
82
58
28
76
55
28
117
72
31
66
49
28
91
58
28
94
61
29
117
72
31
78
60
28
144
104
60
80
87
18
70
51
27
70
47
27
78
52
28
173
102
36
87
56
28
89
57
28
71
51
27
117
72
31
76
55
28
73
53
27
80
52
28
112
71
30
73
53
27
72
57
27
97
73
30
68
56
28
72
50
27
95
60
28
84
54
28
143
90
32
87
59
28
88
58
28
78
82
18
80
83
17
68
51
28
173
102
36
78
52
28
94
61
29
80
57
28
103
71
30
68
54
28
72
50
27
117
72
31
84
58
28
92
67
29
95
68
29
83
62
28
74
55
27
75
50
27
71
44
27
76
50
28
173
102
36
78
52
28
68
46
28
94
61
29
173
102
36
73
48
27
173
102
36
68
49
28
77
58
28
74
60
28
74
60
28
70
57
27
78
56
28
68
46
28
75
50
27
74
46
28
73
49
27
117
72
31
68
46
28
173
102
36
84
54
28
76
51
28
75
52
28
132
89
32
70
57
27
79
85
18
72
59
27
74
59
28
147
106
67
68
46
28
73
48
27
68
46
28
73
49
27
94
61
29
82
53
28
84
54
28
87
56
28
95
60
28
72
57
27
69
57
27
91
92
19
70
57
27
68
53
28
73
53
27
68
46
28
139
87
32
95
60
28
89
57
28
68
46
28
84
58
28
87
56
28
87
56
28
102
65
29
80
57
28
72
57
27
79
85
17
68
56
28
113
72
31
68
51
28
84
54
28
84
54
28
84
54
28
102
65
29
101
65
30
117
72
31
84
58
28
87
56
28
102
65
29
68
46
28
66
49
28
82
60
28
74
60
28
68
54
28
115
72
31
71
44
27
73
49
27
84
54
28
102
65
29
104
67
30
102
71
30
113
72
31
115
72
31
79
53
28
68
49
28
103
67
30
71
44
27
104
71
30
103
71
30
70
47
27
73
46
28
71
47
27
117
72
31
117
72
31
173
102
36
99
72
30
84
88
18
66
55
28
78
59
28
145
104
62
85
62
28
124
84
31
99
65
30
84
54
28
78
52
28
84
54
28
74
46
28
78
52
28
78
52
28
117
72
31
79
58
28
80
62
28
78
84
18
77
62
28
72
57
27
84
61
28
105
74
31
105
74
31
89
66
29
68
49
28
77
52
28
89
57
28
68
46
28
139
87
32
111
73
31
76
58
28
97
73
30
66
55
28
77
62
28
80
85
17
70
47
27
87
59
28
80
59
28
105
74
31
88
66
29
70
51
27
100
65
30
173
102
36
101
65
30
117
72
31
105
74
31
77
58
28
97
73
30
77
62
28
72
57
27
70
45
27
112
71
30
94
61
29
82
56
28
79
59
28
71
60
27
93
73
30
66
50
28
83
58
28
68
46
28
68
46
28
78
55
28
144
104
60
72
55
27
160
99
35
112
71
30
94
61
29
94
61
29
94
61
29
173
102
36
127
84
31
81
88
18
92
92
19
79
62
28
66
54
28
92
66
29
88
61
29
78
52
28
78
52
28
78
52
28
173
102
36
94
61
29
71
44
27
94
61
29
173
102
36
94
61
29
92
62
29
74
60
28
73
62
28
98
74
31
102
73
31
85
62
29
80
57
28
84
54
28
78
52
28
84
54
28
78
52
28
94
61
29
94
61
29
112
71
30
