P3
# Created by GIMP version 2.10.36 PNM plug-in
16 16
255
79
53
28
68
49
28
103
67
30
71
44
27
104
71
30
103
71
30
70
47
27
73
46
28
71
47
27
117
72
31
117
72
31
173
102
36
99
72
30
84
88
18
66
55
28
78
59
28
145
104
62
85
62
28
124
84
31
99
65
30
84
54
28
78
52
28
84
54
28
74
46
28
78
52
28
78
52
28
117
72
31
79
58
28
80
62
28
78
84
18
77
62
28
72
57
27
84
61
28
105
74
31
105
74
31
89
66
29
68
49
28
77
52
28
89
57
28
68
46
28
139
87
32
111
73
31
76
58
28
97
73
30
66
55
28
77
62
28
80
85
17
70
47
27
87
59
28
80
59
28
129
93
66
88
66
29
70
51
27
100
65
30
129
93
66
101
65
30
129
93
66
105
74
31
77
58
28
97
73
30
77
62
28
72
57
27
129
93
66
112
71
30
129
93
66
129
93
66
129
93
66
71
60
27
93
73
30
129
93
66
83
58
28
68
46
28
68
46
28
129
93
66
144
104
60
129
93
66
129
93
66
112
71
30
94
61
29
129
93
66
129
93
66
129
93
66
129
93
66
129
93
66
129
93
66
129
93
66
129
93
66
129
93
66
129
93
66
129
93
66
129
93
66
129
93
66
129
93
66
129
93
66
129
93
66
129
93
66
129
93
66
129
93
66
129
93
66
129
93
66
129
93
66
129
93
66
129
93
66
129
93
66
129
93
66
129
93
66
129
93
66
129
93
66
129
93
66
129
93
66
129
93
66
129
93
66
129
93
66
129
93
66
129
93
66
129
93
66
129
93
66
129
93
66
129
93
66
129
93
66
129
93
66
129
93
66
129
93
66
129
93
66
129
93
66
129
93
66
129
93
66
129
93
66
129
93
66
129
93
66
129
93
66
129
93
66
129
93
66
129
93
66
129
93
66
129
93
66
129
93
66
129
93
66
129
93
66
129
93
66
129
93
66
129
93
66
129
93
66
129
93
66
129
93
66
129
93
66
129
93
66
129
93
66
129
93
66
129
93
66
129
93
66
129
93
66
129
93
66
129
93
66
129
93
66
129
93
66
129
93
66
129
93
66
129
93
66
129
93
66
129
93
66
129
93
66
129
93
66
129
93
66
129
93
66
129
93
66
129
93
66
129
93
66
129
93
66
129
93
66
129
93
66
129
93
66
129
93
66
129
93
66
129
93
66
129
93
66
129
93
66
129
93
66
129
93
66
129
93
66
129
93
66
129
93
66
129
93
66
129
93
66
129
93
66
129
93
66
129
93
66
129
93
66
129
93
66
129
93
66
129
93
66
129
93
66
129
93
66
129
93
66
129
93
66
129
93
66
129
93
66
129
93
66
129
93
66
129
93
66
129
93
66
129
93
66
129
93
66
129
93
66
129
93
66
129
93
66
129
93
66
129
93
66
129
93
66
129
93
66
129
93
66
129
93
66
129
93
66
129
93
66
129
93
66
129
93
66
129
93
66
129
93
66
129
93
66
129
93
66
129
93
66
129
93
66
129
93
66
129
93
66
129
93
66
129
93
66
129
93
66
129
93
66
129
93
66
129
93
66
129
93
66
129
93
66
129
93
66
129
93
66
129
93
66
129
93
66
129
93
66
129
93
66
129
93
66
129
93
66
129
93
66
129
93
66
129
93
66
129
93
66
129
93
66
129
93
66
129
93
66
129
93
66
129
93
66
129
93
66
129
93
66
129
93
66
129
93
66
129
93
66
129
93
66
129
93
66
