P3
# Created by GIMP version 2.10.36 PNM plug-in
16 16
255
137
137
137
120
120
120
147
147
147
120
120
120
134
134
134
127
127
127
137
137
137
137
137
137
127
127
127
88
88
88
120
120
120
147
147
147
120
120
120
120
120
120
120
120
120
147
147
147
127
127
127
127
127
127
88
88
88
137
137
137
137
137
137
137
137
137
120
120
120
120
120
120
120
120
120
137
137
137
137
137
137
88
88
88
113
113
113
127
127
127
140
140
140
120
120
120
120
120
120
113
113
113
120
120
120
120
120
120
113
113
113
120
120
120
147
147
147
120
120
120
137
137
137
120
120
120
127
127
127
127
127
127
127
127
127
137
137
137
117
117
117
137
137
137
88
88
88
137
137
137
107
107
107
113
113
113
127
127
127
147
147
147
127
127
127
88
88
88
127
127
127
107
107
107
134
134
134
120
120
120
120
120
120
154
154
154
120
120
120
87
87
87
120
120
120
137
137
137
147
147
147
120
120
120
140
140
140
120
120
120
120
120
120
120
120
120
120
120
120
147
147
147
137
137
137
137
137
137
147
147
147
91
91
91
137
137
137
127
127
127
127
127
127
120
120
120
127
127
127
127
127
127
127
127
127
120
120
120
154
154
154
120
120
120
127
127
127
113
113
113
127
127
127
127
127
127
120
120
120
147
147
147
113
113
113
137
137
137
120
120
120
137
137
137
127
127
127
88
88
88
147
147
147
120
120
120
137
137
137
137
137
137
127
127
127
127
127
127
127
127
127
88
88
88
137
137
137
137
137
137
137
137
137
107
107
107
127
127
127
127
127
127
127
127
127
120
120
120
120
120
120
141
141
141
120
120
120
134
134
134
120
120
120
113
113
113
120
120
120
147
147
147
120
120
120
120
120
120
127
127
127
137
137
137
137
137
137
147
147
147
137
137
137
154
154
154
137
137
137
120
120
120
127
127
127
88
88
88
127
127
127
137
137
137
137
137
137
137
137
137
147
147
147
88
88
88
137
137
137
120
120
120
120
120
120
120
120
120
120
120
120
103
103
103
120
120
120
120
120
120
120
120
120
127
127
127
113
113
113
147
147
147
107
107
107
120
120
120
120
120
120
120
120
120
137
137
137
120
120
120
127
127
127
107
107
107
137
137
137
120
120
120
120
120
120
112
112
112
137
137
137
120
120
120
113
113
113
120
120
120
137
137
137
147
147
147
137
137
137
127
127
127
107
107
107
147
147
147
120
120
120
127
127
127
147
147
147
127
127
127
103
103
103
127
127
127
127
127
127
127
127
127
137
137
137
137
137
137
127
127
127
127
127
127
88
88
88
137
137
137
137
137
137
137
137
137
147
147
147
103
103
103
120
120
120
120
120
120
147
147
147
120
120
120
120
120
120
120
120
120
137
137
137
147
147
147
120
120
120
120
120
120
120
120
120
120
120
120
120
120
120
120
120
120
91
91
91
137
137
137
117
117
117
137
137
137
88
88
88
137
137
137
127
127
127
134
134
134
120
120
120
120
120
120
100
100
100
120
120
120
127
127
127
127
127
127
147
147
147
147
147
147
154
154
154
127
127
127
140
140
140
120
120
120
120
120
120
120
120
120
147
147
147
120
120
120
88
88
88
127
127
127
137
137
137
137
137
137
127
127
127
134
134
134
120
120
120
137
137
137
120
120
120
127
127
127
127
127
127
137
137
137
137
137
137
127
127
127
127
127
127
87
87
87
120
120
120
120
120
120
107
107
107
147
147
147
113
113
113
127
127
127
120
120
120
120
120
120
