P3
# Created by GIMP version 2.10.36 PNM plug-in
16 16
255
76
83
75
76
83
75
76
83
75
76
83
75
76
83
75
76
83
75
76
83
75
76
83
75
76
83
75
76
83
75
76
83
75
76
83
75
76
83
75
76
83
75
76
83
75
76
83
75
76
83
75
76
83
75
76
83
75
76
83
75
76
83
75
76
83
75
76
83
75
76
83
75
76
83
75
76
83
75
76
83
75
76
83
75
76
83
75
76
83
75
76
83
75
76
83
75
76
83
75
76
83
75
76
83
75
76
83
75
76
83
75
76
83
75
76
83
75
76
83
75
76
83
75
76
83
75
76
83
75
76
83
75
76
83
75
76
83
75
76
83
75
76
83
75
76
83
75
76
83
75
76
83
75
76
83
75
76
83
75
76
83
75
76
83
75
76
83
75
76
83
75
76
83
75
76
83
75
76
83
75
76
83
75
76
83
75
76
83
75
76
83
75
76
83
75
76
83
75
76
83
75
76
83
75
76
83
75
76
83
75
76
83
75
76
83
75
76
83
75
76
83
75
76
83
75
76
83
75
76
83
75
76
83
75
76
83
75
76
83
75
76
83
75
76
83
75
76
83
75
76
83
75
76
83
75
76
83
75
76
83
75
76
83
75
76
83
75
76
83
75
76
83
75
76
83
75
76
83
75
76
83
75
76
83
75
76
83
75
76
83
75
76
83
75
76
83
75
76
83
75
76
83
75
76
83
75
76
83
75
76
83
75
76
83
75
76
83
75
76
83
75
76
83
75
76
83
75
76
83
75
76
83
75
76
83
75
76
83
75
76
83
75
76
83
75
76
83
75
76
83
75
76
83
75
76
83
75
76
83
75
76
83
75
76
83
75
76
83
75
76
83
75
76
83
75
76
83
75
76
83
75
76
83
75
76
83
75
76
83
75
76
83
75
76
83
75
76
83
75
76
83
75
76
83
75
76
83
75
76
83
75
76
83
75
76
83
75
76
83
75
76
83
75
76
83
75
76
83
75
76
83
75
76
83
75
76
83
75
76
83
75
76
83
75
76
83
75
76
83
75
76
83
75
76
83
75
76
83
75
76
83
75
76
83
75
76
83
75
76
83
75
76
83
75
76
83
75
76
83
75
76
83
75
76
83
75
76
83
75
76
83
75
76
83
75
76
83
75
76
83
75
76
83
75
76
83
75
76
83
75
76
83
75
76
83
75
76
83
75
76
83
75
76
83
75
76
83
75
76
83
75
76
83
75
76
83
75
76
83
75
76
83
75
76
83
75
76
83
75
76
83
75
76
83
75
76
83
75
76
83
75
76
83
75
76
83
75
76
83
75
76
83
75
76
83
75
76
83
75
76
83
75
76
83
75
76
83
75
76
83
75
76
83
75
76
83
75
76
83
75
76
83
75
76
83
75
76
83
75
76
83
75
76
83
75
76
83
75
76
83
75
76
83
75
76
83
75
76
83
75
76
83
75
76
83
75
76
83
75
76
83
75
76
83
75
76
83
75
76
83
75
76
83
75
76
83
75
76
83
75
76
83
75
76
83
75
76
83
75
76
83
75
76
83
75
76
83
75
76
83
75
76
83
75
76
83
75
76
83
75
76
83
75
76
83
75
76
83
75
76
83
75
76
83
75
76
83
75
76
83
75
76
83
75
76
83
75
76
83
75
76
83
75
76
83
75
76
83
75
76
83
75
76
83
75
76
83
75
76
83
75
76
83
75
76
83
75
76
83
75
76
83
75
76
83
75
76
83
75
76
83
75
76
83
75
76
83
75
