P3
# Created by GIMP version 2.10.99 PNM plug-in
16 16
255
199
156
99
199
156
99
199
156
99
199
156
99
199
156
99
199
156
99
199
156
99
199
156
99
199
156
99
199
156
99
199
156
99
199
156
99
199
156
99
199
156
99
199
156
99
199
156
99
199
156
99
199
156
99
199
156
99
199
156
99
199
156
99
199
156
99
199
156
99
199
156
99
199
156
99
199
156
99
199
156
99
199
156
99
199
156
99
199
156
99
199
156
99
199
156
99
199
156
99
199
156
99
199
156
99
199
156
99
199
156
99
199
156
99
199
156
99
199
156
99
199
156
99
199
156
99
199
156
99
199
156
99
199
156
99
199
156
99
199
156
99
199
156
99
199
156
99
199
156
99
199
156
99
199
156
99
199
156
99
199
156
99
199
156
99
199
156
99
199
156
99
199
156
99
199
156
99
199
156
99
199
156
99
199
156
99
199
156
99
199
156
99
199
156
99
199
156
99
199
156
99
199
156
99
199
156
99
199
156
99
199
156
99
199
156
99
199
156
99
199
156
99
199
156
99
199
156
99
199
156
99
199
156
99
199
156
99
199
156
99
199
156
99
199
156
99
199
156
99
199
156
99
199
156
99
199
156
99
199
156
99
199
156
99
199
156
99
199
156
99
199
156
99
199
156
99
199
156
99
199
156
99
199
156
99
199
156
99
199
156
99
199
156
99
199
156
99
199
156
99
199
156
99
199
156
99
199
156
99
199
156
99
199
156
99
199
156
99
199
156
99
199
156
99
199
156
99
199
156
99
199
156
99
199
156
99
199
156
99
199
156
99
199
156
99
199
156
99
199
156
99
199
156
99
199
156
99
199
156
99
199
156
99
199
156
99
199
156
99
199
156
99
199
156
99
199
156
99
199
156
99
199
156
99
199
156
99
199
156
99
199
156
99
199
156
99
199
156
99
199
156
99
199
156
99
199
156
99
199
156
99
199
156
99
199
156
99
199
156
99
199
156
99
199
156
99
199
156
99
199
156
99
199
156
99
199
156
99
199
156
99
199
156
99
199
156
99
199
156
99
199
156
99
199
156
99
199
156
99
199
156
99
199
156
99
199
156
99
199
156
99
199
156
99
199
156
99
199
156
99
199
156
99
199
156
99
199
156
99
199
156
99
199
156
99
199
156
99
199
156
99
199
156
99
199
156
99
199
156
99
199
156
99
199
156
99
199
156
99
199
156
99
199
156
99
199
156
99
199
156
99
199
156
99
199
156
99
199
156
99
199
156
99
199
156
99
199
156
99
199
156
99
199
156
99
199
156
99
199
156
99
199
156
99
199
156
99
199
156
99
199
156
99
199
156
99
199
156
99
199
156
99
199
156
99
199
156
99
199
156
99
199
156
99
199
156
99
199
156
99
199
156
99
199
156
99
199
156
99
199
156
99
199
156
99
199
156
99
199
156
99
199
156
99
199
156
99
199
156
99
199
156
99
199
156
99
199
156
99
199
156
99
199
156
99
199
156
99
199
156
99
199
156
99
199
156
99
199
156
99
199
156
99
199
156
99
199
156
99
199
156
99
199
156
99
199
156
99
199
156
99
199
156
99
199
156
99
199
156
99
199
156
99
199
156
99
199
156
99
199
156
99
199
156
99
199
156
99
199
156
99
199
156
99
199
156
99
199
156
99
199
156
99
199
156
99
199
156
99
199
156
99
199
156
99
199
156
99
199
156
99
199
156
99
199
156
99
199
156
99
199
156
99
199
156
99
199
156
99
199
156
99
199
156
99
199
156
99
