P3
# Created by GIMP version 2.10.36 PNM plug-in
16 16
255
152
151
138
152
151
138
152
151
138
152
151
138
152
151
138
152
151
138
152
151
138
152
151
138
152
151
138
152
151
138
152
151
138
152
151
138
152
151
138
152
151
138
152
151
138
152
151
138
152
151
138
152
151
138
152
151
138
152
151
138
152
151
138
152
151
138
152
151
138
152
151
138
152
151
138
152
151
138
152
151
138
152
151
138
152
151
138
152
151
138
152
151
138
152
151
138
152
151
138
152
151
138
152
151
138
152
151
138
152
151
138
152
151
138
152
151
138
152
151
138
152
151
138
152
151
138
152
151
138
152
151
138
152
151
138
152
151
138
152
151
138
152
151
138
152
151
138
152
151
138
152
151
138
152
151
138
152
151
138
152
151
138
152
151
138
152
151
138
152
151
138
152
151
138
152
151
138
152
151
138
152
151
138
152
151
138
152
151
138
152
151
138
152
151
138
152
151
138
152
151
138
152
151
138
152
151
138
152
151
138
152
151
138
152
151
138
152
151
138
152
151
138
152
151
138
152
151
138
152
151
138
152
151
138
152
151
138
152
151
138
152
151
138
152
151
138
152
151
138
152
151
138
152
151
138
152
151
138
152
151
138
152
151
138
152
151
138
152
151
138
152
151
138
152
151
138
152
151
138
152
151
138
152
151
138
152
151
138
152
151
138
152
151
138
152
151
138
152
151
138
152
151
138
152
151
138
152
151
138
152
151
138
152
151
138
152
151
138
152
151
138
152
151
138
152
151
138
152
151
138
152
151
138
152
151
138
152
151
138
152
151
138
152
151
138
152
151
138
152
151
138
152
151
138
152
151
138
152
151
138
152
151
138
152
151
138
152
151
138
152
151
138
152
151
138
152
151
138
152
151
138
152
151
138
152
151
138
152
151
138
152
151
138
152
151
138
152
151
138
152
151
138
152
151
138
152
151
138
152
151
138
152
151
138
152
151
138
152
151
138
152
151
138
152
151
138
152
151
138
152
151
138
152
151
138
152
151
138
152
151
138
152
151
138
152
151
138
152
151
138
152
151
138
152
151
138
152
151
138
152
151
138
152
151
138
152
151
138
152
151
138
152
151
138
152
151
138
152
151
138
152
151
138
152
151
138
152
151
138
152
151
138
152
151
138
152
151
138
152
151
138
152
151
138
152
151
138
152
151
138
152
151
138
152
151
138
152
151
138
152
151
138
152
151
138
152
151
138
152
151
138
152
151
138
152
151
138
152
151
138
152
151
138
152
151
138
152
151
138
152
151
138
152
151
138
152
151
138
152
151
138
152
151
138
152
151
138
152
151
138
152
151
138
152
151
138
152
151
138
152
151
138
152
151
138
152
151
138
152
151
138
152
151
138
152
151
138
152
151
138
152
151
138
152
151
138
152
151
138
152
151
138
152
151
138
152
151
138
152
151
138
152
151
138
152
151
138
152
151
138
152
151
138
152
151
138
152
151
138
152
151
138
152
151
138
152
151
138
152
151
138
152
151
138
152
151
138
152
151
138
152
151
138
152
151
138
152
151
138
152
151
138
152
151
138
152
151
138
152
151
138
152
151
138
152
151
138
152
151
138
152
151
138
152
151
138
152
151
138
152
151
138
152
151
138
152
151
138
152
151
138
152
151
138
152
151
138
152
151
138
152
151
138
152
151
138
152
151
138
152
151
138
152
151
138
152
151
138
152
151
138
152
151
138
152
151
138
152
151
138
152
151
138
152
151
138
152
151
138
152
151
138
152
151
138
152
151
138
