P3
# Created by GIMP version 2.10.36 PNM plug-in
16 16
255
146
146
146
146
146
146
146
146
146
146
146
146
146
146
146
146
146
146
146
146
146
146
146
146
146
146
146
146
146
146
146
146
146
146
146
146
146
146
146
146
146
146
146
146
146
146
146
146
146
146
146
146
146
146
146
146
146
146
146
146
146
146
146
146
146
146
146
146
146
146
146
146
146
146
146
146
146
146
146
146
146
146
146
146
146
146
146
146
146
146
146
146
146
146
146
146
146
146
146
146
146
146
146
146
146
146
146
146
146
146
146
146
146
146
146
146
146
146
146
146
146
146
146
146
146
146
146
146
146
146
146
146
146
146
146
146
146
146
146
146
146
146
146
146
146
146
146
146
146
146
146
146
146
146
146
146
146
146
146
146
146
146
146
146
146
146
146
146
146
146
146
146
146
146
146
146
146
146
146
146
146
146
146
146
146
146
146
146
146
146
146
146
146
146
146
146
146
146
146
146
146
146
146
146
146
146
146
146
146
146
146
146
146
146
146
146
146
146
146
146
146
146
146
146
146
146
146
146
146
146
146
146
146
146
146
146
146
146
146
146
146
146
146
146
146
146
146
146
146
146
146
146
146
146
146
146
146
146
146
146
146
146
146
146
146
146
146
146
146
146
146
146
146
146
146
146
146
146
146
146
146
146
146
146
146
146
146
146
146
146
146
146
146
146
146
146
146
146
146
146
146
146
146
146
146
146
146
146
146
146
146
146
146
146
146
146
146
146
146
146
146
146
146
146
146
146
146
146
146
146
146
146
146
146
146
146
146
146
146
146
146
146
146
146
146
146
146
146
146
146
146
146
146
146
146
146
146
146
146
146
146
146
146
146
146
146
146
146
146
146
146
146
146
146
146
146
146
146
146
146
146
146
146
146
146
146
146
146
146
146
146
146
146
146
146
146
146
146
146
146
146
146
146
146
146
146
146
146
146
146
146
146
146
146
146
146
146
146
146
146
146
146
146
146
146
146
146
146
146
146
146
146
146
146
146
146
146
146
146
146
146
146
146
146
146
146
146
146
146
146
146
146
146
146
146
146
146
146
146
146
146
146
146
146
146
146
146
146
111
111
111
146
146
146
146
146
146
146
146
146
146
146
146
183
183
183
127
127
127
111
111
111
146
146
146
146
146
146
111
111
111
127
127
127
111
111
111
146
146
146
146
146
146
111
111
111
143
143
143
111
111
111
159
159
159
146
146
146
146
146
146
146
146
146
159
159
159
127
127
127
111
111
111
143
143
143
127
127
127
143
143
143
159
159
159
177
177
177
159
159
159
143
143
143
159
159
159
183
183
183
146
146
146
146
146
146
177
177
177
183
183
183
127
127
127
190
190
190
143
143
143
159
159
159
127
127
127
159
159
159
183
183
183
127
127
127
177
177
177
159
159
159
127
127
127
190
190
190
183
183
183
177
177
177
146
146
146
159
159
159
183
183
183
111
111
111
183
183
183
127
127
127
159
159
159
127
127
127
143
143
143
159
159
159
183
183
183
127
127
127
183
183
183
143
143
143
159
159
159
146
146
146
146
146
146
146
146
146
159
159
159
127
127
127
111
111
111
159
159
159
183
183
183
159
159
159
111
111
111
183
183
183
127
127
127
177
177
177
143
143
143
159
159
159
146
146
146
146
146
146
146
146
146
146
146
146
146
146
146
177
177
177
183
183
183
127
127
127
190
190
190
127
127
127
190
190
190
127
127
127
190
190
190
183
183
183
177
177
177
146
146
146
146
146
146
146
146
146
