P3
# Created by GIMP version 2.10.36 PNM plug-in
16 16
255
149
149
149
148
148
148
148
148
148
147
147
147
149
149
149
149
149
149
110
110
110
112
112
112
147
147
147
149
149
149
147
147
147
148
148
148
149
149
149
147
147
147
149
149
149
111
111
111
149
149
149
123
123
123
124
124
124
124
124
124
125
125
125
95
95
95
95
95
95
85
85
85
108
108
108
123
123
123
124
124
124
123
123
123
123
123
123
125
125
125
125
125
125
102
102
102
147
147
147
125
125
125
125
125
125
124
124
124
95
95
95
105
105
105
141
141
141
144
144
144
126
126
126
95
95
95
102
102
102
123
123
123
124
124
124
111
111
111
114
114
114
102
102
102
98
98
98
113
113
113
125
125
125
95
95
95
101
101
101
101
101
101
149
149
149
125
125
125
124
124
124
124
124
124
125
125
125
101
101
101
104
104
104
119
119
119
148
148
148
101
101
101
148
148
148
145
145
145
106
106
106
104
104
104
148
148
148
148
148
148
123
123
123
123
123
123
124
124
124
124
124
124
124
124
124
108
108
108
143
143
143
124
124
124
124
124
124
101
101
101
149
149
149
123
123
123
106
106
106
148
148
148
123
123
123
123
123
123
123
123
123
124
124
124
124
124
124
124
124
124
124
124
124
102
102
102
124
124
124
124
124
124
124
124
124
102
102
102
135
135
135
105
105
105
104
104
104
150
150
150
123
123
123
107
107
107
108
108
108
108
108
108
142
142
142
124
124
124
110
110
110
117
117
117
157
157
157
123
123
123
125
125
125
101
101
101
113
113
113
99
99
99
99
99
99
101
101
101
102
102
102
101
101
101
101
101
101
100
100
100
102
102
102
101
101
101
101
101
101
100
100
100
101
101
101
100
100
100
101
101
101
101
101
101
148
148
148
110
110
110
149
149
149
148
148
148
148
148
148
148
148
148
147
147
147
112
112
112
81
81
81
149
149
149
147
147
147
116
116
116
109
109
109
148
148
148
149
149
149
147
147
147
123
123
123
104
104
104
144
144
144
125
125
125
125
125
125
124
124
124
124
124
124
100
100
100
158
158
158
124
124
124
101
101
101
145
145
145
149
149
149
125
125
125
124
124
124
125
125
125
125
125
125
125
125
125
104
104
104
109
109
109
124
124
124
125
125
125
124
124
124
101
101
101
149
149
149
101
101
101
102
102
102
125
125
125
124
124
124
123
123
123
125
125
125
124
124
124
123
123
123
125
125
125
143
143
143
95
95
95
125
125
125
124
124
124
124
124
124
102
102
102
106
106
106
96
96
96
153
153
153
109
109
109
123
123
123
124
124
124
123
123
123
123
123
123
123
123
123
123
123
123
123
123
123
95
95
95
124
124
124
125
125
125
125
125
125
100
100
100
148
148
148
149
149
149
124
124
124
123
123
123
106
106
106
123
123
123
124
124
124
125
125
125
124
124
124
123
123
123
125
125
125
104
104
104
125
125
125
123
123
123
124
124
124
100
100
100
148
148
148
124
124
124
124
124
124
124
124
124
123
123
123
106
106
106
94
94
94
124
124
124
123
123
123
119
119
119
119
119
119
112
112
112
113
113
113
151
151
151
125
125
125
101
101
101
149
149
149
124
124
124
124
124
124
125
125
125
125
125
125
124
124
124
114
114
114
115
115
115
100
100
100
101
101
101
101
101
101
98
98
98
98
98
98
100
100
100
102
102
102
101
101
101
112
112
112
101
101
101
101
101
101
100
100
100
102
102
102
101
101
101
101
101
101
100
100
100
