P3
# Created by GIMP version 2.10.36 PNM plug-in
16 16
255
135
135
135
128
128
128
128
128
128
128
128
128
128
128
128
135
135
135
146
146
146
146
146
146
120
120
120
146
146
146
135
135
135
128
128
128
128
128
128
128
128
128
128
128
128
135
135
135
135
135
135
168
168
168
176
176
176
176
176
176
176
176
176
176
176
176
176
176
176
176
176
176
163
163
163
176
176
176
176
176
176
176
176
176
157
157
157
168
168
168
168
168
168
128
128
128
135
135
135
157
157
157
163
163
163
163
163
163
157
157
157
163
163
163
163
163
163
163
163
163
176
176
176
163
163
163
168
168
168
168
168
168
168
168
168
176
176
176
168
168
168
135
135
135
135
135
135
176
176
176
168
168
168
168
168
168
168
168
168
157
157
157
168
168
168
176
176
176
168
168
168
168
168
168
163
163
163
163
163
163
163
163
163
163
163
163
163
163
163
135
135
135
135
135
135
176
176
176
176
176
176
163
163
163
163
163
163
163
163
163
163
163
163
163
163
163
163
163
163
163
163
163
176
176
176
176
176
176
176
176
176
176
176
176
176
176
176
120
120
120
128
128
128
163
163
163
168
168
168
168
168
168
168
168
168
163
163
163
163
163
163
163
163
163
168
168
168
157
157
157
168
168
168
168
168
168
163
163
163
163
163
163
157
157
157
135
135
135
146
146
146
176
176
176
168
168
168
168
168
168
168
168
168
163
163
163
176
176
176
176
176
176
168
168
168
168
168
168
168
168
168
168
168
168
176
176
176
176
176
176
176
176
176
120
120
120
135
135
135
168
168
168
168
168
168
163
163
163
163
163
163
163
163
163
163
163
163
163
163
163
163
163
163
157
157
157
163
163
163
163
163
163
163
163
163
163
163
163
168
168
168
135
135
135
135
135
135
176
176
176
176
176
176
157
157
157
176
176
176
163
163
163
168
168
168
168
168
168
168
168
168
176
176
176
176
176
176
176
176
176
176
176
176
176
176
176
176
176
176
146
146
146
135
135
135
163
163
163
163
163
163
163
163
163
163
163
163
163
163
163
163
163
163
168
168
168
157
157
157
168
168
168
168
168
168
163
163
163
163
163
163
163
163
163
176
176
176
135
135
135
135
135
135
168
168
168
176
176
176
163
163
163
163
163
163
176
176
176
176
176
176
163
163
163
157
157
157
163
163
163
176
176
176
176
176
176
176
176
176
168
168
168
168
168
168
135
135
135
120
120
120
168
168
168
168
168
168
168
168
168
163
163
163
168
168
168
168
168
168
168
168
168
176
176
176
176
176
176
168
168
168
168
168
168
168
168
168
176
176
176
176
176
176
120
120
120
135
135
135
163
163
163
163
163
163
163
163
163
163
163
163
163
163
163
163
163
163
163
163
163
176
176
176
176
176
176
163
163
163
163
163
163
163
163
163
163
163
163
163
163
163
135
135
135
135
135
135
176
176
176
163
163
163
176
176
176
157
157
157
168
168
168
168
168
168
163
163
163
163
163
163
163
163
163
157
157
157
163
163
163
168
168
168
168
168
168
176
176
176
146
146
146
135
135
135
168
168
168
168
168
168
163
163
163
163
163
163
163
163
163
163
163
163
163
163
163
168
168
168
168
168
168
176
176
176
176
176
176
168
168
168
163
163
163
163
163
163
135
135
135
128
128
128
128
128
128
128
128
128
128
128
128
120
120
120
146
146
146
146
146
146
135
135
135
135
135
135
135
135
135
135
135
135
128
128
128
128
128
128
128
128
128
135
135
135
135
135
135
