P3
# Created by GIMP version 2.10.36 PNM plug-in
16 16
255
96
96
96
109
109
109
109
109
109
109
109
109
109
109
109
109
109
109
96
96
96
109
109
109
96
96
96
90
90
90
90
90
90
96
96
96
96
96
96
90
90
90
90
90
90
84
84
84
109
109
109
118
118
118
118
118
118
112
112
112
106
106
106
112
112
112
112
112
112
106
106
106
96
96
96
96
96
96
96
96
96
106
106
106
112
112
112
112
112
112
106
106
106
109
109
109
109
109
109
112
112
112
106
106
106
106
106
106
96
96
96
96
96
96
106
106
106
112
112
112
112
112
112
106
106
106
96
96
96
96
96
96
96
96
96
106
106
106
88
88
88
109
109
109
109
109
109
118
118
118
112
112
112
112
112
112
106
106
106
96
96
96
96
96
96
96
96
96
96
96
96
106
106
106
106
106
106
106
106
106
106
106
106
96
96
96
88
88
88
109
109
109
109
109
109
96
96
96
96
96
96
96
96
96
88
88
88
88
88
88
96
96
96
106
106
106
106
106
106
106
106
106
106
106
106
106
106
106
96
96
96
96
96
96
96
96
96
100
100
100
109
109
109
106
106
106
106
106
106
96
96
96
96
96
96
106
106
106
106
106
106
112
112
112
112
112
112
112
112
112
112
112
112
106
106
106
106
106
106
106
106
106
106
106
106
100
100
100
109
109
109
106
106
106
96
96
96
96
96
96
96
96
96
96
96
96
112
112
112
112
112
112
112
112
112
106
106
106
96
96
96
96
96
96
96
96
96
106
106
106
88
88
88
100
100
100
109
109
109
112
112
112
106
106
106
106
106
106
106
106
106
106
106
106
106
106
106
96
96
96
96
96
96
88
88
88
88
88
88
96
96
96
106
106
106
106
106
106
88
88
88
109
109
109
109
109
109
118
118
118
118
118
118
112
112
112
96
96
96
106
106
106
96
96
96
96
96
96
106
106
106
106
106
106
96
96
96
96
96
96
96
96
96
96
96
96
88
88
88
109
109
109
96
96
96
112
112
112
96
96
96
96
96
96
106
106
106
106
106
106
106
106
106
106
106
106
106
106
106
112
112
112
112
112
112
112
112
112
106
106
106
106
106
106
96
96
96
109
109
109
109
109
109
106
106
106
96
96
96
106
106
106
112
112
112
112
112
112
112
112
112
106
106
106
96
96
96
96
96
96
106
106
106
112
112
112
112
112
112
106
106
106
106
106
106
109
109
109
106
106
106
106
106
106
112
112
112
112
112
112
112
112
112
106
106
106
96
96
96
96
96
96
106
106
106
106
106
106
106
106
106
106
106
106
96
96
96
96
96
96
106
106
106
100
100
100
106
106
106
106
106
106
106
106
106
106
106
106
96
96
96
96
96
96
88
88
88
88
88
88
96
96
96
106
106
106
96
96
96
96
96
96
88
88
88
106
106
106
106
106
106
100
100
100
106
106
106
106
106
106
106
106
106
112
112
112
112
112
112
112
112
112
112
112
112
106
106
106
106
106
106
96
96
96
96
96
96
88
88
88
106
106
106
106
106
106
96
96
96
93
93
93
106
106
106
106
106
106
96
96
96
96
96
96
88
88
88
96
96
96
106
106
106
106
106
106
88
88
88
88
88
88
96
96
96
96
96
96
96
96
96
96
96
96
88
88
88
93
93
93
109
109
109
109
109
109
109
109
109
109
109
109
100
100
100
100
100
100
93
93
93
100
100
100
100
100
100
109
109
109
109
109
109
100
100
100
93
93
93
93
93
93
93
93
93
93
93
93
