P3
# Created by GIMP version 2.10.36 PNM plug-in
16 16
255
92
92
92
109
109
109
109
109
109
109
109
109
109
109
109
92
92
92
79
79
79
131
131
131
109
109
109
92
92
92
92
92
92
92
92
92
109
109
109
131
131
131
92
92
92
92
92
92
131
131
131
109
109
109
109
109
109
109
109
109
92
92
92
92
92
92
131
131
131
131
131
131
109
109
109
79
79
79
79
79
79
109
109
109
109
109
109
92
92
92
109
109
109
131
131
131
109
109
109
131
131
131
131
131
131
109
109
109
109
109
109
109
109
109
131
131
131
92
92
92
79
79
79
79
79
79
92
92
92
92
92
92
92
92
92
109
109
109
131
131
131
131
131
131
131
131
131
161
161
161
131
131
131
131
131
131
109
109
109
92
92
92
92
92
92
92
92
92
79
79
79
109
109
109
109
109
109
109
109
109
92
92
92
109
109
109
92
92
92
92
92
92
109
109
109
131
131
131
131
131
131
131
131
131
109
109
109
92
92
92
92
92
92
92
92
92
109
109
109
131
131
131
131
131
131
109
109
109
79
79
79
92
92
92
109
109
109
79
79
79
109
109
109
109
109
109
131
131
131
79
79
79
92
92
92
92
92
92
109
109
109
131
131
131
131
131
131
131
131
131
109
109
109
92
92
92
79
79
79
131
131
131
109
109
109
109
109
109
109
109
109
92
92
92
79
79
79
109
109
109
131
131
131
131
131
131
109
109
109
131
131
131
131
131
131
109
109
109
92
92
92
79
79
79
131
131
131
131
131
131
92
92
92
79
79
79
131
131
131
109
109
109
92
92
92
131
131
131
131
131
131
131
131
131
109
109
109
109
109
109
92
92
92
92
92
92
109
109
109
92
92
92
109
109
109
92
92
92
92
92
92
131
131
131
109
109
109
92
92
92
92
92
92
79
79
79
109
109
109
109
109
109
109
109
109
92
92
92
131
131
131
131
131
131
131
131
131
131
131
131
109
109
109
92
92
92
109
109
109
131
131
131
92
92
92
92
92
92
79
79
79
92
92
92
131
131
131
109
109
109
92
92
92
92
92
92
131
131
131
161
161
161
161
161
161
131
131
131
92
92
92
109
109
109
92
92
92
92
92
92
109
109
109
131
131
131
92
92
92
109
109
109
131
131
131
131
131
131
109
109
109
131
131
131
161
161
161
161
161
161
109
109
109
79
79
79
79
79
79
92
92
92
79
79
79
92
92
92
161
161
161
131
131
131
109
109
109
109
109
109
131
131
131
92
92
92
131
131
131
131
131
131
109
109
109
79
79
79
79
79
79
79
79
79
92
92
92
92
92
92
109
109
109
131
131
131
131
131
131
131
131
131
131
131
131
109
109
109
92
92
92
79
79
79
79
79
79
92
92
92
109
109
109
109
109
109
109
109
109
109
109
109
92
92
92
109
109
109
131
131
131
131
131
131
92
92
92
131
131
131
109
109
109
92
92
92
79
79
79
109
109
109
131
131
131
131
131
131
161
161
161
131
131
131
109
109
109
92
92
92
109
109
109
131
131
131
131
131
131
109
109
109
92
92
92
79
79
79
92
92
92
92
92
92
109
109
109
131
131
131
161
161
161
161
161
161
131
131
131
92
92
92
79
79
79
92
92
92
109
109
109
109
109
109
92
92
92
92
92
92
79
79
79
92
92
92
92
92
92
109
109
109
131
131
131
131
131
131
92
92
92
79
79
79
79
79
79
79
79
79
79
79
79
109
109
109
92
92
92
131
131
131
131
131
131
109
109
109
