P3
# Created by GIMP version 2.10.36 PNM plug-in
16 16
255
71
143
36
71
143
36
71
143
36
71
143
36
71
143
36
71
143
36
71
143
36
71
143
36
71
143
36
71
143
36
71
143
36
71
143
36
71
143
36
71
143
36
71
143
36
71
143
36
71
143
36
71
143
36
71
143
36
71
143
36
71
143
36
71
143
36
71
143
36
71
143
36
71
143
36
71
143
36
71
143
36
71
143
36
71
143
36
71
143
36
71
143
36
71
143
36
71
143
36
71
143
36
71
143
36
71
143
36
71
143
36
71
143
36
71
143
36
71
143
36
71
143
36
71
143
36
71
143
36
71
143
36
71
143
36
71
143
36
71
143
36
71
143
36
71
143
36
71
143
36
71
143
36
71
143
36
71
143
36
71
143
36
71
143
36
71
143
36
71
143
36
71
143
36
71
143
36
71
143
36
71
143
36
71
143
36
71
143
36
71
143
36
71
143
36
71
143
36
71
143
36
71
143
36
71
143
36
71
143
36
71
143
36
71
143
36
71
143
36
71
143
36
71
143
36
71
143
36
71
143
36
71
143
36
71
143
36
71
143
36
71
143
36
71
143
36
71
143
36
71
143
36
71
143
36
71
143
36
71
143
36
71
143
36
71
143
36
71
143
36
71
143
36
71
143
36
71
143
36
71
143
36
71
143
36
71
143
36
71
143
36
71
143
36
71
143
36
71
143
36
71
143
36
71
143
36
71
143
36
71
143
36
71
143
36
71
143
36
71
143
36
71
143
36
71
143
36
71
143
36
71
143
36
71
143
36
71
143
36
71
143
36
71
143
36
71
143
36
71
143
36
71
143
36
71
143
36
71
143
36
71
143
36
71
143
36
71
143
36
71
143
36
71
143
36
71
143
36
71
143
36
71
143
36
71
143
36
71
143
36
71
143
36
71
143
36
71
143
36
71
143
36
71
143
36
71
143
36
71
143
36
71
143
36
71
143
36
71
143
36
71
143
36
71
143
36
71
143
36
71
143
36
71
143
36
71
143
36
71
143
36
71
143
36
71
143
36
71
143
36
71
143
36
71
143
36
71
143
36
71
143
36
71
143
36
71
143
36
71
143
36
71
143
36
71
143
36
71
143
36
71
143
36
71
143
36
71
143
36
71
143
36
71
143
36
71
143
36
71
143
36
71
143
36
71
143
36
71
143
36
71
143
36
71
143
36
71
143
36
71
143
36
71
143
36
71
143
36
71
143
36
71
143
36
71
143
36
71
143
36
71
143
36
71
143
36
71
143
36
71
143
36
71
143
36
71
143
36
71
143
36
71
143
36
71
143
36
71
143
36
71
143
36
71
143
36
71
143
36
71
143
36
71
143
36
71
143
36
71
143
36
71
143
36
71
143
36
71
143
36
71
143
36
71
143
36
71
143
36
71
143
36
71
143
36
71
143
36
71
143
36
71
143
36
71
143
36
71
143
36
71
143
36
71
143
36
71
143
36
71
143
36
71
143
36
71
143
36
71
143
36
71
143
36
71
143
36
71
143
36
71
143
36
71
143
36
71
143
36
71
143
36
71
143
36
71
143
36
71
143
36
71
143
36
71
143
36
71
143
36
71
143
36
71
143
36
71
143
36
71
143
36
71
143
36
71
143
36
71
143
36
71
143
36
71
143
36
71
143
36
71
143
36
71
143
36
71
143
36
71
143
36
71
143
36
71
143
36
71
143
36
71
143
36
71
143
36
71
143
36
71
143
36
71
143
36
71
143
36
71
143
36
71
143
36
71
143
36
