P3
# Created by GIMP version 2.10.36 PNM plug-in
16 16
255
122
122
122
122
122
122
122
122
122
122
122
122
122
122
122
122
122
122
122
122
122
122
122
122
122
122
122
122
122
122
122
122
122
122
122
122
122
122
122
122
122
122
122
122
122
122
122
122
122
122
122
122
122
122
122
122
122
122
122
122
122
122
122
122
122
122
122
122
122
122
122
122
122
122
122
122
122
122
122
122
122
122
122
122
122
122
122
122
122
122
122
122
122
122
122
122
122
122
122
122
122
122
122
122
122
122
122
122
122
122
122
122
122
122
122
122
122
122
122
122
122
122
122
122
122
122
122
122
122
122
122
122
122
122
122
122
122
122
122
122
122
122
122
122
122
122
122
122
122
122
122
122
122
122
122
122
122
122
122
122
122
122
122
122
122
122
122
122
122
122
122
122
122
122
122
122
122
122
122
122
122
122
122
122
122
122
122
122
122
122
122
122
122
122
122
122
122
122
122
122
122
122
122
122
122
122
122
122
122
122
122
122
122
122
122
122
122
122
122
122
122
122
122
122
122
122
122
122
122
122
122
122
122
122
122
122
122
122
122
122
122
122
122
122
122
122
122
122
122
122
122
122
122
122
122
122
122
122
122
122
122
122
122
122
122
122
122
122
122
122
122
122
122
122
122
122
122
122
122
122
122
122
122
122
122
122
122
122
122
122
122
122
122
122
122
122
122
122
122
122
122
122
122
122
122
122
122
122
122
122
122
122
122
122
122
122
122
122
122
122
122
122
122
122
122
122
122
122
122
122
122
122
122
122
122
122
122
122
122
122
122
122
122
122
122
122
122
122
122
122
122
122
122
122
122
122
122
122
122
122
122
122
122
122
122
122
94
94
94
122
122
122
122
122
122
122
122
122
122
122
122
122
122
122
122
122
122
122
122
122
122
122
122
122
122
122
122
122
122
122
122
122
94
94
94
122
122
122
122
122
122
82
82
82
72
72
72
82
82
82
122
122
122
122
122
122
122
122
122
122
122
122
122
122
122
122
122
122
122
122
122
122
122
122
122
122
122
82
82
82
72
72
72
82
82
82
122
122
122
72
72
72
114
114
114
72
72
72
122
122
122
122
122
122
122
122
122
122
122
122
122
122
122
122
122
122
163
163
163
94
94
94
122
122
122
72
72
72
114
114
114
72
72
72
122
122
122
122
122
122
57
57
57
122
122
122
122
122
122
94
94
94
122
122
122
163
163
163
122
122
122
163
163
163
82
82
82
72
72
72
82
82
82
144
144
144
57
57
57
122
122
122
122
122
122
94
94
94
122
122
122
163
163
163
82
82
82
72
72
72
82
82
82
157
157
157
122
122
122
163
163
163
72
72
72
114
114
114
72
72
72
98
98
98
144
144
144
163
163
163
82
82
82
72
72
72
82
82
82
163
163
163
72
72
72
114
114
114
72
72
72
144
144
144
122
122
122
144
144
144
144
144
144
57
57
57
111
111
111
98
98
98
122
122
122
144
144
144
72
72
72
114
114
114
72
72
72
144
144
144
144
144
144
57
57
57
98
98
98
144
144
144
122
122
122
122
122
122
144
144
144
144
144
144
98
98
98
122
122
122
144
144
144
111
111
111
144
144
144
57
57
57
144
144
144
122
122
122
111
111
111
98
98
98
144
144
144
122
122
122
122
122
122
122
122
122
122
122
122
98
98
98
75
75
75
144
144
144
98
98
98
75
75
75
111
111
111
144
144
144
144
144
144
111
111
111
75
75
75
144
144
144
122
122
122
122
122
122
