P3
# Created by GIMP version 2.10.36 PNM plug-in
16 16
255
255
255
255
255
255
255
255
255
255
255
255
255
255
255
255
255
255
255
255
255
255
255
255
255
255
255
255
255
255
255
255
255
255
255
255
255
255
255
255
255
255
255
255
255
255
255
255
255
255
255
255
255
255
255
255
255
255
255
255
255
255
255
255
255
255
255
255
255
255
255
255
255
255
255
255
255
255
255
255
255
255
255
255
255
255
255
255
255
255
255
255
255
255
255
255
255
255
255
255
255
255
255
255
255
255
255
255
255
255
255
255
255
255
255
255
255
255
255
255
255
255
255
255
255
255
255
255
255
255
255
255
255
255
255
255
255
255
255
255
255
255
255
255
255
255
255
255
255
255
255
255
255
255
255
255
255
255
255
255
255
255
255
255
255
255
255
255
255
255
255
255
255
255
255
255
255
255
255
255
255
255
255
255
255
255
255
255
255
255
255
255
255
255
255
255
255
255
255
255
255
255
255
255
255
255
255
255
255
255
255
255
255
255
255
255
255
255
255
255
255
255
255
255
255
255
255
255
255
255
255
255
255
255
255
255
255
255
255
255
255
255
255
255
255
255
255
255
255
255
255
255
255
255
255
255
255
255
255
255
255
255
255
255
255
255
255
255
255
255
255
255
255
255
255
255
255
255
255
255
255
255
255
255
255
255
255
255
255
255
255
255
255
255
255
255
255
255
255
255
255
255
255
255
255
255
255
255
255
255
255
255
255
255
255
255
255
255
255
255
255
255
255
255
255
255
255
255
255
255
255
255
255
255
255
255
255
255
255
255
255
255
255
255
255
255
255
255
255
255
255
255
255
255
255
255
255
255
255
255
255
255
255
255
255
255
255
161
98
255
255
255
255
255
255
255
255
255
255
255
255
255
255
255
255
255
255
255
255
255
255
255
255
255
255
255
255
255
255
255
255
255
255
105
107
255
255
255
255
255
255
255
140
85
222
169
127
255
140
85
222
255
255
255
255
255
255
255
255
255
255
255
255
255
255
255
255
255
255
255
255
255
255
255
255
255
255
255
105
107
255
66
153
255
105
107
255
255
255
255
161
98
255
255
242
0
161
98
255
255
255
255
255
255
255
255
255
255
255
255
255
255
255
255
255
255
255
60
184
120
186
168
229
255
255
255
105
130
255
226
238
52
105
130
255
255
255
255
255
255
255
140
85
222
255
255
255
255
255
255
161
98
255
255
255
255
60
184
120
255
255
255
60
184
120
213
201
225
178
160
255
213
201
225
0
166
81
105
107
255
255
255
255
255
255
255
124
21
255
255
255
255
60
184
120
244
227
129
106
67
161
244
227
129
44
179
109
255
255
255
60
184
120
255
253
217
255
242
0
255
253
217
0
114
54
0
166
81
60
184
120
107
21
225
94
21
201
107
21
225
60
184
120
255
250
170
255
242
0
255
250
170
0
166
81
255
255
255
0
166
81
0
166
81
255
253
217
0
128
61
0
114
54
255
255
255
0
166
81
97
42
161
255
242
0
97
42
161
0
166
81
0
166
81
255
251
190
0
114
54
0
166
81
255
255
255
255
255
255
0
166
81
0
166
81
0
114
54
255
255
255
0
166
81
0
128
61
0
166
81
80
27
136
0
166
81
255
255
255
0
128
61
0
114
54
0
166
81
255
255
255
255
255
255
255
255
255
255
255
255
0
114
54
0
88
38
0
166
81
0
114
54
0
88
38
0
128
61
0
166
81
0
166
81
0
128
61
0
88
38
0
166
81
255
255
255
255
255
255
