P3
# Created by GIMP version 2.10.36 PNM plug-in
16 16
255
197
197
197
179
179
179
179
179
179
197
197
197
197
197
197
197
197
197
209
209
209
231
231
231
209
209
209
197
197
197
179
179
179
197
197
197
209
209
209
197
197
197
179
179
179
179
179
179
197
197
197
197
197
197
197
197
197
197
197
197
197
197
197
209
209
209
231
231
231
240
240
240
179
179
179
165
165
165
179
179
179
179
179
179
197
197
197
231
231
231
197
197
197
197
197
197
197
197
197
209
209
209
197
197
197
179
179
179
179
179
179
197
197
197
179
179
179
165
165
165
165
165
165
179
179
179
197
197
197
179
179
179
165
165
165
240
240
240
231
231
231
197
197
197
197
197
197
231
231
231
209
209
209
197
197
197
179
179
179
179
179
179
197
197
197
197
197
197
197
197
197
179
179
179
197
197
197
197
197
197
197
197
197
165
165
165
197
197
197
179
179
179
179
179
179
240
240
240
231
231
231
209
209
209
197
197
197
197
197
197
179
179
179
197
197
197
209
209
209
197
197
197
197
197
197
209
209
209
197
197
197
179
179
179
165
165
165
165
165
165
179
179
179
197
197
197
179
179
179
179
179
179
179
179
179
197
197
197
197
197
197
240
240
240
231
231
231
209
209
209
197
197
197
209
209
209
231
231
231
179
179
179
179
179
179
179
179
179
179
179
179
179
179
179
209
209
209
197
197
197
197
197
197
197
197
197
179
179
179
231
231
231
240
240
240
231
231
231
179
179
179
231
231
231
209
209
209
179
179
179
197
197
197
197
197
197
197
197
197
209
209
209
209
209
209
231
231
231
197
197
197
179
179
179
165
165
165
179
179
179
209
209
209
179
179
179
179
179
179
197
197
197
165
165
165
197
197
197
231
231
231
197
197
197
197
197
197
197
197
197
179
179
179
179
179
179
165
165
165
165
165
165
179
179
179
179
179
179
179
179
179
197
197
197
197
197
197
165
165
165
179
179
179
179
179
179
197
197
197
209
209
209
209
209
209
197
197
197
197
197
197
197
197
197
209
209
209
197
197
197
197
197
197
209
209
209
231
231
231
197
197
197
179
179
179
179
179
179
197
197
197
197
197
197
231
231
231
231
231
231
231
231
231
209
209
209
179
179
179
179
179
179
209
209
209
209
209
209
165
165
165
179
179
179
197
197
197
209
209
209
231
231
231
197
197
197
197
197
197
209
209
209
231
231
231
240
240
240
179
179
179
179
179
179
197
197
197
179
179
179
179
179
179
165
165
165
179
179
179
197
197
197
197
197
197
231
231
231
231
231
231
197
197
197
179
179
179
165
165
165
165
165
165
165
165
165
197
197
197
197
197
197
197
197
197
197
197
197
179
179
179
197
197
197
197
197
197
197
197
197
179
179
179
179
179
179
197
197
197
179
179
179
179
179
179
197
197
197
197
197
197
179
179
179
209
209
209
231
231
231
209
209
209
197
197
197
197
197
197
179
179
179
179
179
179
197
197
197
197
197
197
179
179
179
179
179
179
197
197
197
197
197
197
209
209
209
197
197
197
197
197
197
231
231
231
240
240
240
179
179
179
165
165
165
179
179
179
179
179
179
197
197
197
197
197
197
209
209
209
197
197
197
165
165
165
197
197
197
209
209
209
231
231
231
240
240
240
197
197
197
179
179
179
165
165
165
165
165
165
179
179
179
209
209
209
231
231
231
197
197
197
209
209
209
231
231
231
197
197
197
179
179
179
165
165
165
179
179
179
197
197
197
231
231
231
209
209
209
