P3
# Created by GIMP version 2.10.36 PNM plug-in
16 16
255
115
115
115
119
119
119
116
116
116
121
121
121
118
118
118
117
117
117
119
119
119
120
120
120
122
122
122
129
129
129
126
126
126
128
128
128
127
127
127
125
125
125
127
127
127
129
129
129
125
125
125
128
128
128
128
128
128
126
126
126
123
123
123
124
124
124
128
128
128
132
132
132
133
133
133
131
131
131
130
130
130
131
131
131
130
130
130
129
129
129
129
129
129
130
130
130
121
121
121
121
121
121
125
125
125
123
123
123
127
127
127
125
125
125
129
129
129
136
136
136
135
135
135
132
132
132
131
131
131
130
130
130
130
130
130
129
129
129
128
128
128
127
127
127
115
115
115
118
118
118
120
120
120
123
123
123
122
122
122
125
125
125
127
127
127
125
125
125
126
126
126
126
126
126
129
129
129
131
131
131
130
130
130
129
129
129
128
128
128
128
128
128
115
115
115
121
121
121
123
123
123
122
122
122
125
125
125
129
129
129
127
127
127
123
123
123
123
123
123
120
120
120
123
123
123
131
131
131
130
130
130
129
129
129
126
126
126
126
126
126
123
123
123
129
129
129
128
128
128
129
129
129
129
129
129
126
126
126
125
125
125
123
123
123
123
123
123
125
125
125
127
127
127
130
130
130
130
130
130
127
127
127
125
125
125
130
130
130
123
123
123
120
120
120
118
118
118
119
119
119
122
122
122
122
122
122
123
123
123
121
121
121
120
120
120
122
122
122
127
127
127
129
129
129
128
128
128
126
126
126
127
127
127
130
130
130
116
116
116
113
113
113
114
114
114
116
116
116
116
116
116
117
117
117
117
117
117
118
118
118
120
120
120
121
121
121
125
125
125
126
126
126
127
127
127
128
128
128
128
128
128
130
130
130
113
113
113
113
113
113
116
116
116
117
117
117
117
117
117
117
117
117
119
119
119
121
121
121
122
122
122
121
121
121
124
124
124
125
125
125
126
126
126
126
126
126
128
128
128
128
128
128
113
113
113
116
116
116
118
118
118
121
121
121
121
121
121
120
120
120
123
123
123
124
124
124
123
123
123
125
125
125
126
126
126
127
127
127
128
128
128
130
130
130
129
129
129
130
130
130
115
115
115
120
120
120
124
124
124
125
125
125
128
128
128
129
129
129
129
129
129
129
129
129
130
130
130
130
130
130
129
129
129
129
129
129
130
130
130
136
136
136
135
135
135
136
136
136
115
115
115
113
113
113
113
113
113
116
116
116
123
123
123
124
124
124
129
129
129
129
129
129
127
127
127
128
128
128
130
130
130
130
130
130
130
130
130
132
132
132
133
133
133
134
134
134
116
116
116
113
113
113
113
113
113
113
113
113
114
114
114
119
119
119
121
121
121
125
125
125
127
127
127
128
128
128
129
129
129
129
129
129
131
131
131
134
134
134
136
136
136
138
138
138
115
115
115
113
113
113
111
111
111
117
117
117
118
118
118
119
119
119
119
119
119
120
120
120
121
121
121
125
125
125
126
126
126
127
127
127
129
129
129
130
130
130
130
130
130
131
131
131
115
115
115
115
115
115
108
108
108
115
115
115
118
118
118
118
118
118
119
119
119
118
118
118
111
111
111
121
121
121
123
123
123
124
124
124
127
127
127
128
128
128
129
129
129
130
130
130
115
115
115
118
118
118
117
117
117
115
115
115
116
116
116
117
117
117
120
120
120
121
121
121
121
121
121
121
121
121
123
123
123
124
124
124
127
127
127
128
128
128
129
129
129
129
129
129
