P3
# Created by GIMP version 2.10.36 PNM plug-in
16 16
255
66
66
66
66
66
66
53
53
53
53
53
53
40
40
40
53
53
53
53
53
53
28
28
28
28
28
28
53
53
53
53
53
53
40
40
40
28
28
28
28
28
28
40
40
40
53
53
53
53
53
53
53
53
53
53
53
53
40
40
40
53
53
53
40
40
40
28
28
28
28
28
28
28
28
28
53
53
53
40
40
40
28
28
28
40
40
40
53
53
53
66
66
66
66
66
66
53
53
53
40
40
40
28
28
28
28
28
28
28
28
28
40
40
40
53
53
53
53
53
53
28
28
28
28
28
28
28
28
28
28
28
28
53
53
53
53
53
53
53
53
53
53
53
53
40
40
40
28
28
28
28
28
28
40
40
40
53
53
53
80
80
80
66
66
66
53
53
53
53
53
53
53
53
53
53
53
53
28
28
28
53
53
53
53
53
53
40
40
40
28
28
28
28
28
28
28
28
28
40
40
40
53
53
53
66
66
66
66
66
66
53
53
53
53
53
53
53
53
53
40
40
40
28
28
28
28
28
28
53
53
53
40
40
40
28
28
28
28
28
28
53
53
53
28
28
28
53
53
53
53
53
53
53
53
53
53
53
53
53
53
53
40
40
40
28
28
28
28
28
28
28
28
28
28
28
28
28
28
28
40
40
40
53
53
53
53
53
53
28
28
28
40
40
40
66
66
66
53
53
53
53
53
53
40
40
40
40
40
40
28
28
28
28
28
28
40
40
40
40
40
40
53
53
53
53
53
53
53
53
53
53
53
53
53
53
53
28
28
28
53
53
53
53
53
53
53
53
53
40
40
40
28
28
28
40
40
40
53
53
53
53
53
53
66
66
66
80
80
80
66
66
66
53
53
53
53
53
53
40
40
40
28
28
28
28
28
28
53
53
53
40
40
40
40
40
40
28
28
28
40
40
40
53
53
53
66
66
66
66
66
66
53
53
53
53
53
53
53
53
53
40
40
40
28
28
28
28
28
28
28
28
28
28
28
28
28
28
28
40
40
40
53
53
53
40
40
40
53
53
53
66
66
66
53
53
53
53
53
53
40
40
40
40
40
40
28
28
28
66
66
66
53
53
53
28
28
28
28
28
28
53
53
53
40
40
40
53
53
53
40
40
40
53
53
53
53
53
53
53
53
53
40
40
40
28
28
28
28
28
28
28
28
28
53
53
53
53
53
53
40
40
40
40
40
40
53
53
53
66
66
66
53
53
53
40
40
40
28
28
28
53
53
53
40
40
40
40
40
40
53
53
53
53
53
53
40
40
40
28
28
28
28
28
28
40
40
40
53
53
53
53
53
53
66
66
66
28
28
28
28
28
28
28
28
28
53
53
53
40
40
40
40
40
40
66
66
66
80
80
80
66
66
66
53
53
53
40
40
40
53
53
53
66
66
66
66
66
66
53
53
53
53
53
53
28
28
28
28
28
28
28
28
28
40
40
40
53
53
53
66
66
66
80
80
80
53
53
53
28
28
28
28
28
28
53
53
53
66
66
66
53
53
53
53
53
53
40
40
40
28
28
28
28
28
28
28
28
28
40
40
40
53
53
53
66
66
66
53
53
53
40
40
40
28
28
28
28
28
28
40
40
40
53
53
53
53
53
53
53
53
53
40
40
40
28
28
28
28
28
28
40
40
40
53
53
53
53
53
53
53
53
53
53
53
53
40
40
40
53
53
53
53
53
53
40
40
40
53
53
53
53
53
53
53
53
53
40
40
40
28
28
28
28
28
28
28
28
28
