P3
# Created by GIMP version 2.10.36 PNM plug-in
16 16
255
71
34
98
75
38
102
61
24
88
61
24
88
78
41
105
99
62
126
57
20
84
76
39
103
70
33
97
87
50
114
57
20
84
76
39
103
58
21
85
45
8
72
81
44
108
106
69
133
78
41
105
85
48
112
86
49
113
68
31
95
76
39
103
81
44
108
86
49
113
54
17
81
59
22
86
110
73
137
52
15
79
47
10
74
155
118
182
144
107
171
74
37
101
68
31
95
76
39
103
117
80
144
78
41
105
121
84
148
51
14
78
55
18
82
81
44
108
100
63
127
100
63
127
56
19
83
78
41
105
117
80
144
76
39
103
86
49
113
51
14
78
77
40
104
62
25
89
72
35
99
46
9
73
76
39
103
75
38
102
78
41
105
68
31
95
59
22
86
61
24
88
123
86
150
55
18
82
79
42
106
61
24
88
87
50
114
79
42
106
77
40
104
47
10
74
55
18
82
117
80
144
74
37
101
94
57
121
74
37
101
58
21
85
125
88
152
130
93
157
72
35
99
82
45
109
73
36
100
103
66
130
74
37
101
55
18
82
53
16
80
142
105
169
111
74
138
47
10
74
81
44
108
52
15
79
94
57
121
120
83
147
77
40
104
81
44
108
73
36
100
74
37
101
81
44
108
55
18
82
54
17
81
117
80
144
114
77
141
72
35
99
47
10
74
81
44
108
48
11
75
112
75
139
77
40
104
82
45
109
81
44
108
103
66
130
100
63
127
55
18
82
49
12
76
115
78
142
116
79
143
70
33
97
75
38
102
81
44
108
75
38
102
79
42
106
58
21
85
100
63
127
78
41
105
80
43
107
63
26
90
58
21
85
53
16
80
86
49
113
68
31
95
62
25
89
54
17
81
85
48
112
101
64
128
55
18
82
73
36
100
114
77
141
81
44
108
51
14
78
62
25
89
48
11
75
120
83
147
122
85
149
92
55
119
76
39
103
55
18
82
86
49
113
74
37
101
75
38
102
51
14
78
121
84
148
75
38
102
57
20
84
54
17
81
111
74
138
126
89
153
116
79
143
61
24
88
81
44
108
77
40
104
120
83
147
78
41
105
56
19
83
90
53
117
77
40
104
101
64
128
85
48
112
83
46
110
97
60
124
110
73
137
70
33
97
76
39
103
97
60
124
72
35
99
57
20
84
62
25
89
83
46
110
47
10
74
79
42
106
61
24
88
114
77
141
74
37
101
57
20
84
130
93
157
72
35
99
80
43
107
62
25
89
81
44
108
53
16
80
115
78
142
77
40
104
69
32
96
74
37
101
83
46
110
113
76
140
101
64
128
63
26
90
74
37
101
121
84
148
45
8
72
114
77
141
102
65
129
84
47
111
81
44
108
77
40
104
104
67
131
99
62
126
102
65
129
77
40
104
70
33
97
77
40
104
80
43
107
110
73
137
54
17
81
126
89
153
78
41
105
45
8
72
80
43
107
80
43
107
81
44
108
74
37
101
57
20
84
62
25
89
82
45
109
59
22
86
86
49
113
68
31
95
49
12
76
69
32
96
38
1
65
79
42
106
74
37
101
72
35
99
66
29
93
53
16
80
49
12
76
37
0
64
122
85
149
142
105
169
77
40
104
54
17
81
56
19
83
112
75
139
126
89
153
58
21
85
119
82
146
91
54
118
97
60
124
55
18
82
126
89
153
125
88
152
53
16
80
120
83
147
82
45
109
75
38
102
101
64
128
127
90
154
82
45
109
62
25
89
74
37
101
49
12
76
70
33
97
