P3
# Created by GIMP version 2.10.36 PNM plug-in
16 16
255
43
46
50
47
50
54
33
36
40
33
36
40
50
53
57
71
74
78
29
32
36
48
51
55
42
45
49
59
62
66
29
32
36
48
51
55
30
33
37
17
20
24
53
56
60
78
81
85
50
53
57
57
60
64
58
61
65
40
43
47
48
51
55
53
56
60
58
61
65
26
29
33
31
34
38
82
85
89
24
27
31
19
22
26
127
130
134
116
119
123
46
49
53
40
43
47
48
51
55
89
92
96
50
53
57
93
96
100
23
26
30
27
30
34
53
56
60
72
75
79
72
75
79
28
31
35
50
53
57
89
92
96
48
51
55
58
61
65
23
26
30
49
52
56
34
37
41
44
47
51
18
21
25
48
51
55
47
50
54
50
53
57
40
43
47
31
34
38
33
36
40
95
98
102
27
30
34
51
54
58
33
36
40
59
62
66
51
54
58
49
52
56
19
22
26
27
30
34
89
92
96
46
49
53
66
69
73
46
49
53
30
33
37
97
100
104
102
105
109
44
47
51
54
57
61
45
48
52
75
78
82
46
49
53
27
30
34
25
28
32
114
117
121
83
86
90
19
22
26
53
56
60
24
27
31
66
69
73
92
95
99
49
52
56
53
56
60
45
48
52
46
49
53
53
56
60
27
30
34
26
29
33
89
92
96
86
89
93
44
47
51
19
22
26
53
56
60
20
23
27
84
87
91
49
52
56
54
57
61
53
56
60
75
78
82
72
75
79
27
30
34
21
24
28
87
90
94
88
91
95
42
45
49
47
50
54
53
56
60
47
50
54
51
54
58
30
33
37
72
75
79
50
53
57
52
55
59
35
38
42
30
33
37
25
28
32
58
61
65
40
43
47
34
37
41
26
29
33
57
60
64
73
76
80
27
30
34
45
48
52
86
89
93
53
56
60
23
26
30
34
37
41
20
23
27
92
95
99
94
97
101
64
67
71
48
51
55
27
30
34
58
61
65
46
49
53
47
50
54
23
26
30
93
96
100
47
50
54
29
32
36
26
29
33
83
86
90
98
101
105
88
91
95
33
36
40
53
56
60
49
52
56
92
95
99
50
53
57
28
31
35
62
65
69
49
52
56
73
76
80
57
60
64
55
58
62
69
72
76
82
85
89
42
45
49
48
51
55
69
72
76
44
47
51
29
32
36
34
37
41
55
58
62
19
22
26
51
54
58
33
36
40
86
89
93
46
49
53
29
32
36
102
105
109
44
47
51
52
55
59
34
37
41
53
56
60
25
28
32
87
90
94
49
52
56
41
44
48
46
49
53
55
58
62
85
88
92
73
76
80
35
38
42
46
49
53
93
96
100
17
20
24
86
89
93
74
77
81
56
59
63
53
56
60
49
52
56
76
79
83
71
74
78
74
77
81
49
52
56
42
45
49
49
52
56
52
55
59
82
85
89
26
29
33
98
101
105
50
53
57
17
20
24
52
55
59
52
55
59
53
56
60
46
49
53
29
32
36
34
37
41
54
57
61
31
34
38
58
61
65
40
43
47
21
24
28
41
44
48
10
13
17
51
54
58
46
49
53
44
47
51
38
41
45
25
28
32
21
24
28
9
12
16
94
97
101
114
117
121
49
52
56
26
29
33
28
31
35
84
87
91
98
101
105
30
33
37
91
94
98
63
66
70
69
72
76
27
30
34
98
101
105
97
100
104
25
28
32
92
95
99
54
57
61
47
50
54
73
76
80
99
102
106
54
57
61
34
37
41
46
49
53
21
24
28
42
45
49
