P3
# Created by GIMP version 2.10.36 PNM plug-in
16 16
255
101
48
101
105
52
105
91
38
91
91
38
91
108
55
108
129
76
129
87
34
87
106
53
106
100
47
100
117
64
117
87
34
87
106
53
106
88
35
88
75
22
75
111
58
111
136
83
136
108
55
108
115
62
115
116
63
116
98
45
98
106
53
106
111
58
111
116
63
116
84
31
84
89
36
89
140
87
140
82
29
82
77
24
77
185
132
185
174
121
174
104
51
104
98
45
98
106
53
106
147
94
147
108
55
108
151
98
151
81
28
81
85
32
85
111
58
111
130
77
130
130
77
130
86
33
86
108
55
108
147
94
147
106
53
106
116
63
116
81
28
81
107
54
107
92
39
92
102
49
102
76
23
76
106
53
106
105
52
105
108
55
108
98
45
98
89
36
89
91
38
91
153
100
153
85
32
85
109
56
109
91
38
91
117
64
117
109
56
109
107
54
107
77
24
77
85
32
85
147
94
147
104
51
104
124
71
124
104
51
104
88
35
88
155
102
155
160
107
160
102
49
102
112
59
112
103
50
103
133
80
133
104
51
104
85
32
85
83
30
83
172
119
172
141
88
141
77
24
77
111
58
111
82
29
82
124
71
124
150
97
150
107
54
107
111
58
111
103
50
103
104
51
104
111
58
111
85
32
85
84
31
84
147
94
147
144
91
144
102
49
102
77
24
77
111
58
111
78
25
78
142
89
142
107
54
107
112
59
112
111
58
111
133
80
133
130
77
130
85
32
85
79
26
79
145
92
145
146
93
146
100
47
100
105
52
105
111
58
111
105
52
105
109
56
109
88
35
88
130
77
130
108
55
108
110
57
110
93
40
93
88
35
88
83
30
83
116
63
116
98
45
98
92
39
92
84
31
84
115
62
115
131
78
131
85
32
85
103
50
103
144
91
144
111
58
111
81
28
81
92
39
92
78
25
78
150
97
150
152
99
152
122
69
122
106
53
106
85
32
85
116
63
116
104
51
104
105
52
105
81
28
81
151
98
151
105
52
105
87
34
87
84
31
84
141
88
141
156
103
156
146
93
146
91
38
91
111
58
111
107
54
107
150
97
150
108
55
108
86
33
86
120
67
120
107
54
107
131
78
131
115
62
115
113
60
113
127
74
127
140
87
140
100
47
100
106
53
106
127
74
127
102
49
102
87
34
87
92
39
92
113
60
113
77
24
77
109
56
109
91
38
91
144
91
144
104
51
104
87
34
87
160
107
160
102
49
102
110
57
110
92
39
92
111
58
111
83
30
83
145
92
145
107
54
107
99
46
99
104
51
104
113
60
113
143
90
143
131
78
131
93
40
93
104
51
104
151
98
151
75
22
75
144
91
144
132
79
132
114
61
114
111
58
111
107
54
107
134
81
134
129
76
129
132
79
132
107
54
107
100
47
100
107
54
107
110
57
110
140
87
140
84
31
84
156
103
156
108
55
108
75
22
75
110
57
110
110
57
110
111
58
111
104
51
104
87
34
87
92
39
92
112
59
112
89
36
89
116
63
116
98
45
98
79
26
79
99
46
99
68
15
68
109
56
109
104
51
104
102
49
102
96
43
96
83
30
83
79
26
79
67
14
67
152
99
152
172
119
172
107
54
107
84
31
84
86
33
86
142
89
142
156
103
156
88
35
88
149
96
149
121
68
121
127
74
127
85
32
85
156
103
156
155
102
155
83
30
83
150
97
150
112
59
112
105
52
105
131
78
131
157
104
157
112
59
112
92
39
92
104
51
104
79
26
79
100
47
100
