P3
# Created by GIMP version 2.10.36 PNM plug-in
16 16
255
90
34
34
94
38
38
80
24
24
80
24
24
97
41
41
118
62
62
76
20
20
95
39
39
89
33
33
106
50
50
76
20
20
95
39
39
77
21
21
64
8
8
100
44
44
125
69
69
97
41
41
104
48
48
105
49
49
87
31
31
95
39
39
100
44
44
105
49
49
73
17
17
78
22
22
129
73
73
71
15
15
66
10
10
174
118
118
163
107
107
93
37
37
87
31
31
95
39
39
136
80
80
97
41
41
140
84
84
70
14
14
74
18
18
100
44
44
119
63
63
119
63
63
75
19
19
97
41
41
136
80
80
95
39
39
105
49
49
70
14
14
96
40
40
81
25
25
91
35
35
65
9
9
95
39
39
94
38
38
97
41
41
87
31
31
78
22
22
80
24
24
142
86
86
74
18
18
98
42
42
80
24
24
106
50
50
98
42
42
96
40
40
66
10
10
74
18
18
136
80
80
93
37
37
113
57
57
93
37
37
77
21
21
144
88
88
149
93
93
91
35
35
101
45
45
92
36
36
122
66
66
93
37
37
74
18
18
72
16
16
161
105
105
130
74
74
66
10
10
100
44
44
71
15
15
113
57
57
139
83
83
96
40
40
100
44
44
92
36
36
93
37
37
100
44
44
74
18
18
73
17
17
136
80
80
133
77
77
91
35
35
66
10
10
100
44
44
67
11
11
131
75
75
96
40
40
101
45
45
100
44
44
122
66
66
119
63
63
74
18
18
68
12
12
134
78
78
135
79
79
89
33
33
94
38
38
100
44
44
94
38
38
98
42
42
77
21
21
119
63
63
97
41
41
99
43
43
82
26
26
77
21
21
72
16
16
105
49
49
87
31
31
81
25
25
73
17
17
104
48
48
120
64
64
74
18
18
92
36
36
133
77
77
100
44
44
70
14
14
81
25
25
67
11
11
139
83
83
141
85
85
111
55
55
95
39
39
74
18
18
105
49
49
93
37
37
94
38
38
70
14
14
140
84
84
94
38
38
76
20
20
73
17
17
130
74
74
145
89
89
135
79
79
80
24
24
100
44
44
96
40
40
139
83
83
97
41
41
75
19
19
109
53
53
96
40
40
120
64
64
104
48
48
102
46
46
116
60
60
129
73
73
89
33
33
95
39
39
116
60
60
91
35
35
76
20
20
81
25
25
102
46
46
66
10
10
98
42
42
80
24
24
133
77
77
93
37
37
76
20
20
149
93
93
91
35
35
99
43
43
81
25
25
100
44
44
72
16
16
134
78
78
96
40
40
88
32
32
93
37
37
102
46
46
132
76
76
120
64
64
82
26
26
93
37
37
140
84
84
64
8
8
133
77
77
121
65
65
103
47
47
100
44
44
96
40
40
123
67
67
118
62
62
121
65
65
96
40
40
89
33
33
96
40
40
99
43
43
129
73
73
73
17
17
145
89
89
97
41
41
64
8
8
99
43
43
99
43
43
100
44
44
93
37
37
76
20
20
81
25
25
101
45
45
78
22
22
105
49
49
87
31
31
68
12
12
88
32
32
57
1
1
98
42
42
93
37
37
91
35
35
85
29
29
72
16
16
68
12
12
56
0
0
141
85
85
161
105
105
96
40
40
73
17
17
75
19
19
131
75
75
145
89
89
77
21
21
138
82
82
110
54
54
116
60
60
74
18
18
145
89
89
144
88
88
72
16
16
139
83
83
101
45
45
94
38
38
120
64
64
146
90
90
101
45
45
81
25
25
93
37
37
68
12
12
89
33
33
