P3
# Created by GIMP version 2.10.36 PNM plug-in
16 16
255
42
96
115
46
100
119
32
86
105
32
86
105
49
103
122
70
124
143
28
82
101
47
101
120
41
95
114
58
112
131
28
82
101
47
101
120
29
83
102
16
70
89
52
106
125
77
131
150
49
103
122
56
110
129
57
111
130
39
93
112
47
101
120
52
106
125
57
111
130
25
79
98
30
84
103
81
135
154
23
77
96
18
72
91
126
180
199
115
169
188
45
99
118
39
93
112
47
101
120
88
142
161
49
103
122
92
146
165
22
76
95
26
80
99
52
106
125
71
125
144
71
125
144
27
81
100
49
103
122
88
142
161
47
101
120
57
111
130
22
76
95
48
102
121
33
87
106
43
97
116
17
71
90
47
101
120
46
100
119
49
103
122
39
93
112
30
84
103
32
86
105
94
148
167
26
80
99
50
104
123
32
86
105
58
112
131
50
104
123
48
102
121
18
72
91
26
80
99
88
142
161
45
99
118
65
119
138
45
99
118
29
83
102
96
150
169
101
155
174
43
97
116
53
107
126
44
98
117
74
128
147
45
99
118
26
80
99
24
78
97
113
167
186
82
136
155
18
72
91
52
106
125
23
77
96
65
119
138
91
145
164
48
102
121
52
106
125
44
98
117
45
99
118
52
106
125
26
80
99
25
79
98
88
142
161
85
139
158
43
97
116
18
72
91
52
106
125
19
73
92
83
137
156
48
102
121
53
107
126
52
106
125
74
128
147
71
125
144
26
80
99
20
74
93
86
140
159
87
141
160
41
95
114
46
100
119
52
106
125
46
100
119
50
104
123
29
83
102
71
125
144
49
103
122
51
105
124
34
88
107
29
83
102
24
78
97
57
111
130
39
93
112
33
87
106
25
79
98
56
110
129
72
126
145
26
80
99
44
98
117
85
139
158
52
106
125
22
76
95
33
87
106
19
73
92
91
145
164
93
147
166
63
117
136
47
101
120
26
80
99
57
111
130
45
99
118
46
100
119
22
76
95
92
146
165
46
100
119
28
82
101
25
79
98
82
136
155
97
151
170
87
141
160
32
86
105
52
106
125
48
102
121
91
145
164
49
103
122
27
81
100
61
115
134
48
102
121
72
126
145
56
110
129
54
108
127
68
122
141
81
135
154
41
95
114
47
101
120
68
122
141
43
97
116
28
82
101
33
87
106
54
108
127
18
72
91
50
104
123
32
86
105
85
139
158
45
99
118
28
82
101
101
155
174
43
97
116
51
105
124
33
87
106
52
106
125
24
78
97
86
140
159
48
102
121
40
94
113
45
99
118
54
108
127
84
138
157
72
126
145
34
88
107
45
99
118
92
146
165
16
70
89
85
139
158
73
127
146
55
109
128
52
106
125
48
102
121
75
129
148
70
124
143
73
127
146
48
102
121
41
95
114
48
102
121
51
105
124
81
135
154
25
79
98
97
151
170
49
103
122
16
70
89
51
105
124
51
105
124
52
106
125
45
99
118
28
82
101
33
87
106
53
107
126
30
84
103
57
111
130
39
93
112
20
74
93
40
94
113
9
63
82
50
104
123
45
99
118
43
97
116
37
91
110
24
78
97
20
74
93
8
62
81
93
147
166
113
167
186
48
102
121
25
79
98
27
81
100
83
137
156
97
151
170
29
83
102
90
144
163
62
116
135
68
122
141
26
80
99
97
151
170
96
150
169
24
78
97
91
145
164
53
107
126
46
100
119
72
126
145
98
152
171
53
107
126
33
87
106
45
99
118
20
74
93
41
95
114
