P3
# Created by GIMP version 2.10.36 PNM plug-in
16 16
255
58
70
34
62
74
38
48
60
24
48
60
24
65
77
41
86
98
62
44
56
20
63
75
39
57
69
33
74
86
50
44
56
20
63
75
39
45
57
21
32
44
8
68
80
44
93
105
69
65
77
41
72
84
48
73
85
49
55
67
31
63
75
39
68
80
44
73
85
49
41
53
17
46
58
22
97
109
73
39
51
15
34
46
10
142
154
118
131
143
107
61
73
37
55
67
31
63
75
39
104
116
80
65
77
41
108
120
84
38
50
14
42
54
18
68
80
44
87
99
63
87
99
63
43
55
19
65
77
41
104
116
80
63
75
39
73
85
49
38
50
14
64
76
40
49
61
25
59
71
35
33
45
9
63
75
39
62
74
38
65
77
41
55
67
31
46
58
22
48
60
24
110
122
86
42
54
18
66
78
42
48
60
24
74
86
50
66
78
42
64
76
40
34
46
10
42
54
18
104
116
80
61
73
37
81
93
57
61
73
37
45
57
21
112
124
88
117
129
93
59
71
35
69
81
45
60
72
36
90
102
66
61
73
37
42
54
18
40
52
16
129
141
105
98
110
74
34
46
10
68
80
44
39
51
15
81
93
57
107
119
83
64
76
40
68
80
44
60
72
36
61
73
37
68
80
44
42
54
18
41
53
17
104
116
80
101
113
77
59
71
35
34
46
10
68
80
44
35
47
11
99
111
75
64
76
40
69
81
45
68
80
44
90
102
66
87
99
63
42
54
18
36
48
12
102
114
78
103
115
79
57
69
33
62
74
38
68
80
44
62
74
38
66
78
42
45
57
21
87
99
63
65
77
41
67
79
43
50
62
26
45
57
21
40
52
16
73
85
49
55
67
31
49
61
25
41
53
17
72
84
48
88
100
64
42
54
18
60
72
36
101
113
77
68
80
44
38
50
14
49
61
25
35
47
11
107
119
83
109
121
85
79
91
55
63
75
39
42
54
18
73
85
49
61
73
37
62
74
38
38
50
14
108
120
84
62
74
38
44
56
20
41
53
17
98
110
74
113
125
89
103
115
79
48
60
24
68
80
44
64
76
40
107
119
83
65
77
41
43
55
19
77
89
53
64
76
40
88
100
64
72
84
48
70
82
46
84
96
60
97
109
73
57
69
33
63
75
39
84
96
60
59
71
35
44
56
20
49
61
25
70
82
46
34
46
10
66
78
42
48
60
24
101
113
77
61
73
37
44
56
20
117
129
93
59
71
35
67
79
43
49
61
25
68
80
44
40
52
16
102
114
78
64
76
40
56
68
32
61
73
37
70
82
46
100
112
76
88
100
64
50
62
26
61
73
37
108
120
84
32
44
8
101
113
77
89
101
65
71
83
47
68
80
44
64
76
40
91
103
67
86
98
62
89
101
65
64
76
40
57
69
33
64
76
40
67
79
43
97
109
73
41
53
17
113
125
89
65
77
41
32
44
8
67
79
43
67
79
43
68
80
44
61
73
37
44
56
20
49
61
25
69
81
45
46
58
22
73
85
49
55
67
31
36
48
12
56
68
32
25
37
1
66
78
42
61
73
37
59
71
35
53
65
29
40
52
16
36
48
12
24
36
0
109
121
85
129
141
105
64
76
40
41
53
17
43
55
19
99
111
75
113
125
89
45
57
21
106
118
82
78
90
54
84
96
60
42
54
18
113
125
89
112
124
88
40
52
16
107
119
83
69
81
45
62
74
38
88
100
64
114
126
90
69
81
45
49
61
25
61
73
37
36
48
12
57
69
33
