P3
# Created by GIMP version 2.10.36 PNM plug-in
16 16
255
68
48
35
72
52
39
58
38
25
58
38
25
75
55
42
96
76
63
54
34
21
73
53
40
67
47
34
84
64
51
54
34
21
73
53
40
55
35
22
42
22
9
78
58
45
103
83
70
75
55
42
82
62
49
83
63
50
65
45
32
73
53
40
78
58
45
83
63
50
51
31
18
56
36
23
107
87
74
49
29
16
44
24
11
152
132
119
141
121
108
71
51
38
65
45
32
73
53
40
114
94
81
75
55
42
118
98
85
48
28
15
52
32
19
78
58
45
97
77
64
97
77
64
53
33
20
75
55
42
114
94
81
73
53
40
83
63
50
48
28
15
74
54
41
59
39
26
69
49
36
43
23
10
73
53
40
72
52
39
75
55
42
65
45
32
56
36
23
58
38
25
120
100
87
52
32
19
76
56
43
58
38
25
84
64
51
76
56
43
74
54
41
44
24
11
52
32
19
114
94
81
71
51
38
91
71
58
71
51
38
55
35
22
122
102
89
127
107
94
69
49
36
79
59
46
70
50
37
100
80
67
71
51
38
52
32
19
50
30
17
139
119
106
108
88
75
44
24
11
78
58
45
49
29
16
91
71
58
117
97
84
74
54
41
78
58
45
70
50
37
71
51
38
78
58
45
52
32
19
51
31
18
114
94
81
111
91
78
69
49
36
44
24
11
78
58
45
45
25
12
109
89
76
74
54
41
79
59
46
78
58
45
100
80
67
97
77
64
52
32
19
46
26
13
112
92
79
113
93
80
67
47
34
72
52
39
78
58
45
72
52
39
76
56
43
55
35
22
97
77
64
75
55
42
77
57
44
60
40
27
55
35
22
50
30
17
83
63
50
65
45
32
59
39
26
51
31
18
82
62
49
98
78
65
52
32
19
70
50
37
111
91
78
78
58
45
48
28
15
59
39
26
45
25
12
117
97
84
119
99
86
89
69
56
73
53
40
52
32
19
83
63
50
71
51
38
72
52
39
48
28
15
118
98
85
72
52
39
54
34
21
51
31
18
108
88
75
123
103
90
113
93
80
58
38
25
78
58
45
74
54
41
117
97
84
75
55
42
53
33
20
87
67
54
74
54
41
98
78
65
82
62
49
80
60
47
94
74
61
107
87
74
67
47
34
73
53
40
94
74
61
69
49
36
54
34
21
59
39
26
80
60
47
44
24
11
76
56
43
58
38
25
111
91
78
71
51
38
54
34
21
127
107
94
69
49
36
77
57
44
59
39
26
78
58
45
50
30
17
112
92
79
74
54
41
66
46
33
71
51
38
80
60
47
110
90
77
98
78
65
60
40
27
71
51
38
118
98
85
42
22
9
111
91
78
99
79
66
81
61
48
78
58
45
74
54
41
101
81
68
96
76
63
99
79
66
74
54
41
67
47
34
74
54
41
77
57
44
107
87
74
51
31
18
123
103
90
75
55
42
42
22
9
77
57
44
77
57
44
78
58
45
71
51
38
54
34
21
59
39
26
79
59
46
56
36
23
83
63
50
65
45
32
46
26
13
66
46
33
35
15
2
76
56
43
71
51
38
69
49
36
63
43
30
50
30
17
46
26
13
34
14
1
119
99
86
139
119
106
74
54
41
51
31
18
53
33
20
109
89
76
123
103
90
55
35
22
116
96
83
88
68
55
94
74
61
52
32
19
123
103
90
122
102
89
50
30
17
117
97
84
79
59
46
72
52
39
98
78
65
124
104
91
79
59
46
59
39
26
71
51
38
46
26
13
67
47
34
