P3
# Created by GIMP version 2.10.36 PNM plug-in
16 16
255
121
105
39
125
109
43
111
95
29
111
95
29
128
112
46
149
133
67
107
91
25
126
110
44
120
104
38
137
121
55
107
91
25
126
110
44
108
92
26
95
79
13
131
115
49
156
140
74
128
112
46
135
119
53
136
120
54
118
102
36
126
110
44
131
115
49
136
120
54
104
88
22
109
93
27
160
144
78
102
86
20
97
81
15
205
189
123
194
178
112
124
108
42
118
102
36
126
110
44
167
151
85
128
112
46
171
155
89
101
85
19
105
89
23
131
115
49
150
134
68
150
134
68
106
90
24
128
112
46
167
151
85
126
110
44
136
120
54
101
85
19
127
111
45
112
96
30
122
106
40
96
80
14
126
110
44
125
109
43
128
112
46
118
102
36
109
93
27
111
95
29
173
157
91
105
89
23
129
113
47
111
95
29
137
121
55
129
113
47
127
111
45
97
81
15
105
89
23
167
151
85
124
108
42
144
128
62
124
108
42
108
92
26
175
159
93
180
164
98
122
106
40
132
116
50
123
107
41
153
137
71
124
108
42
105
89
23
103
87
21
192
176
110
161
145
79
97
81
15
131
115
49
102
86
20
144
128
62
170
154
88
127
111
45
131
115
49
123
107
41
124
108
42
131
115
49
105
89
23
104
88
22
167
151
85
164
148
82
122
106
40
97
81
15
131
115
49
98
82
16
162
146
80
127
111
45
132
116
50
131
115
49
153
137
71
150
134
68
105
89
23
99
83
17
165
149
83
166
150
84
120
104
38
125
109
43
131
115
49
125
109
43
129
113
47
108
92
26
150
134
68
128
112
46
130
114
48
113
97
31
108
92
26
103
87
21
136
120
54
118
102
36
112
96
30
104
88
22
135
119
53
151
135
69
105
89
23
123
107
41
164
148
82
131
115
49
101
85
19
112
96
30
98
82
16
170
154
88
172
156
90
142
126
60
126
110
44
105
89
23
136
120
54
124
108
42
125
109
43
101
85
19
171
155
89
125
109
43
107
91
25
104
88
22
161
145
79
176
160
94
166
150
84
111
95
29
131
115
49
127
111
45
170
154
88
128
112
46
106
90
24
140
124
58
127
111
45
151
135
69
135
119
53
133
117
51
147
131
65
160
144
78
120
104
38
126
110
44
147
131
65
122
106
40
107
91
25
112
96
30
133
117
51
97
81
15
129
113
47
111
95
29
164
148
82
124
108
42
107
91
25
180
164
98
122
106
40
130
114
48
112
96
30
131
115
49
103
87
21
165
149
83
127
111
45
119
103
37
124
108
42
133
117
51
163
147
81
151
135
69
113
97
31
124
108
42
171
155
89
95
79
13
164
148
82
152
136
70
134
118
52
131
115
49
127
111
45
154
138
72
149
133
67
152
136
70
127
111
45
120
104
38
127
111
45
130
114
48
160
144
78
104
88
22
176
160
94
128
112
46
95
79
13
130
114
48
130
114
48
131
115
49
124
108
42
107
91
25
112
96
30
132
116
50
109
93
27
136
120
54
118
102
36
99
83
17
119
103
37
88
72
6
129
113
47
124
108
42
122
106
40
116
100
34
103
87
21
99
83
17
87
71
5
172
156
90
192
176
110
127
111
45
104
88
22
106
90
24
162
146
80
176
160
94
108
92
26
169
153
87
141
125
59
147
131
65
105
89
23
176
160
94
175
159
93
103
87
21
170
154
88
132
116
50
125
109
43
151
135
69
177
161
95
132
116
50
112
96
30
124
108
42
99
83
17
120
104
38
