P3
# Created by GIMP version 2.10.36 PNM plug-in
16 16
255
119
83
99
123
87
103
109
73
89
109
73
89
126
90
106
147
111
127
105
69
85
124
88
104
118
82
98
135
99
115
105
69
85
124
88
104
106
70
86
93
57
73
129
93
109
154
118
134
126
90
106
133
97
113
134
98
114
116
80
96
124
88
104
129
93
109
134
98
114
102
66
82
107
71
87
158
122
138
100
64
80
95
59
75
203
167
183
192
156
172
122
86
102
116
80
96
124
88
104
165
129
145
126
90
106
169
133
149
99
63
79
103
67
83
129
93
109
148
112
128
148
112
128
104
68
84
126
90
106
165
129
145
124
88
104
134
98
114
99
63
79
125
89
105
110
74
90
120
84
100
94
58
74
124
88
104
123
87
103
126
90
106
116
80
96
107
71
87
109
73
89
171
135
151
103
67
83
127
91
107
109
73
89
135
99
115
127
91
107
125
89
105
95
59
75
103
67
83
165
129
145
122
86
102
142
106
122
122
86
102
106
70
86
173
137
153
178
142
158
120
84
100
130
94
110
121
85
101
151
115
131
122
86
102
103
67
83
101
65
81
190
154
170
159
123
139
95
59
75
129
93
109
100
64
80
142
106
122
168
132
148
125
89
105
129
93
109
121
85
101
122
86
102
129
93
109
103
67
83
102
66
82
165
129
145
162
126
142
120
84
100
95
59
75
129
93
109
96
60
76
160
124
140
125
89
105
130
94
110
129
93
109
151
115
131
148
112
128
103
67
83
97
61
77
163
127
143
164
128
144
118
82
98
123
87
103
129
93
109
123
87
103
127
91
107
106
70
86
148
112
128
126
90
106
128
92
108
111
75
91
106
70
86
101
65
81
134
98
114
116
80
96
110
74
90
102
66
82
133
97
113
149
113
129
103
67
83
121
85
101
162
126
142
129
93
109
99
63
79
110
74
90
96
60
76
168
132
148
170
134
150
140
104
120
124
88
104
103
67
83
134
98
114
122
86
102
123
87
103
99
63
79
169
133
149
123
87
103
105
69
85
102
66
82
159
123
139
174
138
154
164
128
144
109
73
89
129
93
109
125
89
105
168
132
148
126
90
106
104
68
84
138
102
118
125
89
105
149
113
129
133
97
113
131
95
111
145
109
125
158
122
138
118
82
98
124
88
104
145
109
125
120
84
100
105
69
85
110
74
90
131
95
111
95
59
75
127
91
107
109
73
89
162
126
142
122
86
102
105
69
85
178
142
158
120
84
100
128
92
108
110
74
90
129
93
109
101
65
81
163
127
143
125
89
105
117
81
97
122
86
102
131
95
111
161
125
141
149
113
129
111
75
91
122
86
102
169
133
149
93
57
73
162
126
142
150
114
130
132
96
112
129
93
109
125
89
105
152
116
132
147
111
127
150
114
130
125
89
105
118
82
98
125
89
105
128
92
108
158
122
138
102
66
82
174
138
154
126
90
106
93
57
73
128
92
108
128
92
108
129
93
109
122
86
102
105
69
85
110
74
90
130
94
110
107
71
87
134
98
114
116
80
96
97
61
77
117
81
97
86
50
66
127
91
107
122
86
102
120
84
100
114
78
94
101
65
81
97
61
77
85
49
65
170
134
150
190
154
170
125
89
105
102
66
82
104
68
84
160
124
140
174
138
154
106
70
86
167
131
147
139
103
119
145
109
125
103
67
83
174
138
154
173
137
153
101
65
81
168
132
148
130
94
110
123
87
103
149
113
129
175
139
155
130
94
110
110
74
90
122
86
102
97
61
77
118
82
98
