P3
# Created by GIMP version 2.10.36 PNM plug-in
16 16
255
35
34
61
39
38
65
25
24
51
25
24
51
42
41
68
63
62
89
21
20
47
40
39
66
34
33
60
51
50
77
21
20
47
40
39
66
22
21
48
9
8
35
45
44
71
70
69
96
42
41
68
49
48
75
50
49
76
32
31
58
40
39
66
45
44
71
50
49
76
18
17
44
23
22
49
74
73
100
16
15
42
11
10
37
119
118
145
108
107
134
38
37
64
32
31
58
40
39
66
81
80
107
42
41
68
85
84
111
15
14
41
19
18
45
45
44
71
64
63
90
64
63
90
20
19
46
42
41
68
81
80
107
40
39
66
50
49
76
15
14
41
41
40
67
26
25
52
36
35
62
10
9
36
40
39
66
39
38
65
42
41
68
32
31
58
23
22
49
25
24
51
87
86
113
19
18
45
43
42
69
25
24
51
51
50
77
43
42
69
41
40
67
11
10
37
19
18
45
81
80
107
38
37
64
58
57
84
38
37
64
22
21
48
89
88
115
94
93
120
36
35
62
46
45
72
37
36
63
67
66
93
38
37
64
19
18
45
17
16
43
106
105
132
75
74
101
11
10
37
45
44
71
16
15
42
58
57
84
84
83
110
41
40
67
45
44
71
37
36
63
38
37
64
45
44
71
19
18
45
18
17
44
81
80
107
78
77
104
36
35
62
11
10
37
45
44
71
12
11
38
76
75
102
41
40
67
46
45
72
45
44
71
67
66
93
64
63
90
19
18
45
13
12
39
79
78
105
80
79
106
34
33
60
39
38
65
45
44
71
39
38
65
43
42
69
22
21
48
64
63
90
42
41
68
44
43
70
27
26
53
22
21
48
17
16
43
50
49
76
32
31
58
26
25
52
18
17
44
49
48
75
65
64
91
19
18
45
37
36
63
78
77
104
45
44
71
15
14
41
26
25
52
12
11
38
84
83
110
86
85
112
56
55
82
40
39
66
19
18
45
50
49
76
38
37
64
39
38
65
15
14
41
85
84
111
39
38
65
21
20
47
18
17
44
75
74
101
90
89
116
80
79
106
25
24
51
45
44
71
41
40
67
84
83
110
42
41
68
20
19
46
54
53
80
41
40
67
65
64
91
49
48
75
47
46
73
61
60
87
74
73
100
34
33
60
40
39
66
61
60
87
36
35
62
21
20
47
26
25
52
47
46
73
11
10
37
43
42
69
25
24
51
78
77
104
38
37
64
21
20
47
94
93
120
36
35
62
44
43
70
26
25
52
45
44
71
17
16
43
79
78
105
41
40
67
33
32
59
38
37
64
47
46
73
77
76
103
65
64
91
27
26
53
38
37
64
85
84
111
9
8
35
78
77
104
66
65
92
48
47
74
45
44
71
41
40
67
68
67
94
63
62
89
66
65
92
41
40
67
34
33
60
41
40
67
44
43
70
74
73
100
18
17
44
90
89
116
42
41
68
9
8
35
44
43
70
44
43
70
45
44
71
38
37
64
21
20
47
26
25
52
46
45
72
23
22
49
50
49
76
32
31
58
13
12
39
33
32
59
2
1
28
43
42
69
38
37
64
36
35
62
30
29
56
17
16
43
13
12
39
1
0
27
86
85
112
106
105
132
41
40
67
18
17
44
20
19
46
76
75
102
90
89
116
22
21
48
83
82
109
55
54
81
61
60
87
19
18
45
90
89
116
89
88
115
17
16
43
84
83
110
46
45
72
39
38
65
65
64
91
91
90
117
46
45
72
26
25
52
38
37
64
13
12
39
34
33
60
