P3
# Created by GIMP version 2.10.36 PNM plug-in
16 16
255
34
36
41
38
40
45
24
26
31
24
26
31
41
43
48
62
64
69
20
22
27
39
41
46
33
35
40
50
52
57
20
22
27
39
41
46
21
23
28
8
10
15
44
46
51
69
71
76
41
43
48
48
50
55
49
51
56
31
33
38
39
41
46
44
46
51
49
51
56
17
19
24
22
24
29
73
75
80
15
17
22
10
12
17
118
120
125
107
109
114
37
39
44
31
33
38
39
41
46
80
82
87
41
43
48
84
86
91
14
16
21
18
20
25
44
46
51
63
65
70
63
65
70
19
21
26
41
43
48
80
82
87
39
41
46
49
51
56
14
16
21
40
42
47
25
27
32
35
37
42
9
11
16
39
41
46
38
40
45
41
43
48
31
33
38
22
24
29
24
26
31
86
88
93
18
20
25
42
44
49
24
26
31
50
52
57
42
44
49
40
42
47
10
12
17
18
20
25
80
82
87
37
39
44
57
59
64
37
39
44
21
23
28
88
90
95
93
95
100
35
37
42
45
47
52
36
38
43
66
68
73
37
39
44
18
20
25
16
18
23
105
107
112
74
76
81
10
12
17
44
46
51
15
17
22
57
59
64
83
85
90
40
42
47
44
46
51
36
38
43
37
39
44
44
46
51
18
20
25
17
19
24
80
82
87
77
79
84
35
37
42
10
12
17
44
46
51
11
13
18
75
77
82
40
42
47
45
47
52
44
46
51
66
68
73
63
65
70
18
20
25
12
14
19
78
80
85
79
81
86
33
35
40
38
40
45
44
46
51
38
40
45
42
44
49
21
23
28
63
65
70
41
43
48
43
45
50
26
28
33
21
23
28
16
18
23
49
51
56
31
33
38
25
27
32
17
19
24
48
50
55
64
66
71
18
20
25
36
38
43
77
79
84
44
46
51
14
16
21
25
27
32
11
13
18
83
85
90
85
87
92
55
57
62
39
41
46
18
20
25
49
51
56
37
39
44
38
40
45
14
16
21
84
86
91
38
40
45
20
22
27
17
19
24
74
76
81
89
91
96
79
81
86
24
26
31
44
46
51
40
42
47
83
85
90
41
43
48
19
21
26
53
55
60
40
42
47
64
66
71
48
50
55
46
48
53
60
62
67
73
75
80
33
35
40
39
41
46
60
62
67
35
37
42
20
22
27
25
27
32
46
48
53
10
12
17
42
44
49
24
26
31
77
79
84
37
39
44
20
22
27
93
95
100
35
37
42
43
45
50
25
27
32
44
46
51
16
18
23
78
80
85
40
42
47
32
34
39
37
39
44
46
48
53
76
78
83
64
66
71
26
28
33
37
39
44
84
86
91
8
10
15
77
79
84
65
67
72
47
49
54
44
46
51
40
42
47
67
69
74
62
64
69
65
67
72
40
42
47
33
35
40
40
42
47
43
45
50
73
75
80
17
19
24
89
91
96
41
43
48
8
10
15
43
45
50
43
45
50
44
46
51
37
39
44
20
22
27
25
27
32
45
47
52
22
24
29
49
51
56
31
33
38
12
14
19
32
34
39
1
3
8
42
44
49
37
39
44
35
37
42
29
31
36
16
18
23
12
14
19
0
2
7
85
87
92
105
107
112
40
42
47
17
19
24
19
21
26
75
77
82
89
91
96
21
23
28
82
84
89
54
56
61
60
62
67
18
20
25
89
91
96
88
90
95
16
18
23
83
85
90
45
47
52
38
40
45
64
66
71
90
92
97
45
47
52
25
27
32
37
39
44
12
14
19
33
35
40
