P3
# Created by GIMP version 2.10.36 PNM plug-in
16 16
255
34
92
98
38
96
102
24
82
88
24
82
88
41
99
105
62
120
126
20
78
84
39
97
103
33
91
97
50
108
114
20
78
84
39
97
103
21
79
85
8
66
72
44
102
108
69
127
133
41
99
105
48
106
112
49
107
113
31
89
95
39
97
103
44
102
108
49
107
113
17
75
81
22
80
86
73
131
137
15
73
79
10
68
74
118
176
182
107
165
171
37
95
101
31
89
95
39
97
103
80
138
144
41
99
105
84
142
148
14
72
78
18
76
82
44
102
108
63
121
127
63
121
127
19
77
83
41
99
105
80
138
144
39
97
103
49
107
113
14
72
78
40
98
104
25
83
89
35
93
99
9
67
73
39
97
103
38
96
102
41
99
105
31
89
95
22
80
86
24
82
88
86
144
150
18
76
82
42
100
106
24
82
88
50
108
114
42
100
106
40
98
104
10
68
74
18
76
82
80
138
144
37
95
101
57
115
121
37
95
101
21
79
85
88
146
152
93
151
157
35
93
99
45
103
109
36
94
100
66
124
130
37
95
101
18
76
82
16
74
80
105
163
169
74
132
138
10
68
74
44
102
108
15
73
79
57
115
121
83
141
147
40
98
104
44
102
108
36
94
100
37
95
101
44
102
108
18
76
82
17
75
81
80
138
144
77
135
141
35
93
99
10
68
74
44
102
108
11
69
75
75
133
139
40
98
104
45
103
109
44
102
108
66
124
130
63
121
127
18
76
82
12
70
76
78
136
142
79
137
143
33
91
97
38
96
102
44
102
108
38
96
102
42
100
106
21
79
85
63
121
127
41
99
105
43
101
107
26
84
90
21
79
85
16
74
80
49
107
113
31
89
95
25
83
89
17
75
81
48
106
112
64
122
128
18
76
82
36
94
100
77
135
141
44
102
108
14
72
78
25
83
89
11
69
75
83
141
147
85
143
149
55
113
119
39
97
103
18
76
82
49
107
113
37
95
101
38
96
102
14
72
78
84
142
148
38
96
102
20
78
84
17
75
81
74
132
138
89
147
153
79
137
143
24
82
88
44
102
108
40
98
104
83
141
147
41
99
105
19
77
83
53
111
117
40
98
104
64
122
128
48
106
112
46
104
110
60
118
124
73
131
137
33
91
97
39
97
103
60
118
124
35
93
99
20
78
84
25
83
89
46
104
110
10
68
74
42
100
106
24
82
88
77
135
141
37
95
101
20
78
84
93
151
157
35
93
99
43
101
107
25
83
89
44
102
108
16
74
80
78
136
142
40
98
104
32
90
96
37
95
101
46
104
110
76
134
140
64
122
128
26
84
90
37
95
101
84
142
148
8
66
72
77
135
141
65
123
129
47
105
111
44
102
108
40
98
104
67
125
131
62
120
126
65
123
129
40
98
104
33
91
97
40
98
104
43
101
107
73
131
137
17
75
81
89
147
153
41
99
105
8
66
72
43
101
107
43
101
107
44
102
108
37
95
101
20
78
84
25
83
89
45
103
109
22
80
86
49
107
113
31
89
95
12
70
76
32
90
96
1
59
65
42
100
106
37
95
101
35
93
99
29
87
93
16
74
80
12
70
76
0
58
64
85
143
149
105
163
169
40
98
104
17
75
81
19
77
83
75
133
139
89
147
153
21
79
85
82
140
146
54
112
118
60
118
124
18
76
82
89
147
153
88
146
152
16
74
80
83
141
147
45
103
109
38
96
102
64
122
128
90
148
154
45
103
109
25
83
89
37
95
101
12
70
76
33
91
97
