P3
# Created by GIMP version 2.10.36 PNM plug-in
16 16
255
65
69
118
69
73
122
55
59
108
55
59
108
72
76
125
93
97
146
51
55
104
70
74
123
64
68
117
81
85
134
51
55
104
70
74
123
52
56
105
39
43
92
75
79
128
100
104
153
72
76
125
79
83
132
80
84
133
62
66
115
70
74
123
75
79
128
80
84
133
48
52
101
53
57
106
104
108
157
46
50
99
41
45
94
149
153
202
138
142
191
68
72
121
62
66
115
70
74
123
111
115
164
72
76
125
115
119
168
45
49
98
49
53
102
75
79
128
94
98
147
94
98
147
50
54
103
72
76
125
111
115
164
70
74
123
80
84
133
45
49
98
71
75
124
56
60
109
66
70
119
40
44
93
70
74
123
69
73
122
72
76
125
62
66
115
53
57
106
55
59
108
117
121
170
49
53
102
73
77
126
55
59
108
81
85
134
73
77
126
71
75
124
41
45
94
49
53
102
111
115
164
68
72
121
88
92
141
68
72
121
52
56
105
119
123
172
124
128
177
66
70
119
76
80
129
67
71
120
97
101
150
68
72
121
49
53
102
47
51
100
136
140
189
105
109
158
41
45
94
75
79
128
46
50
99
88
92
141
114
118
167
71
75
124
75
79
128
67
71
120
68
72
121
75
79
128
49
53
102
48
52
101
111
115
164
108
112
161
66
70
119
41
45
94
75
79
128
42
46
95
106
110
159
71
75
124
76
80
129
75
79
128
97
101
150
94
98
147
49
53
102
43
47
96
109
113
162
110
114
163
64
68
117
69
73
122
75
79
128
69
73
122
73
77
126
52
56
105
94
98
147
72
76
125
74
78
127
57
61
110
52
56
105
47
51
100
80
84
133
62
66
115
56
60
109
48
52
101
79
83
132
95
99
148
49
53
102
67
71
120
108
112
161
75
79
128
45
49
98
56
60
109
42
46
95
114
118
167
116
120
169
86
90
139
70
74
123
49
53
102
80
84
133
68
72
121
69
73
122
45
49
98
115
119
168
69
73
122
51
55
104
48
52
101
105
109
158
120
124
173
110
114
163
55
59
108
75
79
128
71
75
124
114
118
167
72
76
125
50
54
103
84
88
137
71
75
124
95
99
148
79
83
132
77
81
130
91
95
144
104
108
157
64
68
117
70
74
123
91
95
144
66
70
119
51
55
104
56
60
109
77
81
130
41
45
94
73
77
126
55
59
108
108
112
161
68
72
121
51
55
104
124
128
177
66
70
119
74
78
127
56
60
109
75
79
128
47
51
100
109
113
162
71
75
124
63
67
116
68
72
121
77
81
130
107
111
160
95
99
148
57
61
110
68
72
121
115
119
168
39
43
92
108
112
161
96
100
149
78
82
131
75
79
128
71
75
124
98
102
151
93
97
146
96
100
149
71
75
124
64
68
117
71
75
124
74
78
127
104
108
157
48
52
101
120
124
173
72
76
125
39
43
92
74
78
127
74
78
127
75
79
128
68
72
121
51
55
104
56
60
109
76
80
129
53
57
106
80
84
133
62
66
115
43
47
96
63
67
116
32
36
85
73
77
126
68
72
121
66
70
119
60
64
113
47
51
100
43
47
96
31
35
84
116
120
169
136
140
189
71
75
124
48
52
101
50
54
103
106
110
159
120
124
173
52
56
105
113
117
166
85
89
138
91
95
144
49
53
102
120
124
173
119
123
172
47
51
100
114
118
167
76
80
129
69
73
122
95
99
148
121
125
174
76
80
129
56
60
109
68
72
121
43
47
96
64
68
117
