P3
# Created by GIMP version 2.10.36 PNM plug-in
16 16
255
53
108
171
57
112
175
43
98
161
43
98
161
60
115
178
81
136
199
39
94
157
58
113
176
52
107
170
69
124
187
39
94
157
58
113
176
40
95
158
27
82
145
63
118
181
88
143
206
60
115
178
67
122
185
68
123
186
50
105
168
58
113
176
63
118
181
68
123
186
36
91
154
41
96
159
92
147
210
34
89
152
29
84
147
137
192
255
126
181
255
56
111
174
50
105
168
58
113
176
99
154
217
60
115
178
103
158
221
33
88
151
37
92
155
63
118
181
82
137
200
82
137
200
38
93
156
60
115
178
99
154
217
58
113
176
68
123
186
33
88
151
59
114
177
44
99
162
54
109
172
28
83
146
58
113
176
57
112
175
60
115
178
50
105
168
41
96
159
43
98
161
105
160
223
37
92
155
61
116
179
43
98
161
69
124
187
61
116
179
59
114
177
29
84
147
37
92
155
99
154
217
56
111
174
76
131
194
56
111
174
40
95
158
107
162
225
112
167
230
54
109
172
64
119
182
55
110
173
85
140
203
56
111
174
37
92
155
35
90
153
124
179
242
93
148
211
29
84
147
63
118
181
34
89
152
76
131
194
102
157
220
59
114
177
63
118
181
55
110
173
56
111
174
63
118
181
37
92
155
36
91
154
99
154
217
96
151
214
54
109
172
29
84
147
63
118
181
30
85
148
94
149
212
59
114
177
64
119
182
63
118
181
85
140
203
82
137
200
37
92
155
31
86
149
97
152
215
98
153
216
52
107
170
57
112
175
63
118
181
57
112
175
61
116
179
40
95
158
82
137
200
60
115
178
62
117
180
45
100
163
40
95
158
35
90
153
68
123
186
50
105
168
44
99
162
36
91
154
67
122
185
83
138
201
37
92
155
55
110
173
96
151
214
63
118
181
33
88
151
44
99
162
30
85
148
102
157
220
104
159
222
74
129
192
58
113
176
37
92
155
68
123
186
56
111
174
57
112
175
33
88
151
103
158
221
57
112
175
39
94
157
36
91
154
93
148
211
108
163
226
98
153
216
43
98
161
63
118
181
59
114
177
102
157
220
60
115
178
38
93
156
72
127
190
59
114
177
83
138
201
67
122
185
65
120
183
79
134
197
92
147
210
52
107
170
58
113
176
79
134
197
54
109
172
39
94
157
44
99
162
65
120
183
29
84
147
61
116
179
43
98
161
96
151
214
56
111
174
39
94
157
112
167
230
54
109
172
62
117
180
44
99
162
63
118
181
35
90
153
97
152
215
59
114
177
51
106
169
56
111
174
65
120
183
95
150
213
83
138
201
45
100
163
56
111
174
103
158
221
27
82
145
96
151
214
84
139
202
66
121
184
63
118
181
59
114
177
86
141
204
81
136
199
84
139
202
59
114
177
52
107
170
59
114
177
62
117
180
92
147
210
36
91
154
108
163
226
60
115
178
27
82
145
62
117
180
62
117
180
63
118
181
56
111
174
39
94
157
44
99
162
64
119
182
41
96
159
68
123
186
50
105
168
31
86
149
51
106
169
20
75
138
61
116
179
56
111
174
54
109
172
48
103
166
35
90
153
31
86
149
19
74
137
104
159
222
124
179
242
59
114
177
36
91
154
38
93
156
94
149
212
108
163
226
40
95
158
101
156
219
73
128
191
79
134
197
37
92
155
108
163
226
107
162
225
35
90
153
102
157
220
64
119
182
57
112
175
83
138
201
109
164
227
64
119
182
44
99
162
56
111
174
31
86
149
52
107
170
