P3
# Created by GIMP version 2.10.36 PNM plug-in
16 16
255
141
95
93
145
99
97
131
85
83
131
85
83
148
102
100
169
123
121
127
81
79
146
100
98
140
94
92
157
111
109
127
81
79
146
100
98
128
82
80
115
69
67
151
105
103
176
130
128
148
102
100
155
109
107
156
110
108
138
92
90
146
100
98
151
105
103
156
110
108
124
78
76
129
83
81
180
134
132
122
76
74
117
71
69
225
179
177
214
168
166
144
98
96
138
92
90
146
100
98
187
141
139
148
102
100
191
145
143
121
75
73
125
79
77
151
105
103
170
124
122
170
124
122
126
80
78
148
102
100
187
141
139
146
100
98
156
110
108
121
75
73
147
101
99
132
86
84
142
96
94
116
70
68
146
100
98
145
99
97
148
102
100
138
92
90
129
83
81
131
85
83
193
147
145
125
79
77
149
103
101
131
85
83
157
111
109
149
103
101
147
101
99
117
71
69
125
79
77
187
141
139
144
98
96
164
118
116
144
98
96
128
82
80
195
149
147
200
154
152
142
96
94
152
106
104
143
97
95
173
127
125
144
98
96
125
79
77
123
77
75
212
166
164
181
135
133
117
71
69
151
105
103
122
76
74
164
118
116
190
144
142
147
101
99
151
105
103
143
97
95
144
98
96
151
105
103
125
79
77
124
78
76
187
141
139
184
138
136
142
96
94
117
71
69
151
105
103
118
72
70
182
136
134
147
101
99
152
106
104
151
105
103
173
127
125
170
124
122
125
79
77
119
73
71
185
139
137
186
140
138
140
94
92
145
99
97
151
105
103
145
99
97
149
103
101
128
82
80
170
124
122
148
102
100
150
104
102
133
87
85
128
82
80
123
77
75
156
110
108
138
92
90
132
86
84
124
78
76
155
109
107
171
125
123
125
79
77
143
97
95
184
138
136
151
105
103
121
75
73
132
86
84
118
72
70
190
144
142
192
146
144
162
116
114
146
100
98
125
79
77
156
110
108
144
98
96
145
99
97
121
75
73
191
145
143
145
99
97
127
81
79
124
78
76
181
135
133
196
150
148
186
140
138
131
85
83
151
105
103
147
101
99
190
144
142
148
102
100
126
80
78
160
114
112
147
101
99
171
125
123
155
109
107
153
107
105
167
121
119
180
134
132
140
94
92
146
100
98
167
121
119
142
96
94
127
81
79
132
86
84
153
107
105
117
71
69
149
103
101
131
85
83
184
138
136
144
98
96
127
81
79
200
154
152
142
96
94
150
104
102
132
86
84
151
105
103
123
77
75
185
139
137
147
101
99
139
93
91
144
98
96
153
107
105
183
137
135
171
125
123
133
87
85
144
98
96
191
145
143
115
69
67
184
138
136
172
126
124
154
108
106
151
105
103
147
101
99
174
128
126
169
123
121
172
126
124
147
101
99
140
94
92
147
101
99
150
104
102
180
134
132
124
78
76
196
150
148
148
102
100
115
69
67
150
104
102
150
104
102
151
105
103
144
98
96
127
81
79
132
86
84
152
106
104
129
83
81
156
110
108
138
92
90
119
73
71
139
93
91
108
62
60
149
103
101
144
98
96
142
96
94
136
90
88
123
77
75
119
73
71
107
61
59
192
146
144
212
166
164
147
101
99
124
78
76
126
80
78
182
136
134
196
150
148
128
82
80
189
143
141
161
115
113
167
121
119
125
79
77
196
150
148
195
149
147
123
77
75
190
144
142
152
106
104
145
99
97
171
125
123
197
151
149
152
106
104
132
86
84
144
98
96
119
73
71
140
94
92
