P3
# Created by GIMP version 2.10.36 PNM plug-in
16 16
255
45
104
155
49
108
159
35
94
145
35
94
145
52
111
162
73
132
183
31
90
141
50
109
160
44
103
154
61
120
171
31
90
141
50
109
160
32
91
142
19
78
129
55
114
165
80
139
190
52
111
162
59
118
169
60
119
170
42
101
152
50
109
160
55
114
165
60
119
170
28
87
138
33
92
143
84
143
194
26
85
136
21
80
131
129
188
239
118
177
228
48
107
158
42
101
152
50
109
160
91
150
201
52
111
162
95
154
205
25
84
135
29
88
139
55
114
165
74
133
184
74
133
184
30
89
140
52
111
162
91
150
201
50
109
160
60
119
170
25
84
135
51
110
161
36
95
146
46
105
156
20
79
130
50
109
160
49
108
159
52
111
162
42
101
152
33
92
143
35
94
145
97
156
207
29
88
139
53
112
163
35
94
145
61
120
171
53
112
163
51
110
161
21
80
131
29
88
139
91
150
201
48
107
158
68
127
178
48
107
158
32
91
142
99
158
209
104
163
214
46
105
156
56
115
166
47
106
157
77
136
187
48
107
158
29
88
139
27
86
137
116
175
226
85
144
195
21
80
131
55
114
165
26
85
136
68
127
178
94
153
204
51
110
161
55
114
165
47
106
157
48
107
158
55
114
165
29
88
139
28
87
138
91
150
201
88
147
198
46
105
156
21
80
131
55
114
165
22
81
132
86
145
196
51
110
161
56
115
166
55
114
165
77
136
187
74
133
184
29
88
139
23
82
133
89
148
199
90
149
200
44
103
154
49
108
159
55
114
165
49
108
159
53
112
163
32
91
142
74
133
184
52
111
162
54
113
164
37
96
147
32
91
142
27
86
137
60
119
170
42
101
152
36
95
146
28
87
138
59
118
169
75
134
185
29
88
139
47
106
157
88
147
198
55
114
165
25
84
135
36
95
146
22
81
132
94
153
204
96
155
206
66
125
176
50
109
160
29
88
139
60
119
170
48
107
158
49
108
159
25
84
135
95
154
205
49
108
159
31
90
141
28
87
138
85
144
195
100
159
210
90
149
200
35
94
145
55
114
165
51
110
161
94
153
204
52
111
162
30
89
140
64
123
174
51
110
161
75
134
185
59
118
169
57
116
167
71
130
181
84
143
194
44
103
154
50
109
160
71
130
181
46
105
156
31
90
141
36
95
146
57
116
167
21
80
131
53
112
163
35
94
145
88
147
198
48
107
158
31
90
141
104
163
214
46
105
156
54
113
164
36
95
146
55
114
165
27
86
137
89
148
199
51
110
161
43
102
153
48
107
158
57
116
167
87
146
197
75
134
185
37
96
147
48
107
158
95
154
205
19
78
129
88
147
198
76
135
186
58
117
168
55
114
165
51
110
161
78
137
188
73
132
183
76
135
186
51
110
161
44
103
154
51
110
161
54
113
164
84
143
194
28
87
138
100
159
210
52
111
162
19
78
129
54
113
164
54
113
164
55
114
165
48
107
158
31
90
141
36
95
146
56
115
166
33
92
143
60
119
170
42
101
152
23
82
133
43
102
153
12
71
122
53
112
163
48
107
158
46
105
156
40
99
150
27
86
137
23
82
133
11
70
121
96
155
206
116
175
226
51
110
161
28
87
138
30
89
140
86
145
196
100
159
210
32
91
142
93
152
203
65
124
175
71
130
181
29
88
139
100
159
210
99
158
209
27
86
137
94
153
204
56
115
166
49
108
159
75
134
185
101
160
211
56
115
166
36
95
146
48
107
158
23
82
133
44
103
154
