P3
# Created by GIMP version 2.10.36 PNM plug-in
16 16
255
123
71
168
127
75
172
113
61
158
113
61
158
130
78
175
151
99
196
109
57
154
128
76
173
122
70
167
139
87
184
109
57
154
128
76
173
110
58
155
97
45
142
133
81
178
158
106
203
130
78
175
137
85
182
138
86
183
120
68
165
128
76
173
133
81
178
138
86
183
106
54
151
111
59
156
162
110
207
104
52
149
99
47
144
207
155
252
196
144
241
126
74
171
120
68
165
128
76
173
169
117
214
130
78
175
173
121
218
103
51
148
107
55
152
133
81
178
152
100
197
152
100
197
108
56
153
130
78
175
169
117
214
128
76
173
138
86
183
103
51
148
129
77
174
114
62
159
124
72
169
98
46
143
128
76
173
127
75
172
130
78
175
120
68
165
111
59
156
113
61
158
175
123
220
107
55
152
131
79
176
113
61
158
139
87
184
131
79
176
129
77
174
99
47
144
107
55
152
169
117
214
126
74
171
146
94
191
126
74
171
110
58
155
177
125
222
182
130
227
124
72
169
134
82
179
125
73
170
155
103
200
126
74
171
107
55
152
105
53
150
194
142
239
163
111
208
99
47
144
133
81
178
104
52
149
146
94
191
172
120
217
129
77
174
133
81
178
125
73
170
126
74
171
133
81
178
107
55
152
106
54
151
169
117
214
166
114
211
124
72
169
99
47
144
133
81
178
100
48
145
164
112
209
129
77
174
134
82
179
133
81
178
155
103
200
152
100
197
107
55
152
101
49
146
167
115
212
168
116
213
122
70
167
127
75
172
133
81
178
127
75
172
131
79
176
110
58
155
152
100
197
130
78
175
132
80
177
115
63
160
110
58
155
105
53
150
138
86
183
120
68
165
114
62
159
106
54
151
137
85
182
153
101
198
107
55
152
125
73
170
166
114
211
133
81
178
103
51
148
114
62
159
100
48
145
172
120
217
174
122
219
144
92
189
128
76
173
107
55
152
138
86
183
126
74
171
127
75
172
103
51
148
173
121
218
127
75
172
109
57
154
106
54
151
163
111
208
178
126
223
168
116
213
113
61
158
133
81
178
129
77
174
172
120
217
130
78
175
108
56
153
142
90
187
129
77
174
153
101
198
137
85
182
135
83
180
149
97
194
162
110
207
122
70
167
128
76
173
149
97
194
124
72
169
109
57
154
114
62
159
135
83
180
99
47
144
131
79
176
113
61
158
166
114
211
126
74
171
109
57
154
182
130
227
124
72
169
132
80
177
114
62
159
133
81
178
105
53
150
167
115
212
129
77
174
121
69
166
126
74
171
135
83
180
165
113
210
153
101
198
115
63
160
126
74
171
173
121
218
97
45
142
166
114
211
154
102
199
136
84
181
133
81
178
129
77
174
156
104
201
151
99
196
154
102
199
129
77
174
122
70
167
129
77
174
132
80
177
162
110
207
106
54
151
178
126
223
130
78
175
97
45
142
132
80
177
132
80
177
133
81
178
126
74
171
109
57
154
114
62
159
134
82
179
111
59
156
138
86
183
120
68
165
101
49
146
121
69
166
90
38
135
131
79
176
126
74
171
124
72
169
118
66
163
105
53
150
101
49
146
89
37
134
174
122
219
194
142
239
129
77
174
106
54
151
108
56
153
164
112
209
178
126
223
110
58
155
171
119
216
143
91
188
149
97
194
107
55
152
178
126
223
177
125
222
105
53
150
172
120
217
134
82
179
127
75
172
153
101
198
179
127
224
134
82
179
114
62
159
126
74
171
101
49
146
122
70
167
