P3
# Created by GIMP version 2.10.36 PNM plug-in
16 16
255
105
106
150
109
110
154
95
96
140
95
96
140
112
113
157
133
134
178
91
92
136
110
111
155
104
105
149
121
122
166
91
92
136
110
111
155
92
93
137
79
80
124
115
116
160
140
141
185
112
113
157
119
120
164
120
121
165
102
103
147
110
111
155
115
116
160
120
121
165
88
89
133
93
94
138
144
145
189
86
87
131
81
82
126
189
190
234
178
179
223
108
109
153
102
103
147
110
111
155
151
152
196
112
113
157
155
156
200
85
86
130
89
90
134
115
116
160
134
135
179
134
135
179
90
91
135
112
113
157
151
152
196
110
111
155
120
121
165
85
86
130
111
112
156
96
97
141
106
107
151
80
81
125
110
111
155
109
110
154
112
113
157
102
103
147
93
94
138
95
96
140
157
158
202
89
90
134
113
114
158
95
96
140
121
122
166
113
114
158
111
112
156
81
82
126
89
90
134
151
152
196
108
109
153
128
129
173
108
109
153
92
93
137
159
160
204
164
165
209
106
107
151
116
117
161
107
108
152
137
138
182
108
109
153
89
90
134
87
88
132
176
177
221
145
146
190
81
82
126
115
116
160
86
87
131
128
129
173
154
155
199
111
112
156
115
116
160
107
108
152
108
109
153
115
116
160
89
90
134
88
89
133
151
152
196
148
149
193
106
107
151
81
82
126
115
116
160
82
83
127
146
147
191
111
112
156
116
117
161
115
116
160
137
138
182
134
135
179
89
90
134
83
84
128
149
150
194
150
151
195
104
105
149
109
110
154
115
116
160
109
110
154
113
114
158
92
93
137
134
135
179
112
113
157
114
115
159
97
98
142
92
93
137
87
88
132
120
121
165
102
103
147
96
97
141
88
89
133
119
120
164
135
136
180
89
90
134
107
108
152
148
149
193
115
116
160
85
86
130
96
97
141
82
83
127
154
155
199
156
157
201
126
127
171
110
111
155
89
90
134
120
121
165
108
109
153
109
110
154
85
86
130
155
156
200
109
110
154
91
92
136
88
89
133
145
146
190
160
161
205
150
151
195
95
96
140
115
116
160
111
112
156
154
155
199
112
113
157
90
91
135
124
125
169
111
112
156
135
136
180
119
120
164
117
118
162
131
132
176
144
145
189
104
105
149
110
111
155
131
132
176
106
107
151
91
92
136
96
97
141
117
118
162
81
82
126
113
114
158
95
96
140
148
149
193
108
109
153
91
92
136
164
165
209
106
107
151
114
115
159
96
97
141
115
116
160
87
88
132
149
150
194
111
112
156
103
104
148
108
109
153
117
118
162
147
148
192
135
136
180
97
98
142
108
109
153
155
156
200
79
80
124
148
149
193
136
137
181
118
119
163
115
116
160
111
112
156
138
139
183
133
134
178
136
137
181
111
112
156
104
105
149
111
112
156
114
115
159
144
145
189
88
89
133
160
161
205
112
113
157
79
80
124
114
115
159
114
115
159
115
116
160
108
109
153
91
92
136
96
97
141
116
117
161
93
94
138
120
121
165
102
103
147
83
84
128
103
104
148
72
73
117
113
114
158
108
109
153
106
107
151
100
101
145
87
88
132
83
84
128
71
72
116
156
157
201
176
177
221
111
112
156
88
89
133
90
91
135
146
147
191
160
161
205
92
93
137
153
154
198
125
126
170
131
132
176
89
90
134
160
161
205
159
160
204
87
88
132
154
155
199
116
117
161
109
110
154
135
136
180
161
162
206
116
117
161
96
97
141
108
109
153
83
84
128
104
105
149
