P3
# Created by GIMP version 2.10.36 PNM plug-in
16 16
255
90
71
102
94
75
106
80
61
92
80
61
92
97
78
109
118
99
130
76
57
88
95
76
107
89
70
101
106
87
118
76
57
88
95
76
107
77
58
89
64
45
76
100
81
112
125
106
137
97
78
109
104
85
116
105
86
117
87
68
99
95
76
107
100
81
112
105
86
117
73
54
85
78
59
90
129
110
141
71
52
83
66
47
78
174
155
186
163
144
175
93
74
105
87
68
99
95
76
107
136
117
148
97
78
109
140
121
152
70
51
82
74
55
86
100
81
112
119
100
131
119
100
131
75
56
87
97
78
109
136
117
148
95
76
107
105
86
117
70
51
82
96
77
108
81
62
93
91
72
103
65
46
77
95
76
107
94
75
106
97
78
109
87
68
99
78
59
90
80
61
92
142
123
154
74
55
86
98
79
110
80
61
92
106
87
118
98
79
110
96
77
108
66
47
78
74
55
86
136
117
148
93
74
105
113
94
125
93
74
105
77
58
89
144
125
156
149
130
161
91
72
103
101
82
113
92
73
104
122
103
134
93
74
105
74
55
86
72
53
84
161
142
173
130
111
142
66
47
78
100
81
112
71
52
83
113
94
125
139
120
151
96
77
108
100
81
112
92
73
104
93
74
105
100
81
112
74
55
86
73
54
85
136
117
148
133
114
145
91
72
103
66
47
78
100
81
112
67
48
79
131
112
143
96
77
108
101
82
113
100
81
112
122
103
134
119
100
131
74
55
86
68
49
80
134
115
146
135
116
147
89
70
101
94
75
106
100
81
112
94
75
106
98
79
110
77
58
89
119
100
131
97
78
109
99
80
111
82
63
94
77
58
89
72
53
84
105
86
117
87
68
99
81
62
93
73
54
85
104
85
116
120
101
132
74
55
86
92
73
104
133
114
145
100
81
112
70
51
82
81
62
93
67
48
79
139
120
151
141
122
153
111
92
123
95
76
107
74
55
86
105
86
117
93
74
105
94
75
106
70
51
82
140
121
152
94
75
106
76
57
88
73
54
85
130
111
142
145
126
157
135
116
147
80
61
92
100
81
112
96
77
108
139
120
151
97
78
109
75
56
87
109
90
121
96
77
108
120
101
132
104
85
116
102
83
114
116
97
128
129
110
141
89
70
101
95
76
107
116
97
128
91
72
103
76
57
88
81
62
93
102
83
114
66
47
78
98
79
110
80
61
92
133
114
145
93
74
105
76
57
88
149
130
161
91
72
103
99
80
111
81
62
93
100
81
112
72
53
84
134
115
146
96
77
108
88
69
100
93
74
105
102
83
114
132
113
144
120
101
132
82
63
94
93
74
105
140
121
152
64
45
76
133
114
145
121
102
133
103
84
115
100
81
112
96
77
108
123
104
135
118
99
130
121
102
133
96
77
108
89
70
101
96
77
108
99
80
111
129
110
141
73
54
85
145
126
157
97
78
109
64
45
76
99
80
111
99
80
111
100
81
112
93
74
105
76
57
88
81
62
93
101
82
113
78
59
90
105
86
117
87
68
99
68
49
80
88
69
100
57
38
69
98
79
110
93
74
105
91
72
103
85
66
97
72
53
84
68
49
80
56
37
68
141
122
153
161
142
173
96
77
108
73
54
85
75
56
87
131
112
143
145
126
157
77
58
89
138
119
150
110
91
122
116
97
128
74
55
86
145
126
157
144
125
156
72
53
84
139
120
151
101
82
113
94
75
106
120
101
132
146
127
158
101
82
113
81
62
93
93
74
105
68
49
80
89
70
101
