P3
# Created by GIMP version 2.10.36 PNM plug-in
16 16
255
142
106
167
146
110
171
132
96
157
132
96
157
149
113
174
170
134
195
128
92
153
147
111
172
141
105
166
158
122
183
128
92
153
147
111
172
129
93
154
116
80
141
152
116
177
177
141
202
149
113
174
156
120
181
157
121
182
139
103
164
147
111
172
152
116
177
157
121
182
125
89
150
130
94
155
181
145
206
123
87
148
118
82
143
226
190
251
215
179
240
145
109
170
139
103
164
147
111
172
188
152
213
149
113
174
192
156
217
122
86
147
126
90
151
152
116
177
171
135
196
171
135
196
127
91
152
149
113
174
188
152
213
147
111
172
157
121
182
122
86
147
148
112
173
133
97
158
143
107
168
117
81
142
147
111
172
146
110
171
149
113
174
139
103
164
130
94
155
132
96
157
194
158
219
126
90
151
150
114
175
132
96
157
158
122
183
150
114
175
148
112
173
118
82
143
126
90
151
188
152
213
145
109
170
165
129
190
145
109
170
129
93
154
196
160
221
201
165
226
143
107
168
153
117
178
144
108
169
174
138
199
145
109
170
126
90
151
124
88
149
213
177
238
182
146
207
118
82
143
152
116
177
123
87
148
165
129
190
191
155
216
148
112
173
152
116
177
144
108
169
145
109
170
152
116
177
126
90
151
125
89
150
188
152
213
185
149
210
143
107
168
118
82
143
152
116
177
119
83
144
183
147
208
148
112
173
153
117
178
152
116
177
174
138
199
171
135
196
126
90
151
120
84
145
186
150
211
187
151
212
141
105
166
146
110
171
152
116
177
146
110
171
150
114
175
129
93
154
171
135
196
149
113
174
151
115
176
134
98
159
129
93
154
124
88
149
157
121
182
139
103
164
133
97
158
125
89
150
156
120
181
172
136
197
126
90
151
144
108
169
185
149
210
152
116
177
122
86
147
133
97
158
119
83
144
191
155
216
193
157
218
163
127
188
147
111
172
126
90
151
157
121
182
145
109
170
146
110
171
122
86
147
192
156
217
146
110
171
128
92
153
125
89
150
182
146
207
197
161
222
187
151
212
132
96
157
152
116
177
148
112
173
191
155
216
149
113
174
127
91
152
161
125
186
148
112
173
172
136
197
156
120
181
154
118
179
168
132
193
181
145
206
141
105
166
147
111
172
168
132
193
143
107
168
128
92
153
133
97
158
154
118
179
118
82
143
150
114
175
132
96
157
185
149
210
145
109
170
128
92
153
201
165
226
143
107
168
151
115
176
133
97
158
152
116
177
124
88
149
186
150
211
148
112
173
140
104
165
145
109
170
154
118
179
184
148
209
172
136
197
134
98
159
145
109
170
192
156
217
116
80
141
185
149
210
173
137
198
155
119
180
152
116
177
148
112
173
175
139
200
170
134
195
173
137
198
148
112
173
141
105
166
148
112
173
151
115
176
181
145
206
125
89
150
197
161
222
149
113
174
116
80
141
151
115
176
151
115
176
152
116
177
145
109
170
128
92
153
133
97
158
153
117
178
130
94
155
157
121
182
139
103
164
120
84
145
140
104
165
109
73
134
150
114
175
145
109
170
143
107
168
137
101
162
124
88
149
120
84
145
108
72
133
193
157
218
213
177
238
148
112
173
125
89
150
127
91
152
183
147
208
197
161
222
129
93
154
190
154
215
162
126
187
168
132
193
126
90
151
197
161
222
196
160
221
124
88
149
191
155
216
153
117
178
146
110
171
172
136
197
198
162
223
153
117
178
133
97
158
145
109
170
120
84
145
141
105
166
