P3
# Created by GIMP version 2.10.36 PNM plug-in
16 16
255
93
56
164
97
60
168
83
46
154
83
46
154
100
63
171
121
84
192
79
42
150
98
61
169
92
55
163
109
72
180
79
42
150
98
61
169
80
43
151
67
30
138
103
66
174
128
91
199
100
63
171
107
70
178
108
71
179
90
53
161
98
61
169
103
66
174
108
71
179
76
39
147
81
44
152
132
95
203
74
37
145
69
32
140
177
140
248
166
129
237
96
59
167
90
53
161
98
61
169
139
102
210
100
63
171
143
106
214
73
36
144
77
40
148
103
66
174
122
85
193
122
85
193
78
41
149
100
63
171
139
102
210
98
61
169
108
71
179
73
36
144
99
62
170
84
47
155
94
57
165
68
31
139
98
61
169
97
60
168
100
63
171
90
53
161
81
44
152
83
46
154
145
108
216
77
40
148
101
64
172
83
46
154
109
72
180
101
64
172
99
62
170
69
32
140
77
40
148
139
102
210
96
59
167
116
79
187
96
59
167
80
43
151
147
110
218
152
115
223
94
57
165
104
67
175
95
58
166
125
88
196
96
59
167
77
40
148
75
38
146
164
127
235
133
96
204
69
32
140
103
66
174
74
37
145
116
79
187
142
105
213
99
62
170
103
66
174
95
58
166
96
59
167
103
66
174
77
40
148
76
39
147
139
102
210
136
99
207
94
57
165
69
32
140
103
66
174
70
33
141
134
97
205
99
62
170
104
67
175
103
66
174
125
88
196
122
85
193
77
40
148
71
34
142
137
100
208
138
101
209
92
55
163
97
60
168
103
66
174
97
60
168
101
64
172
80
43
151
122
85
193
100
63
171
102
65
173
85
48
156
80
43
151
75
38
146
108
71
179
90
53
161
84
47
155
76
39
147
107
70
178
123
86
194
77
40
148
95
58
166
136
99
207
103
66
174
73
36
144
84
47
155
70
33
141
142
105
213
144
107
215
114
77
185
98
61
169
77
40
148
108
71
179
96
59
167
97
60
168
73
36
144
143
106
214
97
60
168
79
42
150
76
39
147
133
96
204
148
111
219
138
101
209
83
46
154
103
66
174
99
62
170
142
105
213
100
63
171
78
41
149
112
75
183
99
62
170
123
86
194
107
70
178
105
68
176
119
82
190
132
95
203
92
55
163
98
61
169
119
82
190
94
57
165
79
42
150
84
47
155
105
68
176
69
32
140
101
64
172
83
46
154
136
99
207
96
59
167
79
42
150
152
115
223
94
57
165
102
65
173
84
47
155
103
66
174
75
38
146
137
100
208
99
62
170
91
54
162
96
59
167
105
68
176
135
98
206
123
86
194
85
48
156
96
59
167
143
106
214
67
30
138
136
99
207
124
87
195
106
69
177
103
66
174
99
62
170
126
89
197
121
84
192
124
87
195
99
62
170
92
55
163
99
62
170
102
65
173
132
95
203
76
39
147
148
111
219
100
63
171
67
30
138
102
65
173
102
65
173
103
66
174
96
59
167
79
42
150
84
47
155
104
67
175
81
44
152
108
71
179
90
53
161
71
34
142
91
54
162
60
23
131
101
64
172
96
59
167
94
57
165
88
51
159
75
38
146
71
34
142
59
22
130
144
107
215
164
127
235
99
62
170
76
39
147
78
41
149
134
97
205
148
111
219
80
43
151
141
104
212
113
76
184
119
82
190
77
40
148
148
111
219
147
110
218
75
38
146
142
105
213
104
67
175
97
60
168
123
86
194
149
112
220
104
67
175
84
47
155
96
59
167
71
34
142
92
55
163
