P3
# Created by GIMP version 2.10.36 PNM plug-in
16 16
255
90
123
96
94
127
100
80
113
86
80
113
86
97
130
103
118
151
124
76
109
82
95
128
101
89
122
95
106
139
112
76
109
82
95
128
101
77
110
83
64
97
70
100
133
106
125
158
131
97
130
103
104
137
110
105
138
111
87
120
93
95
128
101
100
133
106
105
138
111
73
106
79
78
111
84
129
162
135
71
104
77
66
99
72
174
207
180
163
196
169
93
126
99
87
120
93
95
128
101
136
169
142
97
130
103
140
173
146
70
103
76
74
107
80
100
133
106
119
152
125
119
152
125
75
108
81
97
130
103
136
169
142
95
128
101
105
138
111
70
103
76
96
129
102
81
114
87
91
124
97
65
98
71
95
128
101
94
127
100
97
130
103
87
120
93
78
111
84
80
113
86
142
175
148
74
107
80
98
131
104
80
113
86
106
139
112
98
131
104
96
129
102
66
99
72
74
107
80
136
169
142
93
126
99
113
146
119
93
126
99
77
110
83
144
177
150
149
182
155
91
124
97
101
134
107
92
125
98
122
155
128
93
126
99
74
107
80
72
105
78
161
194
167
130
163
136
66
99
72
100
133
106
71
104
77
113
146
119
139
172
145
96
129
102
100
133
106
92
125
98
93
126
99
100
133
106
74
107
80
73
106
79
136
169
142
133
166
139
91
124
97
66
99
72
100
133
106
67
100
73
131
164
137
96
129
102
101
134
107
100
133
106
122
155
128
119
152
125
74
107
80
68
101
74
134
167
140
135
168
141
89
122
95
94
127
100
100
133
106
94
127
100
98
131
104
77
110
83
119
152
125
97
130
103
99
132
105
82
115
88
77
110
83
72
105
78
105
138
111
87
120
93
81
114
87
73
106
79
104
137
110
120
153
126
74
107
80
92
125
98
133
166
139
100
133
106
70
103
76
81
114
87
67
100
73
139
172
145
141
174
147
111
144
117
95
128
101
74
107
80
105
138
111
93
126
99
94
127
100
70
103
76
140
173
146
94
127
100
76
109
82
73
106
79
130
163
136
145
178
151
135
168
141
80
113
86
100
133
106
96
129
102
139
172
145
97
130
103
75
108
81
109
142
115
96
129
102
120
153
126
104
137
110
102
135
108
116
149
122
129
162
135
89
122
95
95
128
101
116
149
122
91
124
97
76
109
82
81
114
87
102
135
108
66
99
72
98
131
104
80
113
86
133
166
139
93
126
99
76
109
82
149
182
155
91
124
97
99
132
105
81
114
87
100
133
106
72
105
78
134
167
140
96
129
102
88
121
94
93
126
99
102
135
108
132
165
138
120
153
126
82
115
88
93
126
99
140
173
146
64
97
70
133
166
139
121
154
127
103
136
109
100
133
106
96
129
102
123
156
129
118
151
124
121
154
127
96
129
102
89
122
95
96
129
102
99
132
105
129
162
135
73
106
79
145
178
151
97
130
103
64
97
70
99
132
105
99
132
105
100
133
106
93
126
99
76
109
82
81
114
87
101
134
107
78
111
84
105
138
111
87
120
93
68
101
74
88
121
94
57
90
63
98
131
104
93
126
99
91
124
97
85
118
91
72
105
78
68
101
74
56
89
62
141
174
147
161
194
167
96
129
102
73
106
79
75
108
81
131
164
137
145
178
151
77
110
83
138
171
144
110
143
116
116
149
122
74
107
80
145
178
151
144
177
150
72
105
78
139
172
145
101
134
107
94
127
100
120
153
126
146
179
152
101
134
107
81
114
87
93
126
99
68
101
74
89
122
95
