P3
# Created by GIMP version 2.10.36 PNM plug-in
16 16
255
62
65
159
66
69
163
52
55
149
52
55
149
69
72
166
90
93
187
48
51
145
67
70
164
61
64
158
78
81
175
48
51
145
67
70
164
49
52
146
36
39
133
72
75
169
97
100
194
69
72
166
76
79
173
77
80
174
59
62
156
67
70
164
72
75
169
77
80
174
45
48
142
50
53
147
101
104
198
43
46
140
38
41
135
146
149
243
135
138
232
65
68
162
59
62
156
67
70
164
108
111
205
69
72
166
112
115
209
42
45
139
46
49
143
72
75
169
91
94
188
91
94
188
47
50
144
69
72
166
108
111
205
67
70
164
77
80
174
42
45
139
68
71
165
53
56
150
63
66
160
37
40
134
67
70
164
66
69
163
69
72
166
59
62
156
50
53
147
52
55
149
114
117
211
46
49
143
70
73
167
52
55
149
78
81
175
70
73
167
68
71
165
38
41
135
46
49
143
108
111
205
65
68
162
85
88
182
65
68
162
49
52
146
116
119
213
121
124
218
63
66
160
73
76
170
64
67
161
94
97
191
65
68
162
46
49
143
44
47
141
133
136
230
102
105
199
38
41
135
72
75
169
43
46
140
85
88
182
111
114
208
68
71
165
72
75
169
64
67
161
65
68
162
72
75
169
46
49
143
45
48
142
108
111
205
105
108
202
63
66
160
38
41
135
72
75
169
39
42
136
103
106
200
68
71
165
73
76
170
72
75
169
94
97
191
91
94
188
46
49
143
40
43
137
106
109
203
107
110
204
61
64
158
66
69
163
72
75
169
66
69
163
70
73
167
49
52
146
91
94
188
69
72
166
71
74
168
54
57
151
49
52
146
44
47
141
77
80
174
59
62
156
53
56
150
45
48
142
76
79
173
92
95
189
46
49
143
64
67
161
105
108
202
72
75
169
42
45
139
53
56
150
39
42
136
111
114
208
113
116
210
83
86
180
67
70
164
46
49
143
77
80
174
65
68
162
66
69
163
42
45
139
112
115
209
66
69
163
48
51
145
45
48
142
102
105
199
117
120
214
107
110
204
52
55
149
72
75
169
68
71
165
111
114
208
69
72
166
47
50
144
81
84
178
68
71
165
92
95
189
76
79
173
74
77
171
88
91
185
101
104
198
61
64
158
67
70
164
88
91
185
63
66
160
48
51
145
53
56
150
74
77
171
38
41
135
70
73
167
52
55
149
105
108
202
65
68
162
48
51
145
121
124
218
63
66
160
71
74
168
53
56
150
72
75
169
44
47
141
106
109
203
68
71
165
60
63
157
65
68
162
74
77
171
104
107
201
92
95
189
54
57
151
65
68
162
112
115
209
36
39
133
105
108
202
93
96
190
75
78
172
72
75
169
68
71
165
95
98
192
90
93
187
93
96
190
68
71
165
61
64
158
68
71
165
71
74
168
101
104
198
45
48
142
117
120
214
69
72
166
36
39
133
71
74
168
71
74
168
72
75
169
65
68
162
48
51
145
53
56
150
73
76
170
50
53
147
77
80
174
59
62
156
40
43
137
60
63
157
29
32
126
70
73
167
65
68
162
63
66
160
57
60
154
44
47
141
40
43
137
28
31
125
113
116
210
133
136
230
68
71
165
45
48
142
47
50
144
103
106
200
117
120
214
49
52
146
110
113
207
82
85
179
88
91
185
46
49
143
117
120
214
116
119
213
44
47
141
111
114
208
73
76
170
66
69
163
92
95
189
118
121
215
73
76
170
53
56
150
65
68
162
40
43
137
61
64
158
