P3
# Created by GIMP version 2.10.36 PNM plug-in
16 16
255
140
62
44
144
66
48
130
52
34
130
52
34
147
69
51
168
90
72
126
48
30
145
67
49
139
61
43
156
78
60
126
48
30
145
67
49
127
49
31
114
36
18
150
72
54
175
97
79
147
69
51
154
76
58
155
77
59
137
59
41
145
67
49
150
72
54
155
77
59
123
45
27
128
50
32
179
101
83
121
43
25
116
38
20
224
146
128
213
135
117
143
65
47
137
59
41
145
67
49
186
108
90
147
69
51
190
112
94
120
42
24
124
46
28
150
72
54
169
91
73
169
91
73
125
47
29
147
69
51
186
108
90
145
67
49
155
77
59
120
42
24
146
68
50
131
53
35
141
63
45
115
37
19
145
67
49
144
66
48
147
69
51
137
59
41
128
50
32
130
52
34
192
114
96
124
46
28
148
70
52
130
52
34
156
78
60
148
70
52
146
68
50
116
38
20
124
46
28
186
108
90
143
65
47
163
85
67
143
65
47
127
49
31
194
116
98
199
121
103
141
63
45
151
73
55
142
64
46
172
94
76
143
65
47
124
46
28
122
44
26
211
133
115
180
102
84
116
38
20
150
72
54
121
43
25
163
85
67
189
111
93
146
68
50
150
72
54
142
64
46
143
65
47
150
72
54
124
46
28
123
45
27
186
108
90
183
105
87
141
63
45
116
38
20
150
72
54
117
39
21
181
103
85
146
68
50
151
73
55
150
72
54
172
94
76
169
91
73
124
46
28
118
40
22
184
106
88
185
107
89
139
61
43
144
66
48
150
72
54
144
66
48
148
70
52
127
49
31
169
91
73
147
69
51
149
71
53
132
54
36
127
49
31
122
44
26
155
77
59
137
59
41
131
53
35
123
45
27
154
76
58
170
92
74
124
46
28
142
64
46
183
105
87
150
72
54
120
42
24
131
53
35
117
39
21
189
111
93
191
113
95
161
83
65
145
67
49
124
46
28
155
77
59
143
65
47
144
66
48
120
42
24
190
112
94
144
66
48
126
48
30
123
45
27
180
102
84
195
117
99
185
107
89
130
52
34
150
72
54
146
68
50
189
111
93
147
69
51
125
47
29
159
81
63
146
68
50
170
92
74
154
76
58
152
74
56
166
88
70
179
101
83
139
61
43
145
67
49
166
88
70
141
63
45
126
48
30
131
53
35
152
74
56
116
38
20
148
70
52
130
52
34
183
105
87
143
65
47
126
48
30
199
121
103
141
63
45
149
71
53
131
53
35
150
72
54
122
44
26
184
106
88
146
68
50
138
60
42
143
65
47
152
74
56
182
104
86
170
92
74
132
54
36
143
65
47
190
112
94
114
36
18
183
105
87
171
93
75
153
75
57
150
72
54
146
68
50
173
95
77
168
90
72
171
93
75
146
68
50
139
61
43
146
68
50
149
71
53
179
101
83
123
45
27
195
117
99
147
69
51
114
36
18
149
71
53
149
71
53
150
72
54
143
65
47
126
48
30
131
53
35
151
73
55
128
50
32
155
77
59
137
59
41
118
40
22
138
60
42
107
29
11
148
70
52
143
65
47
141
63
45
135
57
39
122
44
26
118
40
22
106
28
10
191
113
95
211
133
115
146
68
50
123
45
27
125
47
29
181
103
85
195
117
99
127
49
31
188
110
92
160
82
64
166
88
70
124
46
28
195
117
99
194
116
98
122
44
26
189
111
93
151
73
55
144
66
48
170
92
74
196
118
100
151
73
55
131
53
35
143
65
47
118
40
22
139
61
43
