P3
# Created by GIMP version 2.10.36 PNM plug-in
16 16
255
104
95
40
108
99
44
94
85
30
94
85
30
111
102
47
132
123
68
90
81
26
109
100
45
103
94
39
120
111
56
90
81
26
109
100
45
91
82
27
78
69
14
114
105
50
139
130
75
111
102
47
118
109
54
119
110
55
101
92
37
109
100
45
114
105
50
119
110
55
87
78
23
92
83
28
143
134
79
85
76
21
80
71
16
188
179
124
177
168
113
107
98
43
101
92
37
109
100
45
150
141
86
111
102
47
154
145
90
84
75
20
88
79
24
114
105
50
133
124
69
133
124
69
89
80
25
111
102
47
150
141
86
109
100
45
119
110
55
84
75
20
110
101
46
95
86
31
105
96
41
79
70
15
109
100
45
108
99
44
111
102
47
101
92
37
92
83
28
94
85
30
156
147
92
88
79
24
112
103
48
94
85
30
120
111
56
112
103
48
110
101
46
80
71
16
88
79
24
150
141
86
107
98
43
127
118
63
107
98
43
91
82
27
158
149
94
163
154
99
105
96
41
115
106
51
106
97
42
136
127
72
107
98
43
88
79
24
86
77
22
175
166
111
144
135
80
80
71
16
114
105
50
85
76
21
127
118
63
153
144
89
110
101
46
114
105
50
106
97
42
107
98
43
114
105
50
88
79
24
87
78
23
150
141
86
147
138
83
105
96
41
80
71
16
114
105
50
81
72
17
145
136
81
110
101
46
115
106
51
114
105
50
136
127
72
133
124
69
88
79
24
82
73
18
148
139
84
149
140
85
103
94
39
108
99
44
114
105
50
108
99
44
112
103
48
91
82
27
133
124
69
111
102
47
113
104
49
96
87
32
91
82
27
86
77
22
119
110
55
101
92
37
95
86
31
87
78
23
118
109
54
134
125
70
88
79
24
106
97
42
147
138
83
114
105
50
84
75
20
95
86
31
81
72
17
153
144
89
155
146
91
125
116
61
109
100
45
88
79
24
119
110
55
107
98
43
108
99
44
84
75
20
154
145
90
108
99
44
90
81
26
87
78
23
144
135
80
159
150
95
149
140
85
94
85
30
114
105
50
110
101
46
153
144
89
111
102
47
89
80
25
123
114
59
110
101
46
134
125
70
118
109
54
116
107
52
130
121
66
143
134
79
103
94
39
109
100
45
130
121
66
105
96
41
90
81
26
95
86
31
116
107
52
80
71
16
112
103
48
94
85
30
147
138
83
107
98
43
90
81
26
163
154
99
105
96
41
113
104
49
95
86
31
114
105
50
86
77
22
148
139
84
110
101
46
102
93
38
107
98
43
116
107
52
146
137
82
134
125
70
96
87
32
107
98
43
154
145
90
78
69
14
147
138
83
135
126
71
117
108
53
114
105
50
110
101
46
137
128
73
132
123
68
135
126
71
110
101
46
103
94
39
110
101
46
113
104
49
143
134
79
87
78
23
159
150
95
111
102
47
78
69
14
113
104
49
113
104
49
114
105
50
107
98
43
90
81
26
95
86
31
115
106
51
92
83
28
119
110
55
101
92
37
82
73
18
102
93
38
71
62
7
112
103
48
107
98
43
105
96
41
99
90
35
86
77
22
82
73
18
70
61
6
155
146
91
175
166
111
110
101
46
87
78
23
89
80
25
145
136
81
159
150
95
91
82
27
152
143
88
124
115
60
130
121
66
88
79
24
159
150
95
158
149
94
86
77
22
153
144
89
115
106
51
108
99
44
134
125
70
160
151
96
115
106
51
95
86
31
107
98
43
82
73
18
103
94
39
