P3
# Created by GIMP version 2.10.36 PNM plug-in
16 16
255
121
62
107
125
66
111
111
52
97
111
52
97
128
69
114
149
90
135
107
48
93
126
67
112
120
61
106
137
78
123
107
48
93
126
67
112
108
49
94
95
36
81
131
72
117
156
97
142
128
69
114
135
76
121
136
77
122
118
59
104
126
67
112
131
72
117
136
77
122
104
45
90
109
50
95
160
101
146
102
43
88
97
38
83
205
146
191
194
135
180
124
65
110
118
59
104
126
67
112
167
108
153
128
69
114
171
112
157
101
42
87
105
46
91
131
72
117
150
91
136
150
91
136
106
47
92
128
69
114
167
108
153
126
67
112
136
77
122
101
42
87
127
68
113
112
53
98
122
63
108
96
37
82
126
67
112
125
66
111
128
69
114
118
59
104
109
50
95
111
52
97
173
114
159
105
46
91
129
70
115
111
52
97
137
78
123
129
70
115
127
68
113
97
38
83
105
46
91
167
108
153
124
65
110
144
85
130
124
65
110
108
49
94
175
116
161
180
121
166
122
63
108
132
73
118
123
64
109
153
94
139
124
65
110
105
46
91
103
44
89
192
133
178
161
102
147
97
38
83
131
72
117
102
43
88
144
85
130
170
111
156
127
68
113
131
72
117
123
64
109
124
65
110
131
72
117
105
46
91
104
45
90
167
108
153
164
105
150
122
63
108
97
38
83
131
72
117
98
39
84
162
103
148
127
68
113
132
73
118
131
72
117
153
94
139
150
91
136
105
46
91
99
40
85
165
106
151
166
107
152
120
61
106
125
66
111
131
72
117
125
66
111
129
70
115
108
49
94
150
91
136
128
69
114
130
71
116
113
54
99
108
49
94
103
44
89
136
77
122
118
59
104
112
53
98
104
45
90
135
76
121
151
92
137
105
46
91
123
64
109
164
105
150
131
72
117
101
42
87
112
53
98
98
39
84
170
111
156
172
113
158
142
83
128
126
67
112
105
46
91
136
77
122
124
65
110
125
66
111
101
42
87
171
112
157
125
66
111
107
48
93
104
45
90
161
102
147
176
117
162
166
107
152
111
52
97
131
72
117
127
68
113
170
111
156
128
69
114
106
47
92
140
81
126
127
68
113
151
92
137
135
76
121
133
74
119
147
88
133
160
101
146
120
61
106
126
67
112
147
88
133
122
63
108
107
48
93
112
53
98
133
74
119
97
38
83
129
70
115
111
52
97
164
105
150
124
65
110
107
48
93
180
121
166
122
63
108
130
71
116
112
53
98
131
72
117
103
44
89
165
106
151
127
68
113
119
60
105
124
65
110
133
74
119
163
104
149
151
92
137
113
54
99
124
65
110
171
112
157
95
36
81
164
105
150
152
93
138
134
75
120
131
72
117
127
68
113
154
95
140
149
90
135
152
93
138
127
68
113
120
61
106
127
68
113
130
71
116
160
101
146
104
45
90
176
117
162
128
69
114
95
36
81
130
71
116
130
71
116
131
72
117
124
65
110
107
48
93
112
53
98
132
73
118
109
50
95
136
77
122
118
59
104
99
40
85
119
60
105
88
29
74
129
70
115
124
65
110
122
63
108
116
57
102
103
44
89
99
40
85
87
28
73
172
113
158
192
133
178
127
68
113
104
45
90
106
47
92
162
103
148
176
117
162
108
49
94
169
110
155
141
82
127
147
88
133
105
46
91
176
117
162
175
116
161
103
44
89
170
111
156
132
73
118
125
66
111
151
92
137
177
118
163
132
73
118
112
53
98
124
65
110
99
40
85
120
61
106
