P3
# Created by GIMP version 2.10.36 PNM plug-in
16 16
255
73
110
98
77
114
102
63
100
88
63
100
88
80
117
105
101
138
126
59
96
84
78
115
103
72
109
97
89
126
114
59
96
84
78
115
103
60
97
85
47
84
72
83
120
108
108
145
133
80
117
105
87
124
112
88
125
113
70
107
95
78
115
103
83
120
108
88
125
113
56
93
81
61
98
86
112
149
137
54
91
79
49
86
74
157
194
182
146
183
171
76
113
101
70
107
95
78
115
103
119
156
144
80
117
105
123
160
148
53
90
78
57
94
82
83
120
108
102
139
127
102
139
127
58
95
83
80
117
105
119
156
144
78
115
103
88
125
113
53
90
78
79
116
104
64
101
89
74
111
99
48
85
73
78
115
103
77
114
102
80
117
105
70
107
95
61
98
86
63
100
88
125
162
150
57
94
82
81
118
106
63
100
88
89
126
114
81
118
106
79
116
104
49
86
74
57
94
82
119
156
144
76
113
101
96
133
121
76
113
101
60
97
85
127
164
152
132
169
157
74
111
99
84
121
109
75
112
100
105
142
130
76
113
101
57
94
82
55
92
80
144
181
169
113
150
138
49
86
74
83
120
108
54
91
79
96
133
121
122
159
147
79
116
104
83
120
108
75
112
100
76
113
101
83
120
108
57
94
82
56
93
81
119
156
144
116
153
141
74
111
99
49
86
74
83
120
108
50
87
75
114
151
139
79
116
104
84
121
109
83
120
108
105
142
130
102
139
127
57
94
82
51
88
76
117
154
142
118
155
143
72
109
97
77
114
102
83
120
108
77
114
102
81
118
106
60
97
85
102
139
127
80
117
105
82
119
107
65
102
90
60
97
85
55
92
80
88
125
113
70
107
95
64
101
89
56
93
81
87
124
112
103
140
128
57
94
82
75
112
100
116
153
141
83
120
108
53
90
78
64
101
89
50
87
75
122
159
147
124
161
149
94
131
119
78
115
103
57
94
82
88
125
113
76
113
101
77
114
102
53
90
78
123
160
148
77
114
102
59
96
84
56
93
81
113
150
138
128
165
153
118
155
143
63
100
88
83
120
108
79
116
104
122
159
147
80
117
105
58
95
83
92
129
117
79
116
104
103
140
128
87
124
112
85
122
110
99
136
124
112
149
137
72
109
97
78
115
103
99
136
124
74
111
99
59
96
84
64
101
89
85
122
110
49
86
74
81
118
106
63
100
88
116
153
141
76
113
101
59
96
84
132
169
157
74
111
99
82
119
107
64
101
89
83
120
108
55
92
80
117
154
142
79
116
104
71
108
96
76
113
101
85
122
110
115
152
140
103
140
128
65
102
90
76
113
101
123
160
148
47
84
72
116
153
141
104
141
129
86
123
111
83
120
108
79
116
104
106
143
131
101
138
126
104
141
129
79
116
104
72
109
97
79
116
104
82
119
107
112
149
137
56
93
81
128
165
153
80
117
105
47
84
72
82
119
107
82
119
107
83
120
108
76
113
101
59
96
84
64
101
89
84
121
109
61
98
86
88
125
113
70
107
95
51
88
76
71
108
96
40
77
65
81
118
106
76
113
101
74
111
99
68
105
93
55
92
80
51
88
76
39
76
64
124
161
149
144
181
169
79
116
104
56
93
81
58
95
83
114
151
139
128
165
153
60
97
85
121
158
146
93
130
118
99
136
124
57
94
82
128
165
153
127
164
152
55
92
80
122
159
147
84
121
109
77
114
102
103
140
128
129
166
154
84
121
109
64
101
89
76
113
101
51
88
76
72
109
97
