P3
# Created by GIMP version 2.10.36 PNM plug-in
16 16
255
169
101
36
173
105
40
159
91
26
159
91
26
176
108
43
197
129
64
155
87
22
174
106
41
168
100
35
185
117
52
155
87
22
174
106
41
156
88
23
143
75
10
179
111
46
204
136
71
176
108
43
183
115
50
184
116
51
166
98
33
174
106
41
179
111
46
184
116
51
152
84
19
157
89
24
208
140
75
150
82
17
145
77
12
253
185
120
242
174
109
172
104
39
166
98
33
174
106
41
215
147
82
176
108
43
219
151
86
149
81
16
153
85
20
179
111
46
198
130
65
198
130
65
154
86
21
176
108
43
215
147
82
174
106
41
184
116
51
149
81
16
175
107
42
160
92
27
170
102
37
144
76
11
174
106
41
173
105
40
176
108
43
166
98
33
157
89
24
159
91
26
221
153
88
153
85
20
177
109
44
159
91
26
185
117
52
177
109
44
175
107
42
145
77
12
153
85
20
215
147
82
172
104
39
192
124
59
172
104
39
156
88
23
223
155
90
228
160
95
170
102
37
180
112
47
171
103
38
201
133
68
172
104
39
153
85
20
151
83
18
240
172
107
209
141
76
145
77
12
179
111
46
150
82
17
192
124
59
218
150
85
175
107
42
179
111
46
171
103
38
172
104
39
179
111
46
153
85
20
152
84
19
215
147
82
212
144
79
170
102
37
145
77
12
179
111
46
146
78
13
210
142
77
175
107
42
180
112
47
179
111
46
201
133
68
198
130
65
153
85
20
147
79
14
213
145
80
214
146
81
168
100
35
173
105
40
179
111
46
173
105
40
177
109
44
156
88
23
198
130
65
176
108
43
178
110
45
161
93
28
156
88
23
151
83
18
184
116
51
166
98
33
160
92
27
152
84
19
183
115
50
199
131
66
153
85
20
171
103
38
212
144
79
179
111
46
149
81
16
160
92
27
146
78
13
218
150
85
220
152
87
190
122
57
174
106
41
153
85
20
184
116
51
172
104
39
173
105
40
149
81
16
219
151
86
173
105
40
155
87
22
152
84
19
209
141
76
224
156
91
214
146
81
159
91
26
179
111
46
175
107
42
218
150
85
176
108
43
154
86
21
188
120
55
175
107
42
199
131
66
183
115
50
181
113
48
195
127
62
208
140
75
168
100
35
174
106
41
195
127
62
170
102
37
155
87
22
160
92
27
181
113
48
145
77
12
177
109
44
159
91
26
212
144
79
172
104
39
155
87
22
228
160
95
170
102
37
178
110
45
160
92
27
179
111
46
151
83
18
213
145
80
175
107
42
167
99
34
172
104
39
181
113
48
211
143
78
199
131
66
161
93
28
172
104
39
219
151
86
143
75
10
212
144
79
200
132
67
182
114
49
179
111
46
175
107
42
202
134
69
197
129
64
200
132
67
175
107
42
168
100
35
175
107
42
178
110
45
208
140
75
152
84
19
224
156
91
176
108
43
143
75
10
178
110
45
178
110
45
179
111
46
172
104
39
155
87
22
160
92
27
180
112
47
157
89
24
184
116
51
166
98
33
147
79
14
167
99
34
136
68
3
177
109
44
172
104
39
170
102
37
164
96
31
151
83
18
147
79
14
135
67
2
220
152
87
240
172
107
175
107
42
152
84
19
154
86
21
210
142
77
224
156
91
156
88
23
217
149
84
189
121
56
195
127
62
153
85
20
224
156
91
223
155
90
151
83
18
218
150
85
180
112
47
173
105
40
199
131
66
225
157
92
180
112
47
160
92
27
172
104
39
147
79
14
168
100
35
