P3
# Created by GIMP version 2.10.36 PNM plug-in
16 16
255
151
77
111
155
81
115
141
67
101
141
67
101
158
84
118
179
105
139
137
63
97
156
82
116
150
76
110
167
93
127
137
63
97
156
82
116
138
64
98
125
51
85
161
87
121
186
112
146
158
84
118
165
91
125
166
92
126
148
74
108
156
82
116
161
87
121
166
92
126
134
60
94
139
65
99
190
116
150
132
58
92
127
53
87
235
161
195
224
150
184
154
80
114
148
74
108
156
82
116
197
123
157
158
84
118
201
127
161
131
57
91
135
61
95
161
87
121
180
106
140
180
106
140
136
62
96
158
84
118
197
123
157
156
82
116
166
92
126
131
57
91
157
83
117
142
68
102
152
78
112
126
52
86
156
82
116
155
81
115
158
84
118
148
74
108
139
65
99
141
67
101
203
129
163
135
61
95
159
85
119
141
67
101
167
93
127
159
85
119
157
83
117
127
53
87
135
61
95
197
123
157
154
80
114
174
100
134
154
80
114
138
64
98
205
131
165
210
136
170
152
78
112
162
88
122
153
79
113
183
109
143
154
80
114
135
61
95
133
59
93
222
148
182
191
117
151
127
53
87
161
87
121
132
58
92
174
100
134
200
126
160
157
83
117
161
87
121
153
79
113
154
80
114
161
87
121
135
61
95
134
60
94
197
123
157
194
120
154
152
78
112
127
53
87
161
87
121
128
54
88
192
118
152
157
83
117
162
88
122
161
87
121
183
109
143
180
106
140
135
61
95
129
55
89
195
121
155
196
122
156
150
76
110
155
81
115
161
87
121
155
81
115
159
85
119
138
64
98
180
106
140
158
84
118
160
86
120
143
69
103
138
64
98
133
59
93
166
92
126
148
74
108
142
68
102
134
60
94
165
91
125
181
107
141
135
61
95
153
79
113
194
120
154
161
87
121
131
57
91
142
68
102
128
54
88
200
126
160
202
128
162
172
98
132
156
82
116
135
61
95
166
92
126
154
80
114
155
81
115
131
57
91
201
127
161
155
81
115
137
63
97
134
60
94
191
117
151
206
132
166
196
122
156
141
67
101
161
87
121
157
83
117
200
126
160
158
84
118
136
62
96
170
96
130
157
83
117
181
107
141
165
91
125
163
89
123
177
103
137
190
116
150
150
76
110
156
82
116
177
103
137
152
78
112
137
63
97
142
68
102
163
89
123
127
53
87
159
85
119
141
67
101
194
120
154
154
80
114
137
63
97
210
136
170
152
78
112
160
86
120
142
68
102
161
87
121
133
59
93
195
121
155
157
83
117
149
75
109
154
80
114
163
89
123
193
119
153
181
107
141
143
69
103
154
80
114
201
127
161
125
51
85
194
120
154
182
108
142
164
90
124
161
87
121
157
83
117
184
110
144
179
105
139
182
108
142
157
83
117
150
76
110
157
83
117
160
86
120
190
116
150
134
60
94
206
132
166
158
84
118
125
51
85
160
86
120
160
86
120
161
87
121
154
80
114
137
63
97
142
68
102
162
88
122
139
65
99
166
92
126
148
74
108
129
55
89
149
75
109
118
44
78
159
85
119
154
80
114
152
78
112
146
72
106
133
59
93
129
55
89
117
43
77
202
128
162
222
148
182
157
83
117
134
60
94
136
62
96
192
118
152
206
132
166
138
64
98
199
125
159
171
97
131
177
103
137
135
61
95
206
132
166
205
131
165
133
59
93
200
126
160
162
88
122
155
81
115
181
107
141
207
133
167
162
88
122
142
68
102
154
80
114
129
55
89
150
76
110
