P3
# Created by GIMP version 2.10.36 PNM plug-in
16 16
255
171
134
49
175
138
53
161
124
39
161
124
39
178
141
56
199
162
77
157
120
35
176
139
54
170
133
48
187
150
65
157
120
35
176
139
54
158
121
36
145
108
23
181
144
59
206
169
84
178
141
56
185
148
63
186
149
64
168
131
46
176
139
54
181
144
59
186
149
64
154
117
32
159
122
37
210
173
88
152
115
30
147
110
25
255
218
133
244
207
122
174
137
52
168
131
46
176
139
54
217
180
95
178
141
56
221
184
99
151
114
29
155
118
33
181
144
59
200
163
78
200
163
78
156
119
34
178
141
56
217
180
95
176
139
54
186
149
64
151
114
29
177
140
55
162
125
40
172
135
50
146
109
24
176
139
54
175
138
53
178
141
56
168
131
46
159
122
37
161
124
39
223
186
101
155
118
33
179
142
57
161
124
39
187
150
65
179
142
57
177
140
55
147
110
25
155
118
33
217
180
95
174
137
52
194
157
72
174
137
52
158
121
36
225
188
103
230
193
108
172
135
50
182
145
60
173
136
51
203
166
81
174
137
52
155
118
33
153
116
31
242
205
120
211
174
89
147
110
25
181
144
59
152
115
30
194
157
72
220
183
98
177
140
55
181
144
59
173
136
51
174
137
52
181
144
59
155
118
33
154
117
32
217
180
95
214
177
92
172
135
50
147
110
25
181
144
59
148
111
26
212
175
90
177
140
55
182
145
60
181
144
59
203
166
81
200
163
78
155
118
33
149
112
27
215
178
93
216
179
94
170
133
48
175
138
53
181
144
59
175
138
53
179
142
57
158
121
36
200
163
78
178
141
56
180
143
58
163
126
41
158
121
36
153
116
31
186
149
64
168
131
46
162
125
40
154
117
32
185
148
63
201
164
79
155
118
33
173
136
51
214
177
92
181
144
59
151
114
29
162
125
40
148
111
26
220
183
98
222
185
100
192
155
70
176
139
54
155
118
33
186
149
64
174
137
52
175
138
53
151
114
29
221
184
99
175
138
53
157
120
35
154
117
32
211
174
89
226
189
104
216
179
94
161
124
39
181
144
59
177
140
55
220
183
98
178
141
56
156
119
34
190
153
68
177
140
55
201
164
79
185
148
63
183
146
61
197
160
75
210
173
88
170
133
48
176
139
54
197
160
75
172
135
50
157
120
35
162
125
40
183
146
61
147
110
25
179
142
57
161
124
39
214
177
92
174
137
52
157
120
35
230
193
108
172
135
50
180
143
58
162
125
40
181
144
59
153
116
31
215
178
93
177
140
55
169
132
47
174
137
52
183
146
61
213
176
91
201
164
79
163
126
41
174
137
52
221
184
99
145
108
23
214
177
92
202
165
80
184
147
62
181
144
59
177
140
55
204
167
82
199
162
77
202
165
80
177
140
55
170
133
48
177
140
55
180
143
58
210
173
88
154
117
32
226
189
104
178
141
56
145
108
23
180
143
58
180
143
58
181
144
59
174
137
52
157
120
35
162
125
40
182
145
60
159
122
37
186
149
64
168
131
46
149
112
27
169
132
47
138
101
16
179
142
57
174
137
52
172
135
50
166
129
44
153
116
31
149
112
27
137
100
15
222
185
100
242
205
120
177
140
55
154
117
32
156
119
34
212
175
90
226
189
104
158
121
36
219
182
97
191
154
69
197
160
75
155
118
33
226
189
104
225
188
103
153
116
31
220
183
98
182
145
60
175
138
53
201
164
79
227
190
105
182
145
60
162
125
40
174
137
52
149
112
27
170
133
48
