P3
# Created by GIMP version 2.10.36 PNM plug-in
16 16
255
92
125
125
96
129
129
82
115
115
82
115
115
99
132
132
120
153
153
78
111
111
97
130
130
91
124
124
108
141
141
78
111
111
97
130
130
79
112
112
66
99
99
102
135
135
127
160
160
99
132
132
106
139
139
107
140
140
89
122
122
97
130
130
102
135
135
107
140
140
75
108
108
80
113
113
131
164
164
73
106
106
68
101
101
176
209
209
165
198
198
95
128
128
89
122
122
97
130
130
138
171
171
99
132
132
142
175
175
72
105
105
76
109
109
102
135
135
121
154
154
121
154
154
77
110
110
99
132
132
138
171
171
97
130
130
107
140
140
72
105
105
98
131
131
83
116
116
93
126
126
67
100
100
97
130
130
96
129
129
99
132
132
89
122
122
80
113
113
82
115
115
144
177
177
76
109
109
100
133
133
82
115
115
108
141
141
100
133
133
98
131
131
68
101
101
76
109
109
138
171
171
95
128
128
115
148
148
95
128
128
79
112
112
146
179
179
151
184
184
93
126
126
103
136
136
94
127
127
124
157
157
95
128
128
76
109
109
74
107
107
163
196
196
132
165
165
68
101
101
102
135
135
73
106
106
115
148
148
141
174
174
98
131
131
102
135
135
94
127
127
95
128
128
102
135
135
76
109
109
75
108
108
138
171
171
135
168
168
93
126
126
68
101
101
102
135
135
69
102
102
133
166
166
98
131
131
103
136
136
102
135
135
124
157
157
121
154
154
76
109
109
70
103
103
136
169
169
137
170
170
91
124
124
96
129
129
102
135
135
96
129
129
100
133
133
79
112
112
121
154
154
99
132
132
101
134
134
84
117
117
79
112
112
74
107
107
107
140
140
89
122
122
83
116
116
75
108
108
106
139
139
122
155
155
76
109
109
94
127
127
135
168
168
102
135
135
72
105
105
83
116
116
69
102
102
141
174
174
143
176
176
113
146
146
97
130
130
76
109
109
107
140
140
95
128
128
96
129
129
72
105
105
142
175
175
96
129
129
78
111
111
75
108
108
132
165
165
147
180
180
137
170
170
82
115
115
102
135
135
98
131
131
141
174
174
99
132
132
77
110
110
111
144
144
98
131
131
122
155
155
106
139
139
104
137
137
118
151
151
131
164
164
91
124
124
97
130
130
118
151
151
93
126
126
78
111
111
83
116
116
104
137
137
68
101
101
100
133
133
82
115
115
135
168
168
95
128
128
78
111
111
151
184
184
93
126
126
101
134
134
83
116
116
102
135
135
74
107
107
136
169
169
98
131
131
90
123
123
95
128
128
104
137
137
134
167
167
122
155
155
84
117
117
95
128
128
142
175
175
66
99
99
135
168
168
123
156
156
105
138
138
102
135
135
98
131
131
125
158
158
120
153
153
123
156
156
98
131
131
91
124
124
98
131
131
101
134
134
131
164
164
75
108
108
147
180
180
99
132
132
66
99
99
101
134
134
101
134
134
102
135
135
95
128
128
78
111
111
83
116
116
103
136
136
80
113
113
107
140
140
89
122
122
70
103
103
90
123
123
59
92
92
100
133
133
95
128
128
93
126
126
87
120
120
74
107
107
70
103
103
58
91
91
143
176
176
163
196
196
98
131
131
75
108
108
77
110
110
133
166
166
147
180
180
79
112
112
140
173
173
112
145
145
118
151
151
76
109
109
147
180
180
146
179
179
74
107
107
141
174
174
103
136
136
96
129
129
122
155
155
148
181
181
103
136
136
83
116
116
95
128
128
70
103
103
91
124
124
