P3
# Created by GIMP version 2.10.36 PNM plug-in
16 16
255
118
129
39
122
133
43
108
119
29
108
119
29
125
136
46
146
157
67
104
115
25
123
134
44
117
128
38
134
145
55
104
115
25
123
134
44
105
116
26
92
103
13
128
139
49
153
164
74
125
136
46
132
143
53
133
144
54
115
126
36
123
134
44
128
139
49
133
144
54
101
112
22
106
117
27
157
168
78
99
110
20
94
105
15
202
213
123
191
202
112
121
132
42
115
126
36
123
134
44
164
175
85
125
136
46
168
179
89
98
109
19
102
113
23
128
139
49
147
158
68
147
158
68
103
114
24
125
136
46
164
175
85
123
134
44
133
144
54
98
109
19
124
135
45
109
120
30
119
130
40
93
104
14
123
134
44
122
133
43
125
136
46
115
126
36
106
117
27
108
119
29
170
181
91
102
113
23
126
137
47
108
119
29
134
145
55
126
137
47
124
135
45
94
105
15
102
113
23
164
175
85
121
132
42
141
152
62
121
132
42
105
116
26
172
183
93
177
188
98
119
130
40
129
140
50
120
131
41
150
161
71
121
132
42
102
113
23
100
111
21
189
200
110
158
169
79
94
105
15
128
139
49
99
110
20
141
152
62
167
178
88
124
135
45
128
139
49
120
131
41
121
132
42
128
139
49
102
113
23
101
112
22
164
175
85
161
172
82
119
130
40
94
105
15
128
139
49
95
106
16
159
170
80
124
135
45
129
140
50
128
139
49
150
161
71
147
158
68
102
113
23
96
107
17
162
173
83
163
174
84
117
128
38
122
133
43
128
139
49
122
133
43
126
137
47
105
116
26
147
158
68
125
136
46
127
138
48
110
121
31
105
116
26
100
111
21
133
144
54
115
126
36
109
120
30
101
112
22
132
143
53
148
159
69
102
113
23
120
131
41
161
172
82
128
139
49
98
109
19
109
120
30
95
106
16
167
178
88
169
180
90
139
150
60
123
134
44
102
113
23
133
144
54
121
132
42
122
133
43
98
109
19
168
179
89
122
133
43
104
115
25
101
112
22
158
169
79
173
184
94
163
174
84
108
119
29
128
139
49
124
135
45
167
178
88
125
136
46
103
114
24
137
148
58
124
135
45
148
159
69
132
143
53
130
141
51
144
155
65
157
168
78
117
128
38
123
134
44
144
155
65
119
130
40
104
115
25
109
120
30
130
141
51
94
105
15
126
137
47
108
119
29
161
172
82
121
132
42
104
115
25
177
188
98
119
130
40
127
138
48
109
120
30
128
139
49
100
111
21
162
173
83
124
135
45
116
127
37
121
132
42
130
141
51
160
171
81
148
159
69
110
121
31
121
132
42
168
179
89
92
103
13
161
172
82
149
160
70
131
142
52
128
139
49
124
135
45
151
162
72
146
157
67
149
160
70
124
135
45
117
128
38
124
135
45
127
138
48
157
168
78
101
112
22
173
184
94
125
136
46
92
103
13
127
138
48
127
138
48
128
139
49
121
132
42
104
115
25
109
120
30
129
140
50
106
117
27
133
144
54
115
126
36
96
107
17
116
127
37
85
96
6
126
137
47
121
132
42
119
130
40
113
124
34
100
111
21
96
107
17
84
95
5
169
180
90
189
200
110
124
135
45
101
112
22
103
114
24
159
170
80
173
184
94
105
116
26
166
177
87
138
149
59
144
155
65
102
113
23
173
184
94
172
183
93
100
111
21
167
178
88
129
140
50
122
133
43
148
159
69
174
185
95
129
140
50
109
120
30
121
132
42
96
107
17
117
128
38
