P3
# Created by GIMP version 2.10.36 PNM plug-in
16 16
255
93
75
61
97
79
65
83
65
51
83
65
51
100
82
68
121
103
89
79
61
47
98
80
66
92
74
60
109
91
77
79
61
47
98
80
66
80
62
48
67
49
35
103
85
71
128
110
96
100
82
68
107
89
75
108
90
76
90
72
58
98
80
66
103
85
71
108
90
76
76
58
44
81
63
49
132
114
100
74
56
42
69
51
37
177
159
145
166
148
134
96
78
64
90
72
58
98
80
66
139
121
107
100
82
68
143
125
111
73
55
41
77
59
45
103
85
71
122
104
90
122
104
90
78
60
46
100
82
68
139
121
107
98
80
66
108
90
76
73
55
41
99
81
67
84
66
52
94
76
62
68
50
36
98
80
66
97
79
65
100
82
68
90
72
58
81
63
49
83
65
51
145
127
113
77
59
45
101
83
69
83
65
51
109
91
77
101
83
69
99
81
67
69
51
37
77
59
45
139
121
107
96
78
64
116
98
84
96
78
64
80
62
48
147
129
115
152
134
120
94
76
62
104
86
72
95
77
63
125
107
93
96
78
64
77
59
45
75
57
43
164
146
132
133
115
101
69
51
37
103
85
71
74
56
42
116
98
84
142
124
110
99
81
67
103
85
71
95
77
63
96
78
64
103
85
71
77
59
45
76
58
44
139
121
107
136
118
104
94
76
62
69
51
37
103
85
71
70
52
38
134
116
102
99
81
67
104
86
72
103
85
71
125
107
93
122
104
90
77
59
45
71
53
39
137
119
105
138
120
106
92
74
60
97
79
65
103
85
71
97
79
65
101
83
69
80
62
48
122
104
90
100
82
68
102
84
70
85
67
53
80
62
48
75
57
43
108
90
76
90
72
58
84
66
52
76
58
44
107
89
75
123
105
91
77
59
45
95
77
63
136
118
104
103
85
71
73
55
41
84
66
52
70
52
38
142
124
110
144
126
112
114
96
82
98
80
66
77
59
45
108
90
76
96
78
64
97
79
65
73
55
41
143
125
111
97
79
65
79
61
47
76
58
44
133
115
101
148
130
116
138
120
106
83
65
51
103
85
71
99
81
67
142
124
110
100
82
68
78
60
46
112
94
80
99
81
67
123
105
91
107
89
75
105
87
73
119
101
87
132
114
100
92
74
60
98
80
66
119
101
87
94
76
62
79
61
47
84
66
52
105
87
73
69
51
37
101
83
69
83
65
51
136
118
104
96
78
64
79
61
47
152
134
120
94
76
62
102
84
70
84
66
52
103
85
71
75
57
43
137
119
105
99
81
67
91
73
59
96
78
64
105
87
73
135
117
103
123
105
91
85
67
53
96
78
64
143
125
111
67
49
35
136
118
104
124
106
92
106
88
74
103
85
71
99
81
67
126
108
94
121
103
89
124
106
92
99
81
67
92
74
60
99
81
67
102
84
70
132
114
100
76
58
44
148
130
116
100
82
68
67
49
35
102
84
70
102
84
70
103
85
71
96
78
64
79
61
47
84
66
52
104
86
72
81
63
49
108
90
76
90
72
58
71
53
39
91
73
59
60
42
28
101
83
69
96
78
64
94
76
62
88
70
56
75
57
43
71
53
39
59
41
27
144
126
112
164
146
132
99
81
67
76
58
44
78
60
46
134
116
102
148
130
116
80
62
48
141
123
109
113
95
81
119
101
87
77
59
45
148
130
116
147
129
115
75
57
43
142
124
110
104
86
72
97
79
65
123
105
91
149
131
117
104
86
72
84
66
52
96
78
64
71
53
39
92
74
60
