P3
# Created by GIMP version 2.10.36 PNM plug-in
16 16
255
170
112
110
174
116
114
160
102
100
160
102
100
177
119
117
198
140
138
156
98
96
175
117
115
169
111
109
186
128
126
156
98
96
175
117
115
157
99
97
144
86
84
180
122
120
205
147
145
177
119
117
184
126
124
185
127
125
167
109
107
175
117
115
180
122
120
185
127
125
153
95
93
158
100
98
209
151
149
151
93
91
146
88
86
254
196
194
243
185
183
173
115
113
167
109
107
175
117
115
216
158
156
177
119
117
220
162
160
150
92
90
154
96
94
180
122
120
199
141
139
199
141
139
155
97
95
177
119
117
216
158
156
175
117
115
185
127
125
150
92
90
176
118
116
161
103
101
171
113
111
145
87
85
175
117
115
174
116
114
177
119
117
167
109
107
158
100
98
160
102
100
222
164
162
154
96
94
178
120
118
160
102
100
186
128
126
178
120
118
176
118
116
146
88
86
154
96
94
216
158
156
173
115
113
193
135
133
173
115
113
157
99
97
224
166
164
229
171
169
171
113
111
181
123
121
172
114
112
202
144
142
173
115
113
154
96
94
152
94
92
241
183
181
210
152
150
146
88
86
180
122
120
151
93
91
193
135
133
219
161
159
176
118
116
180
122
120
172
114
112
173
115
113
180
122
120
154
96
94
153
95
93
216
158
156
213
155
153
171
113
111
146
88
86
180
122
120
147
89
87
211
153
151
176
118
116
181
123
121
180
122
120
202
144
142
199
141
139
154
96
94
148
90
88
214
156
154
215
157
155
169
111
109
174
116
114
180
122
120
174
116
114
178
120
118
157
99
97
199
141
139
177
119
117
179
121
119
162
104
102
157
99
97
152
94
92
185
127
125
167
109
107
161
103
101
153
95
93
184
126
124
200
142
140
154
96
94
172
114
112
213
155
153
180
122
120
150
92
90
161
103
101
147
89
87
219
161
159
221
163
161
191
133
131
175
117
115
154
96
94
185
127
125
173
115
113
174
116
114
150
92
90
220
162
160
174
116
114
156
98
96
153
95
93
210
152
150
225
167
165
215
157
155
160
102
100
180
122
120
176
118
116
219
161
159
177
119
117
155
97
95
189
131
129
176
118
116
200
142
140
184
126
124
182
124
122
196
138
136
209
151
149
169
111
109
175
117
115
196
138
136
171
113
111
156
98
96
161
103
101
182
124
122
146
88
86
178
120
118
160
102
100
213
155
153
173
115
113
156
98
96
229
171
169
171
113
111
179
121
119
161
103
101
180
122
120
152
94
92
214
156
154
176
118
116
168
110
108
173
115
113
182
124
122
212
154
152
200
142
140
162
104
102
173
115
113
220
162
160
144
86
84
213
155
153
201
143
141
183
125
123
180
122
120
176
118
116
203
145
143
198
140
138
201
143
141
176
118
116
169
111
109
176
118
116
179
121
119
209
151
149
153
95
93
225
167
165
177
119
117
144
86
84
179
121
119
179
121
119
180
122
120
173
115
113
156
98
96
161
103
101
181
123
121
158
100
98
185
127
125
167
109
107
148
90
88
168
110
108
137
79
77
178
120
118
173
115
113
171
113
111
165
107
105
152
94
92
148
90
88
136
78
76
221
163
161
241
183
181
176
118
116
153
95
93
155
97
95
211
153
151
225
167
165
157
99
97
218
160
158
190
132
130
196
138
136
154
96
94
225
167
165
224
166
164
152
94
92
219
161
159
181
123
121
174
116
114
200
142
140
226
168
166
181
123
121
161
103
101
173
115
113
148
90
88
169
111
109
