P3
# Created by GIMP version 2.10.36 PNM plug-in
16 16
255
133
112
93
137
116
97
123
102
83
123
102
83
140
119
100
161
140
121
119
98
79
138
117
98
132
111
92
149
128
109
119
98
79
138
117
98
120
99
80
107
86
67
143
122
103
168
147
128
140
119
100
147
126
107
148
127
108
130
109
90
138
117
98
143
122
103
148
127
108
116
95
76
121
100
81
172
151
132
114
93
74
109
88
69
217
196
177
206
185
166
136
115
96
130
109
90
138
117
98
179
158
139
140
119
100
183
162
143
113
92
73
117
96
77
143
122
103
162
141
122
162
141
122
118
97
78
140
119
100
179
158
139
138
117
98
148
127
108
113
92
73
139
118
99
124
103
84
134
113
94
108
87
68
138
117
98
137
116
97
140
119
100
130
109
90
121
100
81
123
102
83
185
164
145
117
96
77
141
120
101
123
102
83
149
128
109
141
120
101
139
118
99
109
88
69
117
96
77
179
158
139
136
115
96
156
135
116
136
115
96
120
99
80
187
166
147
192
171
152
134
113
94
144
123
104
135
114
95
165
144
125
136
115
96
117
96
77
115
94
75
204
183
164
173
152
133
109
88
69
143
122
103
114
93
74
156
135
116
182
161
142
139
118
99
143
122
103
135
114
95
136
115
96
143
122
103
117
96
77
116
95
76
179
158
139
176
155
136
134
113
94
109
88
69
143
122
103
110
89
70
174
153
134
139
118
99
144
123
104
143
122
103
165
144
125
162
141
122
117
96
77
111
90
71
177
156
137
178
157
138
132
111
92
137
116
97
143
122
103
137
116
97
141
120
101
120
99
80
162
141
122
140
119
100
142
121
102
125
104
85
120
99
80
115
94
75
148
127
108
130
109
90
124
103
84
116
95
76
147
126
107
163
142
123
117
96
77
135
114
95
176
155
136
143
122
103
113
92
73
124
103
84
110
89
70
182
161
142
184
163
144
154
133
114
138
117
98
117
96
77
148
127
108
136
115
96
137
116
97
113
92
73
183
162
143
137
116
97
119
98
79
116
95
76
173
152
133
188
167
148
178
157
138
123
102
83
143
122
103
139
118
99
182
161
142
140
119
100
118
97
78
152
131
112
139
118
99
163
142
123
147
126
107
145
124
105
159
138
119
172
151
132
132
111
92
138
117
98
159
138
119
134
113
94
119
98
79
124
103
84
145
124
105
109
88
69
141
120
101
123
102
83
176
155
136
136
115
96
119
98
79
192
171
152
134
113
94
142
121
102
124
103
84
143
122
103
115
94
75
177
156
137
139
118
99
131
110
91
136
115
96
145
124
105
175
154
135
163
142
123
125
104
85
136
115
96
183
162
143
107
86
67
176
155
136
164
143
124
146
125
106
143
122
103
139
118
99
166
145
126
161
140
121
164
143
124
139
118
99
132
111
92
139
118
99
142
121
102
172
151
132
116
95
76
188
167
148
140
119
100
107
86
67
142
121
102
142
121
102
143
122
103
136
115
96
119
98
79
124
103
84
144
123
104
121
100
81
148
127
108
130
109
90
111
90
71
131
110
91
100
79
60
141
120
101
136
115
96
134
113
94
128
107
88
115
94
75
111
90
71
99
78
59
184
163
144
204
183
164
139
118
99
116
95
76
118
97
78
174
153
134
188
167
148
120
99
80
181
160
141
153
132
113
159
138
119
117
96
77
188
167
148
187
166
147
115
94
75
182
161
142
144
123
104
137
116
97
163
142
123
189
168
149
144
123
104
124
103
84
136
115
96
111
90
71
132
111
92
