P3
# Created by GIMP version 2.10.36 PNM plug-in
16 16
255
118
77
45
122
81
49
108
67
35
108
67
35
125
84
52
146
105
73
104
63
31
123
82
50
117
76
44
134
93
61
104
63
31
123
82
50
105
64
32
92
51
19
128
87
55
153
112
80
125
84
52
132
91
59
133
92
60
115
74
42
123
82
50
128
87
55
133
92
60
101
60
28
106
65
33
157
116
84
99
58
26
94
53
21
202
161
129
191
150
118
121
80
48
115
74
42
123
82
50
164
123
91
125
84
52
168
127
95
98
57
25
102
61
29
128
87
55
147
106
74
147
106
74
103
62
30
125
84
52
164
123
91
123
82
50
133
92
60
98
57
25
124
83
51
109
68
36
119
78
46
93
52
20
123
82
50
122
81
49
125
84
52
115
74
42
106
65
33
108
67
35
170
129
97
102
61
29
126
85
53
108
67
35
134
93
61
126
85
53
124
83
51
94
53
21
102
61
29
164
123
91
121
80
48
141
100
68
121
80
48
105
64
32
172
131
99
177
136
104
119
78
46
129
88
56
120
79
47
150
109
77
121
80
48
102
61
29
100
59
27
189
148
116
158
117
85
94
53
21
128
87
55
99
58
26
141
100
68
167
126
94
124
83
51
128
87
55
120
79
47
121
80
48
128
87
55
102
61
29
101
60
28
164
123
91
161
120
88
119
78
46
94
53
21
128
87
55
95
54
22
159
118
86
124
83
51
129
88
56
128
87
55
150
109
77
147
106
74
102
61
29
96
55
23
162
121
89
163
122
90
117
76
44
122
81
49
128
87
55
122
81
49
126
85
53
105
64
32
147
106
74
125
84
52
127
86
54
110
69
37
105
64
32
100
59
27
133
92
60
115
74
42
109
68
36
101
60
28
132
91
59
148
107
75
102
61
29
120
79
47
161
120
88
128
87
55
98
57
25
109
68
36
95
54
22
167
126
94
169
128
96
139
98
66
123
82
50
102
61
29
133
92
60
121
80
48
122
81
49
98
57
25
168
127
95
122
81
49
104
63
31
101
60
28
158
117
85
173
132
100
163
122
90
108
67
35
128
87
55
124
83
51
167
126
94
125
84
52
103
62
30
137
96
64
124
83
51
148
107
75
132
91
59
130
89
57
144
103
71
157
116
84
117
76
44
123
82
50
144
103
71
119
78
46
104
63
31
109
68
36
130
89
57
94
53
21
126
85
53
108
67
35
161
120
88
121
80
48
104
63
31
177
136
104
119
78
46
127
86
54
109
68
36
128
87
55
100
59
27
162
121
89
124
83
51
116
75
43
121
80
48
130
89
57
160
119
87
148
107
75
110
69
37
121
80
48
168
127
95
92
51
19
161
120
88
149
108
76
131
90
58
128
87
55
124
83
51
151
110
78
146
105
73
149
108
76
124
83
51
117
76
44
124
83
51
127
86
54
157
116
84
101
60
28
173
132
100
125
84
52
92
51
19
127
86
54
127
86
54
128
87
55
121
80
48
104
63
31
109
68
36
129
88
56
106
65
33
133
92
60
115
74
42
96
55
23
116
75
43
85
44
12
126
85
53
121
80
48
119
78
46
113
72
40
100
59
27
96
55
23
84
43
11
169
128
96
189
148
116
124
83
51
101
60
28
103
62
30
159
118
86
173
132
100
105
64
32
166
125
93
138
97
65
144
103
71
102
61
29
173
132
100
172
131
99
100
59
27
167
126
94
129
88
56
122
81
49
148
107
75
174
133
101
129
88
56
109
68
36
121
80
48
96
55
23
117
76
44
