P3
# Created by GIMP version 2.10.36 PNM plug-in
16 16
255
167
148
132
171
152
136
157
138
122
157
138
122
174
155
139
195
176
160
153
134
118
172
153
137
166
147
131
183
164
148
153
134
118
172
153
137
154
135
119
141
122
106
177
158
142
202
183
167
174
155
139
181
162
146
182
163
147
164
145
129
172
153
137
177
158
142
182
163
147
150
131
115
155
136
120
206
187
171
148
129
113
143
124
108
251
232
216
240
221
205
170
151
135
164
145
129
172
153
137
213
194
178
174
155
139
217
198
182
147
128
112
151
132
116
177
158
142
196
177
161
196
177
161
152
133
117
174
155
139
213
194
178
172
153
137
182
163
147
147
128
112
173
154
138
158
139
123
168
149
133
142
123
107
172
153
137
171
152
136
174
155
139
164
145
129
155
136
120
157
138
122
219
200
184
151
132
116
175
156
140
157
138
122
183
164
148
175
156
140
173
154
138
143
124
108
151
132
116
213
194
178
170
151
135
190
171
155
170
151
135
154
135
119
221
202
186
226
207
191
168
149
133
178
159
143
169
150
134
199
180
164
170
151
135
151
132
116
149
130
114
238
219
203
207
188
172
143
124
108
177
158
142
148
129
113
190
171
155
216
197
181
173
154
138
177
158
142
169
150
134
170
151
135
177
158
142
151
132
116
150
131
115
213
194
178
210
191
175
168
149
133
143
124
108
177
158
142
144
125
109
208
189
173
173
154
138
178
159
143
177
158
142
199
180
164
196
177
161
151
132
116
145
126
110
211
192
176
212
193
177
166
147
131
171
152
136
177
158
142
171
152
136
175
156
140
154
135
119
196
177
161
174
155
139
176
157
141
159
140
124
154
135
119
149
130
114
182
163
147
164
145
129
158
139
123
150
131
115
181
162
146
197
178
162
151
132
116
169
150
134
210
191
175
177
158
142
147
128
112
158
139
123
144
125
109
216
197
181
218
199
183
188
169
153
172
153
137
151
132
116
182
163
147
170
151
135
171
152
136
147
128
112
217
198
182
171
152
136
153
134
118
150
131
115
207
188
172
222
203
187
212
193
177
157
138
122
177
158
142
173
154
138
216
197
181
174
155
139
152
133
117
186
167
151
173
154
138
197
178
162
181
162
146
179
160
144
193
174
158
206
187
171
166
147
131
172
153
137
193
174
158
168
149
133
153
134
118
158
139
123
179
160
144
143
124
108
175
156
140
157
138
122
210
191
175
170
151
135
153
134
118
226
207
191
168
149
133
176
157
141
158
139
123
177
158
142
149
130
114
211
192
176
173
154
138
165
146
130
170
151
135
179
160
144
209
190
174
197
178
162
159
140
124
170
151
135
217
198
182
141
122
106
210
191
175
198
179
163
180
161
145
177
158
142
173
154
138
200
181
165
195
176
160
198
179
163
173
154
138
166
147
131
173
154
138
176
157
141
206
187
171
150
131
115
222
203
187
174
155
139
141
122
106
176
157
141
176
157
141
177
158
142
170
151
135
153
134
118
158
139
123
178
159
143
155
136
120
182
163
147
164
145
129
145
126
110
165
146
130
134
115
99
175
156
140
170
151
135
168
149
133
162
143
127
149
130
114
145
126
110
133
114
98
218
199
183
238
219
203
173
154
138
150
131
115
152
133
117
208
189
173
222
203
187
154
135
119
215
196
180
187
168
152
193
174
158
151
132
116
222
203
187
221
202
186
149
130
114
216
197
181
178
159
143
171
152
136
197
178
162
223
204
188
178
159
143
158
139
123
170
151
135
145
126
110
166
147
131
