P3
# Created by GIMP version 2.10.36 PNM plug-in
16 16
255
125
145
162
129
149
166
115
135
152
115
135
152
132
152
169
153
173
190
111
131
148
130
150
167
124
144
161
141
161
178
111
131
148
130
150
167
112
132
149
99
119
136
135
155
172
160
180
197
132
152
169
139
159
176
140
160
177
122
142
159
130
150
167
135
155
172
140
160
177
108
128
145
113
133
150
164
184
201
106
126
143
101
121
138
209
229
246
198
218
235
128
148
165
122
142
159
130
150
167
171
191
208
132
152
169
175
195
212
105
125
142
109
129
146
135
155
172
154
174
191
154
174
191
110
130
147
132
152
169
171
191
208
130
150
167
140
160
177
105
125
142
131
151
168
116
136
153
126
146
163
100
120
137
130
150
167
129
149
166
132
152
169
122
142
159
113
133
150
115
135
152
177
197
214
109
129
146
133
153
170
115
135
152
141
161
178
133
153
170
131
151
168
101
121
138
109
129
146
171
191
208
128
148
165
148
168
185
128
148
165
112
132
149
179
199
216
184
204
221
126
146
163
136
156
173
127
147
164
157
177
194
128
148
165
109
129
146
107
127
144
196
216
233
165
185
202
101
121
138
135
155
172
106
126
143
148
168
185
174
194
211
131
151
168
135
155
172
127
147
164
128
148
165
135
155
172
109
129
146
108
128
145
171
191
208
168
188
205
126
146
163
101
121
138
135
155
172
102
122
139
166
186
203
131
151
168
136
156
173
135
155
172
157
177
194
154
174
191
109
129
146
103
123
140
169
189
206
170
190
207
124
144
161
129
149
166
135
155
172
129
149
166
133
153
170
112
132
149
154
174
191
132
152
169
134
154
171
117
137
154
112
132
149
107
127
144
140
160
177
122
142
159
116
136
153
108
128
145
139
159
176
155
175
192
109
129
146
127
147
164
168
188
205
135
155
172
105
125
142
116
136
153
102
122
139
174
194
211
176
196
213
146
166
183
130
150
167
109
129
146
140
160
177
128
148
165
129
149
166
105
125
142
175
195
212
129
149
166
111
131
148
108
128
145
165
185
202
180
200
217
170
190
207
115
135
152
135
155
172
131
151
168
174
194
211
132
152
169
110
130
147
144
164
181
131
151
168
155
175
192
139
159
176
137
157
174
151
171
188
164
184
201
124
144
161
130
150
167
151
171
188
126
146
163
111
131
148
116
136
153
137
157
174
101
121
138
133
153
170
115
135
152
168
188
205
128
148
165
111
131
148
184
204
221
126
146
163
134
154
171
116
136
153
135
155
172
107
127
144
169
189
206
131
151
168
123
143
160
128
148
165
137
157
174
167
187
204
155
175
192
117
137
154
128
148
165
175
195
212
99
119
136
168
188
205
156
176
193
138
158
175
135
155
172
131
151
168
158
178
195
153
173
190
156
176
193
131
151
168
124
144
161
131
151
168
134
154
171
164
184
201
108
128
145
180
200
217
132
152
169
99
119
136
134
154
171
134
154
171
135
155
172
128
148
165
111
131
148
116
136
153
136
156
173
113
133
150
140
160
177
122
142
159
103
123
140
123
143
160
92
112
129
133
153
170
128
148
165
126
146
163
120
140
157
107
127
144
103
123
140
91
111
128
176
196
213
196
216
233
131
151
168
108
128
145
110
130
147
166
186
203
180
200
217
112
132
149
173
193
210
145
165
182
151
171
188
109
129
146
180
200
217
179
199
216
107
127
144
174
194
211
136
156
173
129
149
166
155
175
192
181
201
218
136
156
173
116
136
153
128
148
165
103
123
140
124
144
161
