P3
# Created by GIMP version 2.10.36 PNM plug-in
16 16
255
73
162
91
77
166
95
63
152
81
63
152
81
80
169
98
101
190
119
59
148
77
78
167
96
72
161
90
89
178
107
59
148
77
78
167
96
60
149
78
47
136
65
83
172
101
108
197
126
80
169
98
87
176
105
88
177
106
70
159
88
78
167
96
83
172
101
88
177
106
56
145
74
61
150
79
112
201
130
54
143
72
49
138
67
157
246
175
146
235
164
76
165
94
70
159
88
78
167
96
119
208
137
80
169
98
123
212
141
53
142
71
57
146
75
83
172
101
102
191
120
102
191
120
58
147
76
80
169
98
119
208
137
78
167
96
88
177
106
53
142
71
79
168
97
64
153
82
74
163
92
48
137
66
78
167
96
77
166
95
80
169
98
70
159
88
61
150
79
63
152
81
125
214
143
57
146
75
81
170
99
63
152
81
89
178
107
81
170
99
79
168
97
49
138
67
57
146
75
119
208
137
76
165
94
96
185
114
76
165
94
60
149
78
127
216
145
132
221
150
74
163
92
84
173
102
75
164
93
105
194
123
76
165
94
57
146
75
55
144
73
144
233
162
113
202
131
49
138
67
83
172
101
54
143
72
96
185
114
122
211
140
79
168
97
83
172
101
75
164
93
76
165
94
83
172
101
57
146
75
56
145
74
119
208
137
116
205
134
74
163
92
49
138
67
83
172
101
50
139
68
114
203
132
79
168
97
84
173
102
83
172
101
105
194
123
102
191
120
57
146
75
51
140
69
117
206
135
118
207
136
72
161
90
77
166
95
83
172
101
77
166
95
81
170
99
60
149
78
102
191
120
80
169
98
82
171
100
65
154
83
60
149
78
55
144
73
88
177
106
70
159
88
64
153
82
56
145
74
87
176
105
103
192
121
57
146
75
75
164
93
116
205
134
83
172
101
53
142
71
64
153
82
50
139
68
122
211
140
124
213
142
94
183
112
78
167
96
57
146
75
88
177
106
76
165
94
77
166
95
53
142
71
123
212
141
77
166
95
59
148
77
56
145
74
113
202
131
128
217
146
118
207
136
63
152
81
83
172
101
79
168
97
122
211
140
80
169
98
58
147
76
92
181
110
79
168
97
103
192
121
87
176
105
85
174
103
99
188
117
112
201
130
72
161
90
78
167
96
99
188
117
74
163
92
59
148
77
64
153
82
85
174
103
49
138
67
81
170
99
63
152
81
116
205
134
76
165
94
59
148
77
132
221
150
74
163
92
82
171
100
64
153
82
83
172
101
55
144
73
117
206
135
79
168
97
71
160
89
76
165
94
85
174
103
115
204
133
103
192
121
65
154
83
76
165
94
123
212
141
47
136
65
116
205
134
104
193
122
86
175
104
83
172
101
79
168
97
106
195
124
101
190
119
104
193
122
79
168
97
72
161
90
79
168
97
82
171
100
112
201
130
56
145
74
128
217
146
80
169
98
47
136
65
82
171
100
82
171
100
83
172
101
76
165
94
59
148
77
64
153
82
84
173
102
61
150
79
88
177
106
70
159
88
51
140
69
71
160
89
40
129
58
81
170
99
76
165
94
74
163
92
68
157
86
55
144
73
51
140
69
39
128
57
124
213
142
144
233
162
79
168
97
56
145
74
58
147
76
114
203
132
128
217
146
60
149
78
121
210
139
93
182
111
99
188
117
57
146
75
128
217
146
127
216
145
55
144
73
122
211
140
84
173
102
77
166
95
103
192
121
129
218
147
84
173
102
64
153
82
76
165
94
51
140
69
72
161
90
