P3
# Created by GIMP version 2.10.36 PNM plug-in
16 16
255
10
150
171
14
154
175
0
140
161
0
140
161
17
157
178
38
178
199
0
136
157
15
155
176
9
149
170
26
166
187
0
136
157
15
155
176
0
137
158
0
124
145
20
160
181
45
185
206
17
157
178
24
164
185
25
165
186
7
147
168
15
155
176
20
160
181
25
165
186
0
133
154
0
138
159
49
189
210
0
131
152
0
126
147
94
234
255
83
223
244
13
153
174
7
147
168
15
155
176
56
196
217
17
157
178
60
200
221
0
130
151
0
134
155
20
160
181
39
179
200
39
179
200
0
135
156
17
157
178
56
196
217
15
155
176
25
165
186
0
130
151
16
156
177
1
141
162
11
151
172
0
125
146
15
155
176
14
154
175
17
157
178
7
147
168
0
138
159
0
140
161
62
202
223
0
134
155
18
158
179
0
140
161
26
166
187
18
158
179
16
156
177
0
126
147
0
134
155
56
196
217
13
153
174
33
173
194
13
153
174
0
137
158
64
204
225
69
209
230
11
151
172
21
161
182
12
152
173
42
182
203
13
153
174
0
134
155
0
132
153
81
221
242
50
190
211
0
126
147
20
160
181
0
131
152
33
173
194
59
199
220
16
156
177
20
160
181
12
152
173
13
153
174
20
160
181
0
134
155
0
133
154
56
196
217
53
193
214
11
151
172
0
126
147
20
160
181
0
127
148
51
191
212
16
156
177
21
161
182
20
160
181
42
182
203
39
179
200
0
134
155
0
128
149
54
194
215
55
195
216
9
149
170
14
154
175
20
160
181
14
154
175
18
158
179
0
137
158
39
179
200
17
157
178
19
159
180
2
142
163
0
137
158
0
132
153
25
165
186
7
147
168
1
141
162
0
133
154
24
164
185
40
180
201
0
134
155
12
152
173
53
193
214
20
160
181
0
130
151
1
141
162
0
127
148
59
199
220
61
201
222
31
171
192
15
155
176
0
134
155
25
165
186
13
153
174
14
154
175
0
130
151
60
200
221
14
154
175
0
136
157
0
133
154
50
190
211
65
205
226
55
195
216
0
140
161
20
160
181
16
156
177
59
199
220
17
157
178
0
135
156
29
169
190
16
156
177
40
180
201
24
164
185
22
162
183
36
176
197
49
189
210
9
149
170
15
155
176
36
176
197
11
151
172
0
136
157
1
141
162
22
162
183
0
126
147
18
158
179
0
140
161
53
193
214
13
153
174
0
136
157
69
209
230
11
151
172
19
159
180
1
141
162
20
160
181
0
132
153
54
194
215
16
156
177
8
148
169
13
153
174
22
162
183
52
192
213
40
180
201
2
142
163
13
153
174
60
200
221
0
124
145
53
193
214
41
181
202
23
163
184
20
160
181
16
156
177
43
183
204
38
178
199
41
181
202
16
156
177
9
149
170
16
156
177
19
159
180
49
189
210
0
133
154
65
205
226
17
157
178
0
124
145
19
159
180
19
159
180
20
160
181
13
153
174
0
136
157
1
141
162
21
161
182
0
138
159
25
165
186
7
147
168
0
128
149
8
148
169
0
117
138
18
158
179
13
153
174
11
151
172
5
145
166
0
132
153
0
128
149
0
116
137
61
201
222
81
221
242
16
156
177
0
133
154
0
135
156
51
191
212
65
205
226
0
137
158
58
198
219
30
170
191
36
176
197
0
134
155
65
205
226
64
204
225
0
132
153
59
199
220
21
161
182
14
154
175
40
180
201
66
206
227
21
161
182
1
141
162
13
153
174
0
128
149
9
149
170
