P3
# Created by GIMP version 2.10.36 PNM plug-in
16 16
255
59
127
93
63
131
97
49
117
83
49
117
83
66
134
100
87
155
121
45
113
79
64
132
98
58
126
92
75
143
109
45
113
79
64
132
98
46
114
80
33
101
67
69
137
103
94
162
128
66
134
100
73
141
107
74
142
108
56
124
90
64
132
98
69
137
103
74
142
108
42
110
76
47
115
81
98
166
132
40
108
74
35
103
69
143
211
177
132
200
166
62
130
96
56
124
90
64
132
98
105
173
139
66
134
100
109
177
143
39
107
73
43
111
77
69
137
103
88
156
122
88
156
122
44
112
78
66
134
100
105
173
139
64
132
98
74
142
108
39
107
73
65
133
99
50
118
84
60
128
94
34
102
68
64
132
98
63
131
97
66
134
100
56
124
90
47
115
81
49
117
83
111
179
145
43
111
77
67
135
101
49
117
83
75
143
109
67
135
101
65
133
99
35
103
69
43
111
77
105
173
139
62
130
96
82
150
116
62
130
96
46
114
80
113
181
147
118
186
152
60
128
94
70
138
104
61
129
95
91
159
125
62
130
96
43
111
77
41
109
75
130
198
164
99
167
133
35
103
69
69
137
103
40
108
74
82
150
116
108
176
142
65
133
99
69
137
103
61
129
95
62
130
96
69
137
103
43
111
77
42
110
76
105
173
139
102
170
136
60
128
94
35
103
69
69
137
103
36
104
70
100
168
134
65
133
99
70
138
104
69
137
103
91
159
125
88
156
122
43
111
77
37
105
71
103
171
137
104
172
138
58
126
92
63
131
97
69
137
103
63
131
97
67
135
101
46
114
80
88
156
122
66
134
100
68
136
102
51
119
85
46
114
80
41
109
75
74
142
108
56
124
90
50
118
84
42
110
76
73
141
107
89
157
123
43
111
77
61
129
95
102
170
136
69
137
103
39
107
73
50
118
84
36
104
70
108
176
142
110
178
144
80
148
114
64
132
98
43
111
77
74
142
108
62
130
96
63
131
97
39
107
73
109
177
143
63
131
97
45
113
79
42
110
76
99
167
133
114
182
148
104
172
138
49
117
83
69
137
103
65
133
99
108
176
142
66
134
100
44
112
78
78
146
112
65
133
99
89
157
123
73
141
107
71
139
105
85
153
119
98
166
132
58
126
92
64
132
98
85
153
119
60
128
94
45
113
79
50
118
84
71
139
105
35
103
69
67
135
101
49
117
83
102
170
136
62
130
96
45
113
79
118
186
152
60
128
94
68
136
102
50
118
84
69
137
103
41
109
75
103
171
137
65
133
99
57
125
91
62
130
96
71
139
105
101
169
135
89
157
123
51
119
85
62
130
96
109
177
143
33
101
67
102
170
136
90
158
124
72
140
106
69
137
103
65
133
99
92
160
126
87
155
121
90
158
124
65
133
99
58
126
92
65
133
99
68
136
102
98
166
132
42
110
76
114
182
148
66
134
100
33
101
67
68
136
102
68
136
102
69
137
103
62
130
96
45
113
79
50
118
84
70
138
104
47
115
81
74
142
108
56
124
90
37
105
71
57
125
91
26
94
60
67
135
101
62
130
96
60
128
94
54
122
88
41
109
75
37
105
71
25
93
59
110
178
144
130
198
164
65
133
99
42
110
76
44
112
78
100
168
134
114
182
148
46
114
80
107
175
141
79
147
113
85
153
119
43
111
77
114
182
148
113
181
147
41
109
75
108
176
142
70
138
104
63
131
97
89
157
123
115
183
149
70
138
104
50
118
84
62
130
96
37
105
71
58
126
92
