P3
# Created by GIMP version 2.10.36 PNM plug-in
16 16
255
124
134
88
128
138
92
114
124
78
114
124
78
131
141
95
152
162
116
110
120
74
129
139
93
123
133
87
140
150
104
110
120
74
129
139
93
111
121
75
98
108
62
134
144
98
159
169
123
131
141
95
138
148
102
139
149
103
121
131
85
129
139
93
134
144
98
139
149
103
107
117
71
112
122
76
163
173
127
105
115
69
100
110
64
208
218
172
197
207
161
127
137
91
121
131
85
129
139
93
170
180
134
131
141
95
174
184
138
104
114
68
108
118
72
134
144
98
153
163
117
153
163
117
109
119
73
131
141
95
170
180
134
129
139
93
139
149
103
104
114
68
130
140
94
115
125
79
125
135
89
99
109
63
129
139
93
128
138
92
131
141
95
121
131
85
112
122
76
114
124
78
176
186
140
108
118
72
132
142
96
114
124
78
140
150
104
132
142
96
130
140
94
100
110
64
108
118
72
170
180
134
127
137
91
147
157
111
127
137
91
111
121
75
178
188
142
183
193
147
125
135
89
135
145
99
126
136
90
156
166
120
127
137
91
108
118
72
106
116
70
195
205
159
164
174
128
100
110
64
134
144
98
105
115
69
147
157
111
173
183
137
130
140
94
134
144
98
126
136
90
127
137
91
134
144
98
108
118
72
107
117
71
170
180
134
167
177
131
125
135
89
100
110
64
134
144
98
101
111
65
165
175
129
130
140
94
135
145
99
134
144
98
156
166
120
153
163
117
108
118
72
102
112
66
168
178
132
169
179
133
123
133
87
128
138
92
134
144
98
128
138
92
132
142
96
111
121
75
153
163
117
131
141
95
133
143
97
116
126
80
111
121
75
106
116
70
139
149
103
121
131
85
115
125
79
107
117
71
138
148
102
154
164
118
108
118
72
126
136
90
167
177
131
134
144
98
104
114
68
115
125
79
101
111
65
173
183
137
175
185
139
145
155
109
129
139
93
108
118
72
139
149
103
127
137
91
128
138
92
104
114
68
174
184
138
128
138
92
110
120
74
107
117
71
164
174
128
179
189
143
169
179
133
114
124
78
134
144
98
130
140
94
173
183
137
131
141
95
109
119
73
143
153
107
130
140
94
154
164
118
138
148
102
136
146
100
150
160
114
163
173
127
123
133
87
129
139
93
150
160
114
125
135
89
110
120
74
115
125
79
136
146
100
100
110
64
132
142
96
114
124
78
167
177
131
127
137
91
110
120
74
183
193
147
125
135
89
133
143
97
115
125
79
134
144
98
106
116
70
168
178
132
130
140
94
122
132
86
127
137
91
136
146
100
166
176
130
154
164
118
116
126
80
127
137
91
174
184
138
98
108
62
167
177
131
155
165
119
137
147
101
134
144
98
130
140
94
157
167
121
152
162
116
155
165
119
130
140
94
123
133
87
130
140
94
133
143
97
163
173
127
107
117
71
179
189
143
131
141
95
98
108
62
133
143
97
133
143
97
134
144
98
127
137
91
110
120
74
115
125
79
135
145
99
112
122
76
139
149
103
121
131
85
102
112
66
122
132
86
91
101
55
132
142
96
127
137
91
125
135
89
119
129
83
106
116
70
102
112
66
90
100
54
175
185
139
195
205
159
130
140
94
107
117
71
109
119
73
165
175
129
179
189
143
111
121
75
172
182
136
144
154
108
150
160
114
108
118
72
179
189
143
178
188
142
106
116
70
173
183
137
135
145
99
128
138
92
154
164
118
180
190
144
135
145
99
115
125
79
127
137
91
102
112
66
123
133
87
