P3
# Created by GIMP version 2.10.36 PNM plug-in
16 16
255
129
171
104
133
175
108
119
161
94
119
161
94
136
178
111
157
199
132
115
157
90
134
176
109
128
170
103
145
187
120
115
157
90
134
176
109
116
158
91
103
145
78
139
181
114
164
206
139
136
178
111
143
185
118
144
186
119
126
168
101
134
176
109
139
181
114
144
186
119
112
154
87
117
159
92
168
210
143
110
152
85
105
147
80
213
255
188
202
244
177
132
174
107
126
168
101
134
176
109
175
217
150
136
178
111
179
221
154
109
151
84
113
155
88
139
181
114
158
200
133
158
200
133
114
156
89
136
178
111
175
217
150
134
176
109
144
186
119
109
151
84
135
177
110
120
162
95
130
172
105
104
146
79
134
176
109
133
175
108
136
178
111
126
168
101
117
159
92
119
161
94
181
223
156
113
155
88
137
179
112
119
161
94
145
187
120
137
179
112
135
177
110
105
147
80
113
155
88
175
217
150
132
174
107
152
194
127
132
174
107
116
158
91
183
225
158
188
230
163
130
172
105
140
182
115
131
173
106
161
203
136
132
174
107
113
155
88
111
153
86
200
242
175
169
211
144
105
147
80
139
181
114
110
152
85
152
194
127
178
220
153
135
177
110
139
181
114
131
173
106
132
174
107
139
181
114
113
155
88
112
154
87
175
217
150
172
214
147
130
172
105
105
147
80
139
181
114
106
148
81
170
212
145
135
177
110
140
182
115
139
181
114
161
203
136
158
200
133
113
155
88
107
149
82
173
215
148
174
216
149
128
170
103
133
175
108
139
181
114
133
175
108
137
179
112
116
158
91
158
200
133
136
178
111
138
180
113
121
163
96
116
158
91
111
153
86
144
186
119
126
168
101
120
162
95
112
154
87
143
185
118
159
201
134
113
155
88
131
173
106
172
214
147
139
181
114
109
151
84
120
162
95
106
148
81
178
220
153
180
222
155
150
192
125
134
176
109
113
155
88
144
186
119
132
174
107
133
175
108
109
151
84
179
221
154
133
175
108
115
157
90
112
154
87
169
211
144
184
226
159
174
216
149
119
161
94
139
181
114
135
177
110
178
220
153
136
178
111
114
156
89
148
190
123
135
177
110
159
201
134
143
185
118
141
183
116
155
197
130
168
210
143
128
170
103
134
176
109
155
197
130
130
172
105
115
157
90
120
162
95
141
183
116
105
147
80
137
179
112
119
161
94
172
214
147
132
174
107
115
157
90
188
230
163
130
172
105
138
180
113
120
162
95
139
181
114
111
153
86
173
215
148
135
177
110
127
169
102
132
174
107
141
183
116
171
213
146
159
201
134
121
163
96
132
174
107
179
221
154
103
145
78
172
214
147
160
202
135
142
184
117
139
181
114
135
177
110
162
204
137
157
199
132
160
202
135
135
177
110
128
170
103
135
177
110
138
180
113
168
210
143
112
154
87
184
226
159
136
178
111
103
145
78
138
180
113
138
180
113
139
181
114
132
174
107
115
157
90
120
162
95
140
182
115
117
159
92
144
186
119
126
168
101
107
149
82
127
169
102
96
138
71
137
179
112
132
174
107
130
172
105
124
166
99
111
153
86
107
149
82
95
137
70
180
222
155
200
242
175
135
177
110
112
154
87
114
156
89
170
212
145
184
226
159
116
158
91
177
219
152
149
191
124
155
197
130
113
155
88
184
226
159
183
225
158
111
153
86
178
220
153
140
182
115
133
175
108
159
201
134
185
227
160
140
182
115
120
162
95
132
174
107
107
149
82
128
170
103
