P3
# Created by GIMP version 2.10.36 PNM plug-in
16 16
255
88
145
145
92
149
149
78
135
135
78
135
135
95
152
152
116
173
173
74
131
131
93
150
150
87
144
144
104
161
161
74
131
131
93
150
150
75
132
132
62
119
119
98
155
155
123
180
180
95
152
152
102
159
159
103
160
160
85
142
142
93
150
150
98
155
155
103
160
160
71
128
128
76
133
133
127
184
184
69
126
126
64
121
121
172
229
229
161
218
218
91
148
148
85
142
142
93
150
150
134
191
191
95
152
152
138
195
195
68
125
125
72
129
129
98
155
155
117
174
174
117
174
174
73
130
130
95
152
152
134
191
191
93
150
150
103
160
160
68
125
125
94
151
151
79
136
136
89
146
146
63
120
120
93
150
150
92
149
149
95
152
152
85
142
142
76
133
133
78
135
135
140
197
197
72
129
129
96
153
153
78
135
135
104
161
161
96
153
153
94
151
151
64
121
121
72
129
129
134
191
191
91
148
148
111
168
168
91
148
148
75
132
132
142
199
199
147
204
204
89
146
146
99
156
156
90
147
147
120
177
177
91
148
148
72
129
129
70
127
127
159
216
216
128
185
185
64
121
121
98
155
155
69
126
126
111
168
168
137
194
194
94
151
151
98
155
155
90
147
147
91
148
148
98
155
155
72
129
129
71
128
128
134
191
191
131
188
188
89
146
146
64
121
121
98
155
155
65
122
122
129
186
186
94
151
151
99
156
156
98
155
155
120
177
177
117
174
174
72
129
129
66
123
123
132
189
189
133
190
190
87
144
144
92
149
149
98
155
155
92
149
149
96
153
153
75
132
132
117
174
174
95
152
152
97
154
154
80
137
137
75
132
132
70
127
127
103
160
160
85
142
142
79
136
136
71
128
128
102
159
159
118
175
175
72
129
129
90
147
147
131
188
188
98
155
155
68
125
125
79
136
136
65
122
122
137
194
194
139
196
196
109
166
166
93
150
150
72
129
129
103
160
160
91
148
148
92
149
149
68
125
125
138
195
195
92
149
149
74
131
131
71
128
128
128
185
185
143
200
200
133
190
190
78
135
135
98
155
155
94
151
151
137
194
194
95
152
152
73
130
130
107
164
164
94
151
151
118
175
175
102
159
159
100
157
157
114
171
171
127
184
184
87
144
144
93
150
150
114
171
171
89
146
146
74
131
131
79
136
136
100
157
157
64
121
121
96
153
153
78
135
135
131
188
188
91
148
148
74
131
131
147
204
204
89
146
146
97
154
154
79
136
136
98
155
155
70
127
127
132
189
189
94
151
151
86
143
143
91
148
148
100
157
157
130
187
187
118
175
175
80
137
137
91
148
148
138
195
195
62
119
119
131
188
188
119
176
176
101
158
158
98
155
155
94
151
151
121
178
178
116
173
173
119
176
176
94
151
151
87
144
144
94
151
151
97
154
154
127
184
184
71
128
128
143
200
200
95
152
152
62
119
119
97
154
154
97
154
154
98
155
155
91
148
148
74
131
131
79
136
136
99
156
156
76
133
133
103
160
160
85
142
142
66
123
123
86
143
143
55
112
112
96
153
153
91
148
148
89
146
146
83
140
140
70
127
127
66
123
123
54
111
111
139
196
196
159
216
216
94
151
151
71
128
128
73
130
130
129
186
186
143
200
200
75
132
132
136
193
193
108
165
165
114
171
171
72
129
129
143
200
200
142
199
199
70
127
127
137
194
194
99
156
156
92
149
149
118
175
175
144
201
201
99
156
156
79
136
136
91
148
148
66
123
123
87
144
144
