P3
# Created by GIMP version 2.10.36 PNM plug-in
16 16
255
76
95
160
80
99
164
66
85
150
66
85
150
83
102
167
104
123
188
62
81
146
81
100
165
75
94
159
92
111
176
62
81
146
81
100
165
63
82
147
50
69
134
86
105
170
111
130
195
83
102
167
90
109
174
91
110
175
73
92
157
81
100
165
86
105
170
91
110
175
59
78
143
64
83
148
115
134
199
57
76
141
52
71
136
160
179
244
149
168
233
79
98
163
73
92
157
81
100
165
122
141
206
83
102
167
126
145
210
56
75
140
60
79
144
86
105
170
105
124
189
105
124
189
61
80
145
83
102
167
122
141
206
81
100
165
91
110
175
56
75
140
82
101
166
67
86
151
77
96
161
51
70
135
81
100
165
80
99
164
83
102
167
73
92
157
64
83
148
66
85
150
128
147
212
60
79
144
84
103
168
66
85
150
92
111
176
84
103
168
82
101
166
52
71
136
60
79
144
122
141
206
79
98
163
99
118
183
79
98
163
63
82
147
130
149
214
135
154
219
77
96
161
87
106
171
78
97
162
108
127
192
79
98
163
60
79
144
58
77
142
147
166
231
116
135
200
52
71
136
86
105
170
57
76
141
99
118
183
125
144
209
82
101
166
86
105
170
78
97
162
79
98
163
86
105
170
60
79
144
59
78
143
122
141
206
119
138
203
77
96
161
52
71
136
86
105
170
53
72
137
117
136
201
82
101
166
87
106
171
86
105
170
108
127
192
105
124
189
60
79
144
54
73
138
120
139
204
121
140
205
75
94
159
80
99
164
86
105
170
80
99
164
84
103
168
63
82
147
105
124
189
83
102
167
85
104
169
68
87
152
63
82
147
58
77
142
91
110
175
73
92
157
67
86
151
59
78
143
90
109
174
106
125
190
60
79
144
78
97
162
119
138
203
86
105
170
56
75
140
67
86
151
53
72
137
125
144
209
127
146
211
97
116
181
81
100
165
60
79
144
91
110
175
79
98
163
80
99
164
56
75
140
126
145
210
80
99
164
62
81
146
59
78
143
116
135
200
131
150
215
121
140
205
66
85
150
86
105
170
82
101
166
125
144
209
83
102
167
61
80
145
95
114
179
82
101
166
106
125
190
90
109
174
88
107
172
102
121
186
115
134
199
75
94
159
81
100
165
102
121
186
77
96
161
62
81
146
67
86
151
88
107
172
52
71
136
84
103
168
66
85
150
119
138
203
79
98
163
62
81
146
135
154
219
77
96
161
85
104
169
67
86
151
86
105
170
58
77
142
120
139
204
82
101
166
74
93
158
79
98
163
88
107
172
118
137
202
106
125
190
68
87
152
79
98
163
126
145
210
50
69
134
119
138
203
107
126
191
89
108
173
86
105
170
82
101
166
109
128
193
104
123
188
107
126
191
82
101
166
75
94
159
82
101
166
85
104
169
115
134
199
59
78
143
131
150
215
83
102
167
50
69
134
85
104
169
85
104
169
86
105
170
79
98
163
62
81
146
67
86
151
87
106
171
64
83
148
91
110
175
73
92
157
54
73
138
74
93
158
43
62
127
84
103
168
79
98
163
77
96
161
71
90
155
58
77
142
54
73
138
42
61
126
127
146
211
147
166
231
82
101
166
59
78
143
61
80
145
117
136
201
131
150
215
63
82
147
124
143
208
96
115
180
102
121
186
60
79
144
131
150
215
130
149
214
58
77
142
125
144
209
87
106
171
80
99
164
106
125
190
132
151
216
87
106
171
67
86
151
79
98
163
54
73
138
75
94
159
