P3
# Created by GIMP version 2.10.36 PNM plug-in
16 16
255
106
109
164
110
113
168
96
99
154
96
99
154
113
116
171
134
137
192
92
95
150
111
114
169
105
108
163
122
125
180
92
95
150
111
114
169
93
96
151
80
83
138
116
119
174
141
144
199
113
116
171
120
123
178
121
124
179
103
106
161
111
114
169
116
119
174
121
124
179
89
92
147
94
97
152
145
148
203
87
90
145
82
85
140
190
193
248
179
182
237
109
112
167
103
106
161
111
114
169
152
155
210
113
116
171
156
159
214
86
89
144
90
93
148
116
119
174
135
138
193
135
138
193
91
94
149
113
116
171
152
155
210
111
114
169
121
124
179
86
89
144
112
115
170
97
100
155
107
110
165
81
84
139
111
114
169
110
113
168
113
116
171
103
106
161
94
97
152
96
99
154
158
161
216
90
93
148
114
117
172
96
99
154
122
125
180
114
117
172
112
115
170
82
85
140
90
93
148
152
155
210
109
112
167
129
132
187
109
112
167
93
96
151
160
163
218
165
168
223
107
110
165
117
120
175
108
111
166
138
141
196
109
112
167
90
93
148
88
91
146
177
180
235
146
149
204
82
85
140
116
119
174
87
90
145
129
132
187
155
158
213
112
115
170
116
119
174
108
111
166
109
112
167
116
119
174
90
93
148
89
92
147
152
155
210
149
152
207
107
110
165
82
85
140
116
119
174
83
86
141
147
150
205
112
115
170
117
120
175
116
119
174
138
141
196
135
138
193
90
93
148
84
87
142
150
153
208
151
154
209
105
108
163
110
113
168
116
119
174
110
113
168
114
117
172
93
96
151
135
138
193
113
116
171
115
118
173
98
101
156
93
96
151
88
91
146
121
124
179
103
106
161
97
100
155
89
92
147
120
123
178
136
139
194
90
93
148
108
111
166
149
152
207
116
119
174
86
89
144
97
100
155
83
86
141
155
158
213
157
160
215
127
130
185
111
114
169
90
93
148
121
124
179
109
112
167
110
113
168
86
89
144
156
159
214
110
113
168
92
95
150
89
92
147
146
149
204
161
164
219
151
154
209
96
99
154
116
119
174
112
115
170
155
158
213
113
116
171
91
94
149
125
128
183
112
115
170
136
139
194
120
123
178
118
121
176
132
135
190
145
148
203
105
108
163
111
114
169
132
135
190
107
110
165
92
95
150
97
100
155
118
121
176
82
85
140
114
117
172
96
99
154
149
152
207
109
112
167
92
95
150
165
168
223
107
110
165
115
118
173
97
100
155
116
119
174
88
91
146
150
153
208
112
115
170
104
107
162
109
112
167
118
121
176
148
151
206
136
139
194
98
101
156
109
112
167
156
159
214
80
83
138
149
152
207
137
140
195
119
122
177
116
119
174
112
115
170
139
142
197
134
137
192
137
140
195
112
115
170
105
108
163
112
115
170
115
118
173
145
148
203
89
92
147
161
164
219
113
116
171
80
83
138
115
118
173
115
118
173
116
119
174
109
112
167
92
95
150
97
100
155
117
120
175
94
97
152
121
124
179
103
106
161
84
87
142
104
107
162
73
76
131
114
117
172
109
112
167
107
110
165
101
104
159
88
91
146
84
87
142
72
75
130
157
160
215
177
180
235
112
115
170
89
92
147
91
94
149
147
150
205
161
164
219
93
96
151
154
157
212
126
129
184
132
135
190
90
93
148
161
164
219
160
163
218
88
91
146
155
158
213
117
120
175
110
113
168
136
139
194
162
165
220
117
120
175
97
100
155
109
112
167
84
87
142
105
108
163
