P3
# Created by GIMP version 2.10.36 PNM plug-in
16 16
255
109
167
171
113
171
175
99
157
161
99
157
161
116
174
178
137
195
199
95
153
157
114
172
176
108
166
170
125
183
187
95
153
157
114
172
176
96
154
158
83
141
145
119
177
181
144
202
206
116
174
178
123
181
185
124
182
186
106
164
168
114
172
176
119
177
181
124
182
186
92
150
154
97
155
159
148
206
210
90
148
152
85
143
147
193
251
255
182
240
244
112
170
174
106
164
168
114
172
176
155
213
217
116
174
178
159
217
221
89
147
151
93
151
155
119
177
181
138
196
200
138
196
200
94
152
156
116
174
178
155
213
217
114
172
176
124
182
186
89
147
151
115
173
177
100
158
162
110
168
172
84
142
146
114
172
176
113
171
175
116
174
178
106
164
168
97
155
159
99
157
161
161
219
223
93
151
155
117
175
179
99
157
161
125
183
187
117
175
179
115
173
177
85
143
147
93
151
155
155
213
217
112
170
174
132
190
194
112
170
174
96
154
158
163
221
225
168
226
230
110
168
172
120
178
182
111
169
173
141
199
203
112
170
174
93
151
155
91
149
153
180
238
255
149
207
211
85
143
147
119
177
181
90
148
152
132
190
194
158
216
220
115
173
177
119
177
181
111
169
173
112
170
174
119
177
181
93
151
155
92
150
154
155
213
217
152
210
214
110
168
172
85
143
147
119
177
181
86
144
148
150
208
212
115
173
177
120
178
182
119
177
181
141
199
203
138
196
200
93
151
155
87
145
149
153
211
215
154
212
216
108
166
170
113
171
175
119
177
181
113
171
175
117
175
179
96
154
158
138
196
200
116
174
178
118
176
180
101
159
163
96
154
158
91
149
153
124
182
186
106
164
168
100
158
162
92
150
154
123
181
185
139
197
201
93
151
155
111
169
173
152
210
214
119
177
181
89
147
151
100
158
162
86
144
148
158
216
220
160
218
222
130
188
192
114
172
176
93
151
155
124
182
186
112
170
174
113
171
175
89
147
151
159
217
221
113
171
175
95
153
157
92
150
154
149
207
211
164
222
226
154
212
216
99
157
161
119
177
181
115
173
177
158
216
220
116
174
178
94
152
156
128
186
190
115
173
177
139
197
201
123
181
185
121
179
183
135
193
197
148
206
210
108
166
170
114
172
176
135
193
197
110
168
172
95
153
157
100
158
162
121
179
183
85
143
147
117
175
179
99
157
161
152
210
214
112
170
174
95
153
157
168
226
230
110
168
172
118
176
180
100
158
162
119
177
181
91
149
153
153
211
215
115
173
177
107
165
169
112
170
174
121
179
183
151
209
213
139
197
201
101
159
163
112
170
174
159
217
221
83
141
145
152
210
214
140
198
202
122
180
184
119
177
181
115
173
177
142
200
204
137
195
199
140
198
202
115
173
177
108
166
170
115
173
177
118
176
180
148
206
210
92
150
154
164
222
226
116
174
178
83
141
145
118
176
180
118
176
180
119
177
181
112
170
174
95
153
157
100
158
162
120
178
182
97
155
159
124
182
186
106
164
168
87
145
149
107
165
169
76
134
138
117
175
179
112
170
174
110
168
172
104
162
166
91
149
153
87
145
149
75
133
137
160
218
222
180
238
255
115
173
177
92
150
154
94
152
156
150
208
212
164
222
226
96
154
158
157
215
219
129
187
191
135
193
197
93
151
155
164
222
226
163
221
225
91
149
153
158
216
220
120
178
182
113
171
175
139
197
201
165
223
227
120
178
182
100
158
162
112
170
174
87
145
149
108
166
170
