P3
# Created by GIMP version 2.10.36 PNM plug-in
16 16
255
34
148
156
38
152
160
24
138
146
24
138
146
41
155
163
62
176
184
20
134
142
39
153
161
33
147
155
50
164
172
20
134
142
39
153
161
21
135
143
8
122
130
44
158
166
69
183
191
41
155
163
48
162
170
49
163
171
31
145
153
39
153
161
44
158
166
49
163
171
17
131
139
22
136
144
73
187
195
15
129
137
10
124
132
118
232
240
107
221
229
37
151
159
31
145
153
39
153
161
80
194
202
41
155
163
84
198
206
14
128
136
18
132
140
44
158
166
63
177
185
63
177
185
19
133
141
41
155
163
80
194
202
39
153
161
49
163
171
14
128
136
40
154
162
25
139
147
35
149
157
9
123
131
39
153
161
38
152
160
41
155
163
31
145
153
22
136
144
24
138
146
86
200
208
18
132
140
42
156
164
24
138
146
50
164
172
42
156
164
40
154
162
10
124
132
18
132
140
80
194
202
37
151
159
57
171
179
37
151
159
21
135
143
88
202
210
93
207
215
35
149
157
45
159
167
36
150
158
66
180
188
37
151
159
18
132
140
16
130
138
105
219
227
74
188
196
10
124
132
44
158
166
15
129
137
57
171
179
83
197
205
40
154
162
44
158
166
36
150
158
37
151
159
44
158
166
18
132
140
17
131
139
80
194
202
77
191
199
35
149
157
10
124
132
44
158
166
11
125
133
75
189
197
40
154
162
45
159
167
44
158
166
66
180
188
63
177
185
18
132
140
12
126
134
78
192
200
79
193
201
33
147
155
38
152
160
44
158
166
38
152
160
42
156
164
21
135
143
63
177
185
41
155
163
43
157
165
26
140
148
21
135
143
16
130
138
49
163
171
31
145
153
25
139
147
17
131
139
48
162
170
64
178
186
18
132
140
36
150
158
77
191
199
44
158
166
14
128
136
25
139
147
11
125
133
83
197
205
85
199
207
55
169
177
39
153
161
18
132
140
49
163
171
37
151
159
38
152
160
14
128
136
84
198
206
38
152
160
20
134
142
17
131
139
74
188
196
89
203
211
79
193
201
24
138
146
44
158
166
40
154
162
83
197
205
41
155
163
19
133
141
53
167
175
40
154
162
64
178
186
48
162
170
46
160
168
60
174
182
73
187
195
33
147
155
39
153
161
60
174
182
35
149
157
20
134
142
25
139
147
46
160
168
10
124
132
42
156
164
24
138
146
77
191
199
37
151
159
20
134
142
93
207
215
35
149
157
43
157
165
25
139
147
44
158
166
16
130
138
78
192
200
40
154
162
32
146
154
37
151
159
46
160
168
76
190
198
64
178
186
26
140
148
37
151
159
84
198
206
8
122
130
77
191
199
65
179
187
47
161
169
44
158
166
40
154
162
67
181
189
62
176
184
65
179
187
40
154
162
33
147
155
40
154
162
43
157
165
73
187
195
17
131
139
89
203
211
41
155
163
8
122
130
43
157
165
43
157
165
44
158
166
37
151
159
20
134
142
25
139
147
45
159
167
22
136
144
49
163
171
31
145
153
12
126
134
32
146
154
1
115
123
42
156
164
37
151
159
35
149
157
29
143
151
16
130
138
12
126
134
0
114
122
85
199
207
105
219
227
40
154
162
17
131
139
19
133
141
75
189
197
89
203
211
21
135
143
82
196
204
54
168
176
60
174
182
18
132
140
89
203
211
88
202
210
16
130
138
83
197
205
45
159
167
38
152
160
64
178
186
90
204
212
45
159
167
25
139
147
37
151
159
12
126
134
33
147
155
