P3
# Created by GIMP version 2.10.36 PNM plug-in
16 16
255
48
107
113
52
111
117
38
97
103
38
97
103
55
114
120
76
135
141
34
93
99
53
112
118
47
106
112
64
123
129
34
93
99
53
112
118
35
94
100
22
81
87
58
117
123
83
142
148
55
114
120
62
121
127
63
122
128
45
104
110
53
112
118
58
117
123
63
122
128
31
90
96
36
95
101
87
146
152
29
88
94
24
83
89
132
191
197
121
180
186
51
110
116
45
104
110
53
112
118
94
153
159
55
114
120
98
157
163
28
87
93
32
91
97
58
117
123
77
136
142
77
136
142
33
92
98
55
114
120
94
153
159
53
112
118
63
122
128
28
87
93
54
113
119
39
98
104
49
108
114
23
82
88
53
112
118
52
111
117
55
114
120
45
104
110
36
95
101
38
97
103
100
159
165
32
91
97
56
115
121
38
97
103
64
123
129
56
115
121
54
113
119
24
83
89
32
91
97
94
153
159
51
110
116
71
130
136
51
110
116
35
94
100
102
161
167
107
166
172
49
108
114
59
118
124
50
109
115
80
139
145
51
110
116
32
91
97
30
89
95
119
178
184
88
147
153
24
83
89
58
117
123
29
88
94
71
130
136
97
156
162
54
113
119
58
117
123
50
109
115
51
110
116
58
117
123
32
91
97
31
90
96
94
153
159
91
150
156
49
108
114
24
83
89
58
117
123
25
84
90
89
148
154
54
113
119
59
118
124
58
117
123
80
139
145
77
136
142
32
91
97
26
85
91
92
151
157
93
152
158
47
106
112
52
111
117
58
117
123
52
111
117
56
115
121
35
94
100
77
136
142
55
114
120
57
116
122
40
99
105
35
94
100
30
89
95
63
122
128
45
104
110
39
98
104
31
90
96
62
121
127
78
137
143
32
91
97
50
109
115
91
150
156
58
117
123
28
87
93
39
98
104
25
84
90
97
156
162
99
158
164
69
128
134
53
112
118
32
91
97
63
122
128
51
110
116
52
111
117
28
87
93
98
157
163
52
111
117
34
93
99
31
90
96
88
147
153
103
162
168
93
152
158
38
97
103
58
117
123
54
113
119
97
156
162
55
114
120
33
92
98
67
126
132
54
113
119
78
137
143
62
121
127
60
119
125
74
133
139
87
146
152
47
106
112
53
112
118
74
133
139
49
108
114
34
93
99
39
98
104
60
119
125
24
83
89
56
115
121
38
97
103
91
150
156
51
110
116
34
93
99
107
166
172
49
108
114
57
116
122
39
98
104
58
117
123
30
89
95
92
151
157
54
113
119
46
105
111
51
110
116
60
119
125
90
149
155
78
137
143
40
99
105
51
110
116
98
157
163
22
81
87
91
150
156
79
138
144
61
120
126
58
117
123
54
113
119
81
140
146
76
135
141
79
138
144
54
113
119
47
106
112
54
113
119
57
116
122
87
146
152
31
90
96
103
162
168
55
114
120
22
81
87
57
116
122
57
116
122
58
117
123
51
110
116
34
93
99
39
98
104
59
118
124
36
95
101
63
122
128
45
104
110
26
85
91
46
105
111
15
74
80
56
115
121
51
110
116
49
108
114
43
102
108
30
89
95
26
85
91
14
73
79
99
158
164
119
178
184
54
113
119
31
90
96
33
92
98
89
148
154
103
162
168
35
94
100
96
155
161
68
127
133
74
133
139
32
91
97
103
162
168
102
161
167
30
89
95
97
156
162
59
118
124
52
111
117
78
137
143
104
163
169
59
118
124
39
98
104
51
110
116
26
85
91
47
106
112
