P3
# Created by GIMP version 2.10.36 PNM plug-in
16 16
255
115
59
59
119
63
63
105
49
49
105
49
49
122
66
66
143
87
87
101
45
45
120
64
64
114
58
58
131
75
75
101
45
45
120
64
64
102
46
46
89
33
33
125
69
69
150
94
94
122
66
66
129
73
73
130
74
74
112
56
56
120
64
64
125
69
69
130
74
74
98
42
42
103
47
47
154
98
98
96
40
40
91
35
35
199
143
143
188
132
132
118
62
62
112
56
56
120
64
64
161
105
105
122
66
66
165
109
109
95
39
39
99
43
43
125
69
69
144
88
88
144
88
88
100
44
44
122
66
66
161
105
105
120
64
64
130
74
74
95
39
39
121
65
65
106
50
50
116
60
60
90
34
34
120
64
64
119
63
63
122
66
66
112
56
56
103
47
47
105
49
49
167
111
111
99
43
43
123
67
67
105
49
49
131
75
75
123
67
67
121
65
65
91
35
35
99
43
43
161
105
105
118
62
62
138
82
82
118
62
62
102
46
46
169
113
113
174
118
118
116
60
60
126
70
70
117
61
61
147
91
91
118
62
62
99
43
43
97
41
41
186
130
130
155
99
99
91
35
35
125
69
69
96
40
40
138
82
82
164
108
108
121
65
65
125
69
69
117
61
61
118
62
62
125
69
69
99
43
43
98
42
42
161
105
105
158
102
102
116
60
60
91
35
35
125
69
69
92
36
36
156
100
100
121
65
65
126
70
70
125
69
69
147
91
91
144
88
88
99
43
43
93
37
37
159
103
103
160
104
104
114
58
58
119
63
63
125
69
69
119
63
63
123
67
67
102
46
46
144
88
88
122
66
66
124
68
68
107
51
51
102
46
46
97
41
41
130
74
74
112
56
56
106
50
50
98
42
42
129
73
73
145
89
89
99
43
43
117
61
61
158
102
102
125
69
69
95
39
39
106
50
50
92
36
36
164
108
108
166
110
110
136
80
80
120
64
64
99
43
43
130
74
74
118
62
62
119
63
63
95
39
39
165
109
109
119
63
63
101
45
45
98
42
42
155
99
99
170
114
114
160
104
104
105
49
49
125
69
69
121
65
65
164
108
108
122
66
66
100
44
44
134
78
78
121
65
65
145
89
89
129
73
73
127
71
71
141
85
85
154
98
98
114
58
58
120
64
64
141
85
85
116
60
60
101
45
45
106
50
50
127
71
71
91
35
35
123
67
67
105
49
49
158
102
102
118
62
62
101
45
45
174
118
118
116
60
60
124
68
68
106
50
50
125
69
69
97
41
41
159
103
103
121
65
65
113
57
57
118
62
62
127
71
71
157
101
101
145
89
89
107
51
51
118
62
62
165
109
109
89
33
33
158
102
102
146
90
90
128
72
72
125
69
69
121
65
65
148
92
92
143
87
87
146
90
90
121
65
65
114
58
58
121
65
65
124
68
68
154
98
98
98
42
42
170
114
114
122
66
66
89
33
33
124
68
68
124
68
68
125
69
69
118
62
62
101
45
45
106
50
50
126
70
70
103
47
47
130
74
74
112
56
56
93
37
37
113
57
57
82
26
26
123
67
67
118
62
62
116
60
60
110
54
54
97
41
41
93
37
37
81
25
25
166
110
110
186
130
130
121
65
65
98
42
42
100
44
44
156
100
100
170
114
114
102
46
46
163
107
107
135
79
79
141
85
85
99
43
43
170
114
114
169
113
113
97
41
41
164
108
108
126
70
70
119
63
63
145
89
89
171
115
115
126
70
70
106
50
50
118
62
62
93
37
37
114
58
58
