P3
# Created by GIMP version 2.10.36 PNM plug-in
16 16
255
126
74
127
130
78
131
116
64
117
116
64
117
133
81
134
154
102
155
112
60
113
131
79
132
125
73
126
142
90
143
112
60
113
131
79
132
113
61
114
100
48
101
136
84
137
161
109
162
133
81
134
140
88
141
141
89
142
123
71
124
131
79
132
136
84
137
141
89
142
109
57
110
114
62
115
165
113
166
107
55
108
102
50
103
210
158
211
199
147
200
129
77
130
123
71
124
131
79
132
172
120
173
133
81
134
176
124
177
106
54
107
110
58
111
136
84
137
155
103
156
155
103
156
111
59
112
133
81
134
172
120
173
131
79
132
141
89
142
106
54
107
132
80
133
117
65
118
127
75
128
101
49
102
131
79
132
130
78
131
133
81
134
123
71
124
114
62
115
116
64
117
178
126
179
110
58
111
134
82
135
116
64
117
142
90
143
134
82
135
132
80
133
102
50
103
110
58
111
172
120
173
129
77
130
149
97
150
129
77
130
113
61
114
180
128
181
185
133
186
127
75
128
137
85
138
128
76
129
158
106
159
129
77
130
110
58
111
108
56
109
197
145
198
166
114
167
102
50
103
136
84
137
107
55
108
149
97
150
175
123
176
132
80
133
136
84
137
128
76
129
129
77
130
136
84
137
110
58
111
109
57
110
172
120
173
169
117
170
127
75
128
102
50
103
136
84
137
103
51
104
167
115
168
132
80
133
137
85
138
136
84
137
158
106
159
155
103
156
110
58
111
104
52
105
170
118
171
171
119
172
125
73
126
130
78
131
136
84
137
130
78
131
134
82
135
113
61
114
155
103
156
133
81
134
135
83
136
118
66
119
113
61
114
108
56
109
141
89
142
123
71
124
117
65
118
109
57
110
140
88
141
156
104
157
110
58
111
128
76
129
169
117
170
136
84
137
106
54
107
117
65
118
103
51
104
175
123
176
177
125
178
147
95
148
131
79
132
110
58
111
141
89
142
129
77
130
130
78
131
106
54
107
176
124
177
130
78
131
112
60
113
109
57
110
166
114
167
181
129
182
171
119
172
116
64
117
136
84
137
132
80
133
175
123
176
133
81
134
111
59
112
145
93
146
132
80
133
156
104
157
140
88
141
138
86
139
152
100
153
165
113
166
125
73
126
131
79
132
152
100
153
127
75
128
112
60
113
117
65
118
138
86
139
102
50
103
134
82
135
116
64
117
169
117
170
129
77
130
112
60
113
185
133
186
127
75
128
135
83
136
117
65
118
136
84
137
108
56
109
170
118
171
132
80
133
124
72
125
129
77
130
138
86
139
168
116
169
156
104
157
118
66
119
129
77
130
176
124
177
100
48
101
169
117
170
157
105
158
139
87
140
136
84
137
132
80
133
159
107
160
154
102
155
157
105
158
132
80
133
125
73
126
132
80
133
135
83
136
165
113
166
109
57
110
181
129
182
133
81
134
100
48
101
135
83
136
135
83
136
136
84
137
129
77
130
112
60
113
117
65
118
137
85
138
114
62
115
141
89
142
123
71
124
104
52
105
124
72
125
93
41
94
134
82
135
129
77
130
127
75
128
121
69
122
108
56
109
104
52
105
92
40
93
177
125
178
197
145
198
132
80
133
109
57
110
111
59
112
167
115
168
181
129
182
113
61
114
174
122
175
146
94
147
152
100
153
110
58
111
181
129
182
180
128
181
108
56
109
175
123
176
137
85
138
130
78
131
156
104
157
182
130
183
137
85
138
117
65
118
129
77
130
104
52
105
125
73
126
