P3
# Created by GIMP version 2.10.36 PNM plug-in
16 16
255
67
122
141
71
126
145
57
112
131
57
112
131
74
129
148
95
150
169
53
108
127
72
127
146
66
121
140
83
138
157
53
108
127
72
127
146
54
109
128
41
96
115
77
132
151
102
157
176
74
129
148
81
136
155
82
137
156
64
119
138
72
127
146
77
132
151
82
137
156
50
105
124
55
110
129
106
161
180
48
103
122
43
98
117
151
206
225
140
195
214
70
125
144
64
119
138
72
127
146
113
168
187
74
129
148
117
172
191
47
102
121
51
106
125
77
132
151
96
151
170
96
151
170
52
107
126
74
129
148
113
168
187
72
127
146
82
137
156
47
102
121
73
128
147
58
113
132
68
123
142
42
97
116
72
127
146
71
126
145
74
129
148
64
119
138
55
110
129
57
112
131
119
174
193
51
106
125
75
130
149
57
112
131
83
138
157
75
130
149
73
128
147
43
98
117
51
106
125
113
168
187
70
125
144
90
145
164
70
125
144
54
109
128
121
176
195
126
181
200
68
123
142
78
133
152
69
124
143
99
154
173
70
125
144
51
106
125
49
104
123
138
193
212
107
162
181
43
98
117
77
132
151
48
103
122
90
145
164
116
171
190
73
128
147
77
132
151
69
124
143
70
125
144
77
132
151
51
106
125
50
105
124
113
168
187
110
165
184
68
123
142
43
98
117
77
132
151
44
99
118
108
163
182
73
128
147
78
133
152
77
132
151
99
154
173
96
151
170
51
106
125
45
100
119
111
166
185
112
167
186
66
121
140
71
126
145
77
132
151
71
126
145
75
130
149
54
109
128
96
151
170
74
129
148
76
131
150
59
114
133
54
109
128
49
104
123
82
137
156
64
119
138
58
113
132
50
105
124
81
136
155
97
152
171
51
106
125
69
124
143
110
165
184
77
132
151
47
102
121
58
113
132
44
99
118
116
171
190
118
173
192
88
143
162
72
127
146
51
106
125
82
137
156
70
125
144
71
126
145
47
102
121
117
172
191
71
126
145
53
108
127
50
105
124
107
162
181
122
177
196
112
167
186
57
112
131
77
132
151
73
128
147
116
171
190
74
129
148
52
107
126
86
141
160
73
128
147
97
152
171
81
136
155
79
134
153
93
148
167
106
161
180
66
121
140
72
127
146
93
148
167
68
123
142
53
108
127
58
113
132
79
134
153
43
98
117
75
130
149
57
112
131
110
165
184
70
125
144
53
108
127
126
181
200
68
123
142
76
131
150
58
113
132
77
132
151
49
104
123
111
166
185
73
128
147
65
120
139
70
125
144
79
134
153
109
164
183
97
152
171
59
114
133
70
125
144
117
172
191
41
96
115
110
165
184
98
153
172
80
135
154
77
132
151
73
128
147
100
155
174
95
150
169
98
153
172
73
128
147
66
121
140
73
128
147
76
131
150
106
161
180
50
105
124
122
177
196
74
129
148
41
96
115
76
131
150
76
131
150
77
132
151
70
125
144
53
108
127
58
113
132
78
133
152
55
110
129
82
137
156
64
119
138
45
100
119
65
120
139
34
89
108
75
130
149
70
125
144
68
123
142
62
117
136
49
104
123
45
100
119
33
88
107
118
173
192
138
193
212
73
128
147
50
105
124
52
107
126
108
163
182
122
177
196
54
109
128
115
170
189
87
142
161
93
148
167
51
106
125
122
177
196
121
176
195
49
104
123
116
171
190
78
133
152
71
126
145
97
152
171
123
178
197
78
133
152
58
113
132
70
125
144
45
100
119
66
121
140
