P3
# Created by GIMP version 2.10.36 PNM plug-in
16 16
255
96
60
123
100
64
127
86
50
113
86
50
113
103
67
130
124
88
151
82
46
109
101
65
128
95
59
122
112
76
139
82
46
109
101
65
128
83
47
110
70
34
97
106
70
133
131
95
158
103
67
130
110
74
137
111
75
138
93
57
120
101
65
128
106
70
133
111
75
138
79
43
106
84
48
111
135
99
162
77
41
104
72
36
99
180
144
207
169
133
196
99
63
126
93
57
120
101
65
128
142
106
169
103
67
130
146
110
173
76
40
103
80
44
107
106
70
133
125
89
152
125
89
152
81
45
108
103
67
130
142
106
169
101
65
128
111
75
138
76
40
103
102
66
129
87
51
114
97
61
124
71
35
98
101
65
128
100
64
127
103
67
130
93
57
120
84
48
111
86
50
113
148
112
175
80
44
107
104
68
131
86
50
113
112
76
139
104
68
131
102
66
129
72
36
99
80
44
107
142
106
169
99
63
126
119
83
146
99
63
126
83
47
110
150
114
177
155
119
182
97
61
124
107
71
134
98
62
125
128
92
155
99
63
126
80
44
107
78
42
105
167
131
194
136
100
163
72
36
99
106
70
133
77
41
104
119
83
146
145
109
172
102
66
129
106
70
133
98
62
125
99
63
126
106
70
133
80
44
107
79
43
106
142
106
169
139
103
166
97
61
124
72
36
99
106
70
133
73
37
100
137
101
164
102
66
129
107
71
134
106
70
133
128
92
155
125
89
152
80
44
107
74
38
101
140
104
167
141
105
168
95
59
122
100
64
127
106
70
133
100
64
127
104
68
131
83
47
110
125
89
152
103
67
130
105
69
132
88
52
115
83
47
110
78
42
105
111
75
138
93
57
120
87
51
114
79
43
106
110
74
137
126
90
153
80
44
107
98
62
125
139
103
166
106
70
133
76
40
103
87
51
114
73
37
100
145
109
172
147
111
174
117
81
144
101
65
128
80
44
107
111
75
138
99
63
126
100
64
127
76
40
103
146
110
173
100
64
127
82
46
109
79
43
106
136
100
163
151
115
178
141
105
168
86
50
113
106
70
133
102
66
129
145
109
172
103
67
130
81
45
108
115
79
142
102
66
129
126
90
153
110
74
137
108
72
135
122
86
149
135
99
162
95
59
122
101
65
128
122
86
149
97
61
124
82
46
109
87
51
114
108
72
135
72
36
99
104
68
131
86
50
113
139
103
166
99
63
126
82
46
109
155
119
182
97
61
124
105
69
132
87
51
114
106
70
133
78
42
105
140
104
167
102
66
129
94
58
121
99
63
126
108
72
135
138
102
165
126
90
153
88
52
115
99
63
126
146
110
173
70
34
97
139
103
166
127
91
154
109
73
136
106
70
133
102
66
129
129
93
156
124
88
151
127
91
154
102
66
129
95
59
122
102
66
129
105
69
132
135
99
162
79
43
106
151
115
178
103
67
130
70
34
97
105
69
132
105
69
132
106
70
133
99
63
126
82
46
109
87
51
114
107
71
134
84
48
111
111
75
138
93
57
120
74
38
101
94
58
121
63
27
90
104
68
131
99
63
126
97
61
124
91
55
118
78
42
105
74
38
101
62
26
89
147
111
174
167
131
194
102
66
129
79
43
106
81
45
108
137
101
164
151
115
178
83
47
110
144
108
171
116
80
143
122
86
149
80
44
107
151
115
178
150
114
177
78
42
105
145
109
172
107
71
134
100
64
127
126
90
153
152
116
179
107
71
134
87
51
114
99
63
126
74
38
101
95
59
122
