P3
# Created by GIMP version 2.10.36 PNM plug-in
16 16
255
146
132
65
150
136
69
136
122
55
136
122
55
153
139
72
174
160
93
132
118
51
151
137
70
145
131
64
162
148
81
132
118
51
151
137
70
133
119
52
120
106
39
156
142
75
181
167
100
153
139
72
160
146
79
161
147
80
143
129
62
151
137
70
156
142
75
161
147
80
129
115
48
134
120
53
185
171
104
127
113
46
122
108
41
230
216
149
219
205
138
149
135
68
143
129
62
151
137
70
192
178
111
153
139
72
196
182
115
126
112
45
130
116
49
156
142
75
175
161
94
175
161
94
131
117
50
153
139
72
192
178
111
151
137
70
161
147
80
126
112
45
152
138
71
137
123
56
147
133
66
121
107
40
151
137
70
150
136
69
153
139
72
143
129
62
134
120
53
136
122
55
198
184
117
130
116
49
154
140
73
136
122
55
162
148
81
154
140
73
152
138
71
122
108
41
130
116
49
192
178
111
149
135
68
169
155
88
149
135
68
133
119
52
200
186
119
205
191
124
147
133
66
157
143
76
148
134
67
178
164
97
149
135
68
130
116
49
128
114
47
217
203
136
186
172
105
122
108
41
156
142
75
127
113
46
169
155
88
195
181
114
152
138
71
156
142
75
148
134
67
149
135
68
156
142
75
130
116
49
129
115
48
192
178
111
189
175
108
147
133
66
122
108
41
156
142
75
123
109
42
187
173
106
152
138
71
157
143
76
156
142
75
178
164
97
175
161
94
130
116
49
124
110
43
190
176
109
191
177
110
145
131
64
150
136
69
156
142
75
150
136
69
154
140
73
133
119
52
175
161
94
153
139
72
155
141
74
138
124
57
133
119
52
128
114
47
161
147
80
143
129
62
137
123
56
129
115
48
160
146
79
176
162
95
130
116
49
148
134
67
189
175
108
156
142
75
126
112
45
137
123
56
123
109
42
195
181
114
197
183
116
167
153
86
151
137
70
130
116
49
161
147
80
149
135
68
150
136
69
126
112
45
196
182
115
150
136
69
132
118
51
129
115
48
186
172
105
201
187
120
191
177
110
136
122
55
156
142
75
152
138
71
195
181
114
153
139
72
131
117
50
165
151
84
152
138
71
176
162
95
160
146
79
158
144
77
172
158
91
185
171
104
145
131
64
151
137
70
172
158
91
147
133
66
132
118
51
137
123
56
158
144
77
122
108
41
154
140
73
136
122
55
189
175
108
149
135
68
132
118
51
205
191
124
147
133
66
155
141
74
137
123
56
156
142
75
128
114
47
190
176
109
152
138
71
144
130
63
149
135
68
158
144
77
188
174
107
176
162
95
138
124
57
149
135
68
196
182
115
120
106
39
189
175
108
177
163
96
159
145
78
156
142
75
152
138
71
179
165
98
174
160
93
177
163
96
152
138
71
145
131
64
152
138
71
155
141
74
185
171
104
129
115
48
201
187
120
153
139
72
120
106
39
155
141
74
155
141
74
156
142
75
149
135
68
132
118
51
137
123
56
157
143
76
134
120
53
161
147
80
143
129
62
124
110
43
144
130
63
113
99
32
154
140
73
149
135
68
147
133
66
141
127
60
128
114
47
124
110
43
112
98
31
197
183
116
217
203
136
152
138
71
129
115
48
131
117
50
187
173
106
201
187
120
133
119
52
194
180
113
166
152
85
172
158
91
130
116
49
201
187
120
200
186
119
128
114
47
195
181
114
157
143
76
150
136
69
176
162
95
202
188
121
157
143
76
137
123
56
149
135
68
124
110
43
145
131
64
