P3
# Created by GIMP version 2.10.36 PNM plug-in
16 16
255
79
92
56
83
96
60
69
82
46
69
82
46
86
99
63
107
120
84
65
78
42
84
97
61
78
91
55
95
108
72
65
78
42
84
97
61
66
79
43
53
66
30
89
102
66
114
127
91
86
99
63
93
106
70
94
107
71
76
89
53
84
97
61
89
102
66
94
107
71
62
75
39
67
80
44
118
131
95
60
73
37
55
68
32
163
176
140
152
165
129
82
95
59
76
89
53
84
97
61
125
138
102
86
99
63
129
142
106
59
72
36
63
76
40
89
102
66
108
121
85
108
121
85
64
77
41
86
99
63
125
138
102
84
97
61
94
107
71
59
72
36
85
98
62
70
83
47
80
93
57
54
67
31
84
97
61
83
96
60
86
99
63
76
89
53
67
80
44
69
82
46
131
144
108
63
76
40
87
100
64
69
82
46
95
108
72
87
100
64
85
98
62
55
68
32
63
76
40
125
138
102
82
95
59
102
115
79
82
95
59
66
79
43
133
146
110
138
151
115
80
93
57
90
103
67
81
94
58
111
124
88
82
95
59
63
76
40
61
74
38
150
163
127
119
132
96
55
68
32
89
102
66
60
73
37
102
115
79
128
141
105
85
98
62
89
102
66
81
94
58
82
95
59
89
102
66
63
76
40
62
75
39
125
138
102
122
135
99
80
93
57
55
68
32
89
102
66
56
69
33
120
133
97
85
98
62
90
103
67
89
102
66
111
124
88
108
121
85
63
76
40
57
70
34
123
136
100
124
137
101
78
91
55
83
96
60
89
102
66
83
96
60
87
100
64
66
79
43
108
121
85
86
99
63
88
101
65
71
84
48
66
79
43
61
74
38
94
107
71
76
89
53
70
83
47
62
75
39
93
106
70
109
122
86
63
76
40
81
94
58
122
135
99
89
102
66
59
72
36
70
83
47
56
69
33
128
141
105
130
143
107
100
113
77
84
97
61
63
76
40
94
107
71
82
95
59
83
96
60
59
72
36
129
142
106
83
96
60
65
78
42
62
75
39
119
132
96
134
147
111
124
137
101
69
82
46
89
102
66
85
98
62
128
141
105
86
99
63
64
77
41
98
111
75
85
98
62
109
122
86
93
106
70
91
104
68
105
118
82
118
131
95
78
91
55
84
97
61
105
118
82
80
93
57
65
78
42
70
83
47
91
104
68
55
68
32
87
100
64
69
82
46
122
135
99
82
95
59
65
78
42
138
151
115
80
93
57
88
101
65
70
83
47
89
102
66
61
74
38
123
136
100
85
98
62
77
90
54
82
95
59
91
104
68
121
134
98
109
122
86
71
84
48
82
95
59
129
142
106
53
66
30
122
135
99
110
123
87
92
105
69
89
102
66
85
98
62
112
125
89
107
120
84
110
123
87
85
98
62
78
91
55
85
98
62
88
101
65
118
131
95
62
75
39
134
147
111
86
99
63
53
66
30
88
101
65
88
101
65
89
102
66
82
95
59
65
78
42
70
83
47
90
103
67
67
80
44
94
107
71
76
89
53
57
70
34
77
90
54
46
59
23
87
100
64
82
95
59
80
93
57
74
87
51
61
74
38
57
70
34
45
58
22
130
143
107
150
163
127
85
98
62
62
75
39
64
77
41
120
133
97
134
147
111
66
79
43
127
140
104
99
112
76
105
118
82
63
76
40
134
147
111
133
146
110
61
74
38
128
141
105
90
103
67
83
96
60
109
122
86
135
148
112
90
103
67
70
83
47
82
95
59
57
70
34
78
91
55
