P3
# Created by GIMP version 2.10.36 PNM plug-in
16 16
255
108
110
108
112
114
112
98
100
98
98
100
98
115
117
115
136
138
136
94
96
94
113
115
113
107
109
107
124
126
124
94
96
94
113
115
113
95
97
95
82
84
82
118
120
118
143
145
143
115
117
115
122
124
122
123
125
123
105
107
105
113
115
113
118
120
118
123
125
123
91
93
91
96
98
96
147
149
147
89
91
89
84
86
84
192
194
192
181
183
181
111
113
111
105
107
105
113
115
113
154
156
154
115
117
115
158
160
158
88
90
88
92
94
92
118
120
118
137
139
137
137
139
137
93
95
93
115
117
115
154
156
154
113
115
113
123
125
123
88
90
88
114
116
114
99
101
99
109
111
109
83
85
83
113
115
113
112
114
112
115
117
115
105
107
105
96
98
96
98
100
98
160
162
160
92
94
92
116
118
116
98
100
98
124
126
124
116
118
116
114
116
114
84
86
84
92
94
92
154
156
154
111
113
111
131
133
131
111
113
111
95
97
95
162
164
162
167
169
167
109
111
109
119
121
119
110
112
110
140
142
140
111
113
111
92
94
92
90
92
90
179
181
179
148
150
148
84
86
84
118
120
118
89
91
89
131
133
131
157
159
157
114
116
114
118
120
118
110
112
110
111
113
111
118
120
118
92
94
92
91
93
91
154
156
154
151
153
151
109
111
109
84
86
84
118
120
118
85
87
85
149
151
149
114
116
114
119
121
119
118
120
118
140
142
140
137
139
137
92
94
92
86
88
86
152
154
152
153
155
153
107
109
107
112
114
112
118
120
118
112
114
112
116
118
116
95
97
95
137
139
137
115
117
115
117
119
117
100
102
100
95
97
95
90
92
90
123
125
123
105
107
105
99
101
99
91
93
91
122
124
122
138
140
138
92
94
92
110
112
110
151
153
151
118
120
118
88
90
88
99
101
99
85
87
85
157
159
157
159
161
159
129
131
129
113
115
113
92
94
92
123
125
123
111
113
111
112
114
112
88
90
88
158
160
158
112
114
112
94
96
94
91
93
91
148
150
148
163
165
163
153
155
153
98
100
98
118
120
118
114
116
114
157
159
157
115
117
115
93
95
93
127
129
127
114
116
114
138
140
138
122
124
122
120
122
120
134
136
134
147
149
147
107
109
107
113
115
113
134
136
134
109
111
109
94
96
94
99
101
99
120
122
120
84
86
84
116
118
116
98
100
98
151
153
151
111
113
111
94
96
94
167
169
167
109
111
109
117
119
117
99
101
99
118
120
118
90
92
90
152
154
152
114
116
114
106
108
106
111
113
111
120
122
120
150
152
150
138
140
138
100
102
100
111
113
111
158
160
158
82
84
82
151
153
151
139
141
139
121
123
121
118
120
118
114
116
114
141
143
141
136
138
136
139
141
139
114
116
114
107
109
107
114
116
114
117
119
117
147
149
147
91
93
91
163
165
163
115
117
115
82
84
82
117
119
117
117
119
117
118
120
118
111
113
111
94
96
94
99
101
99
119
121
119
96
98
96
123
125
123
105
107
105
86
88
86
106
108
106
75
77
75
116
118
116
111
113
111
109
111
109
103
105
103
90
92
90
86
88
86
74
76
74
159
161
159
179
181
179
114
116
114
91
93
91
93
95
93
149
151
149
163
165
163
95
97
95
156
158
156
128
130
128
134
136
134
92
94
92
163
165
163
162
164
162
90
92
90
157
159
157
119
121
119
112
114
112
138
140
138
164
166
164
119
121
119
99
101
99
111
113
111
86
88
86
107
109
107
