P3
# Created by GIMP version 2.10.36 PNM plug-in
16 16
255
68
72
76
72
76
80
58
62
66
58
62
66
75
79
83
96
100
104
54
58
62
73
77
81
67
71
75
84
88
92
54
58
62
73
77
81
55
59
63
42
46
50
78
82
86
103
107
111
75
79
83
82
86
90
83
87
91
65
69
73
73
77
81
78
82
86
83
87
91
51
55
59
56
60
64
107
111
115
49
53
57
44
48
52
152
156
160
141
145
149
71
75
79
65
69
73
73
77
81
114
118
122
75
79
83
118
122
126
48
52
56
52
56
60
78
82
86
97
101
105
97
101
105
53
57
61
75
79
83
114
118
122
73
77
81
83
87
91
48
52
56
74
78
82
59
63
67
69
73
77
43
47
51
73
77
81
72
76
80
75
79
83
65
69
73
56
60
64
58
62
66
120
124
128
52
56
60
76
80
84
58
62
66
84
88
92
76
80
84
74
78
82
44
48
52
52
56
60
114
118
122
71
75
79
91
95
99
71
75
79
55
59
63
122
126
130
127
131
135
69
73
77
79
83
87
70
74
78
100
104
108
71
75
79
52
56
60
50
54
58
139
143
147
108
112
116
44
48
52
78
82
86
49
53
57
91
95
99
117
121
125
74
78
82
78
82
86
70
74
78
71
75
79
78
82
86
52
56
60
51
55
59
114
118
122
111
115
119
69
73
77
44
48
52
78
82
86
45
49
53
109
113
117
74
78
82
79
83
87
78
82
86
100
104
108
97
101
105
52
56
60
46
50
54
112
116
120
113
117
121
67
71
75
72
76
80
78
82
86
72
76
80
76
80
84
55
59
63
97
101
105
75
79
83
77
81
85
60
64
68
55
59
63
50
54
58
83
87
91
65
69
73
59
63
67
51
55
59
82
86
90
98
102
106
52
56
60
70
74
78
111
115
119
78
82
86
48
52
56
59
63
67
45
49
53
117
121
125
119
123
127
89
93
97
73
77
81
52
56
60
83
87
91
71
75
79
72
76
80
48
52
56
118
122
126
72
76
80
54
58
62
51
55
59
108
112
116
123
127
131
113
117
121
58
62
66
78
82
86
74
78
82
117
121
125
75
79
83
53
57
61
87
91
95
74
78
82
98
102
106
82
86
90
80
84
88
94
98
102
107
111
115
67
71
75
73
77
81
94
98
102
69
73
77
54
58
62
59
63
67
80
84
88
44
48
52
76
80
84
58
62
66
111
115
119
71
75
79
54
58
62
127
131
135
69
73
77
77
81
85
59
63
67
78
82
86
50
54
58
112
116
120
74
78
82
66
70
74
71
75
79
80
84
88
110
114
118
98
102
106
60
64
68
71
75
79
118
122
126
42
46
50
111
115
119
99
103
107
81
85
89
78
82
86
74
78
82
101
105
109
96
100
104
99
103
107
74
78
82
67
71
75
74
78
82
77
81
85
107
111
115
51
55
59
123
127
131
75
79
83
42
46
50
77
81
85
77
81
85
78
82
86
71
75
79
54
58
62
59
63
67
79
83
87
56
60
64
83
87
91
65
69
73
46
50
54
66
70
74
35
39
43
76
80
84
71
75
79
69
73
77
63
67
71
50
54
58
46
50
54
34
38
42
119
123
127
139
143
147
74
78
82
51
55
59
53
57
61
109
113
117
123
127
131
55
59
63
116
120
124
88
92
96
94
98
102
52
56
60
123
127
131
122
126
130
50
54
58
117
121
125
79
83
87
72
76
80
98
102
106
124
128
132
79
83
87
59
63
67
71
75
79
46
50
54
67
71
75
