P3
# Created by GIMP version 2.10.36 PNM plug-in
16 16
255
93
127
54
97
131
58
83
117
44
83
117
44
100
134
61
121
155
82
79
113
40
98
132
59
92
126
53
109
143
70
79
113
40
98
132
59
80
114
41
67
101
28
103
137
64
128
162
89
100
134
61
107
141
68
108
142
69
90
124
51
98
132
59
103
137
64
108
142
69
76
110
37
81
115
42
132
166
93
74
108
35
69
103
30
177
211
138
166
200
127
96
130
57
90
124
51
98
132
59
139
173
100
100
134
61
143
177
104
73
107
34
77
111
38
103
137
64
122
156
83
122
156
83
78
112
39
100
134
61
139
173
100
98
132
59
108
142
69
73
107
34
99
133
60
84
118
45
94
128
55
68
102
29
98
132
59
97
131
58
100
134
61
90
124
51
81
115
42
83
117
44
145
179
106
77
111
38
101
135
62
83
117
44
109
143
70
101
135
62
99
133
60
69
103
30
77
111
38
139
173
100
96
130
57
116
150
77
96
130
57
80
114
41
147
181
108
152
186
113
94
128
55
104
138
65
95
129
56
125
159
86
96
130
57
77
111
38
75
109
36
164
198
125
133
167
94
69
103
30
103
137
64
74
108
35
116
150
77
142
176
103
99
133
60
103
137
64
95
129
56
96
130
57
103
137
64
77
111
38
76
110
37
139
173
100
136
170
97
94
128
55
69
103
30
103
137
64
70
104
31
134
168
95
99
133
60
104
138
65
103
137
64
125
159
86
122
156
83
77
111
38
71
105
32
137
171
98
138
172
99
92
126
53
97
131
58
103
137
64
97
131
58
101
135
62
80
114
41
122
156
83
100
134
61
102
136
63
85
119
46
80
114
41
75
109
36
108
142
69
90
124
51
84
118
45
76
110
37
107
141
68
123
157
84
77
111
38
95
129
56
136
170
97
103
137
64
73
107
34
84
118
45
70
104
31
142
176
103
144
178
105
114
148
75
98
132
59
77
111
38
108
142
69
96
130
57
97
131
58
73
107
34
143
177
104
97
131
58
79
113
40
76
110
37
133
167
94
148
182
109
138
172
99
83
117
44
103
137
64
99
133
60
142
176
103
100
134
61
78
112
39
112
146
73
99
133
60
123
157
84
107
141
68
105
139
66
119
153
80
132
166
93
92
126
53
98
132
59
119
153
80
94
128
55
79
113
40
84
118
45
105
139
66
69
103
30
101
135
62
83
117
44
136
170
97
96
130
57
79
113
40
152
186
113
94
128
55
102
136
63
84
118
45
103
137
64
75
109
36
137
171
98
99
133
60
91
125
52
96
130
57
105
139
66
135
169
96
123
157
84
85
119
46
96
130
57
143
177
104
67
101
28
136
170
97
124
158
85
106
140
67
103
137
64
99
133
60
126
160
87
121
155
82
124
158
85
99
133
60
92
126
53
99
133
60
102
136
63
132
166
93
76
110
37
148
182
109
100
134
61
67
101
28
102
136
63
102
136
63
103
137
64
96
130
57
79
113
40
84
118
45
104
138
65
81
115
42
108
142
69
90
124
51
71
105
32
91
125
52
60
94
21
101
135
62
96
130
57
94
128
55
88
122
49
75
109
36
71
105
32
59
93
20
144
178
105
164
198
125
99
133
60
76
110
37
78
112
39
134
168
95
148
182
109
80
114
41
141
175
102
113
147
74
119
153
80
77
111
38
148
182
109
147
181
108
75
109
36
142
176
103
104
138
65
97
131
58
123
157
84
149
183
110
104
138
65
84
118
45
96
130
57
71
105
32
92
126
53
