P3
# Created by GIMP version 2.10.36 PNM plug-in
16 16
255
144
99
51
148
103
55
134
89
41
134
89
41
151
106
58
172
127
79
130
85
37
149
104
56
143
98
50
160
115
67
130
85
37
149
104
56
131
86
38
118
73
25
154
109
61
179
134
86
151
106
58
158
113
65
159
114
66
141
96
48
149
104
56
154
109
61
159
114
66
127
82
34
132
87
39
183
138
90
125
80
32
120
75
27
228
183
135
217
172
124
147
102
54
141
96
48
149
104
56
190
145
97
151
106
58
194
149
101
124
79
31
128
83
35
154
109
61
173
128
80
173
128
80
129
84
36
151
106
58
190
145
97
149
104
56
159
114
66
124
79
31
150
105
57
135
90
42
145
100
52
119
74
26
149
104
56
148
103
55
151
106
58
141
96
48
132
87
39
134
89
41
196
151
103
128
83
35
152
107
59
134
89
41
160
115
67
152
107
59
150
105
57
120
75
27
128
83
35
190
145
97
147
102
54
167
122
74
147
102
54
131
86
38
198
153
105
203
158
110
145
100
52
155
110
62
146
101
53
176
131
83
147
102
54
128
83
35
126
81
33
215
170
122
184
139
91
120
75
27
154
109
61
125
80
32
167
122
74
193
148
100
150
105
57
154
109
61
146
101
53
147
102
54
154
109
61
128
83
35
127
82
34
190
145
97
187
142
94
145
100
52
120
75
27
154
109
61
121
76
28
185
140
92
150
105
57
155
110
62
154
109
61
176
131
83
173
128
80
128
83
35
122
77
29
188
143
95
189
144
96
143
98
50
148
103
55
154
109
61
148
103
55
152
107
59
131
86
38
173
128
80
151
106
58
153
108
60
136
91
43
131
86
38
126
81
33
159
114
66
141
96
48
135
90
42
127
82
34
158
113
65
174
129
81
128
83
35
146
101
53
187
142
94
154
109
61
124
79
31
135
90
42
121
76
28
193
148
100
195
150
102
165
120
72
149
104
56
128
83
35
159
114
66
147
102
54
148
103
55
124
79
31
194
149
101
148
103
55
130
85
37
127
82
34
184
139
91
199
154
106
189
144
96
134
89
41
154
109
61
150
105
57
193
148
100
151
106
58
129
84
36
163
118
70
150
105
57
174
129
81
158
113
65
156
111
63
170
125
77
183
138
90
143
98
50
149
104
56
170
125
77
145
100
52
130
85
37
135
90
42
156
111
63
120
75
27
152
107
59
134
89
41
187
142
94
147
102
54
130
85
37
203
158
110
145
100
52
153
108
60
135
90
42
154
109
61
126
81
33
188
143
95
150
105
57
142
97
49
147
102
54
156
111
63
186
141
93
174
129
81
136
91
43
147
102
54
194
149
101
118
73
25
187
142
94
175
130
82
157
112
64
154
109
61
150
105
57
177
132
84
172
127
79
175
130
82
150
105
57
143
98
50
150
105
57
153
108
60
183
138
90
127
82
34
199
154
106
151
106
58
118
73
25
153
108
60
153
108
60
154
109
61
147
102
54
130
85
37
135
90
42
155
110
62
132
87
39
159
114
66
141
96
48
122
77
29
142
97
49
111
66
18
152
107
59
147
102
54
145
100
52
139
94
46
126
81
33
122
77
29
110
65
17
195
150
102
215
170
122
150
105
57
127
82
34
129
84
36
185
140
92
199
154
106
131
86
38
192
147
99
164
119
71
170
125
77
128
83
35
199
154
106
198
153
105
126
81
33
193
148
100
155
110
62
148
103
55
174
129
81
200
155
107
155
110
62
135
90
42
147
102
54
122
77
29
143
98
50
