P3
# Created by GIMP version 2.10.36 PNM plug-in
16 16
255
145
110
125
149
114
129
135
100
115
135
100
115
152
117
132
173
138
153
131
96
111
150
115
130
144
109
124
161
126
141
131
96
111
150
115
130
132
97
112
119
84
99
155
120
135
180
145
160
152
117
132
159
124
139
160
125
140
142
107
122
150
115
130
155
120
135
160
125
140
128
93
108
133
98
113
184
149
164
126
91
106
121
86
101
229
194
209
218
183
198
148
113
128
142
107
122
150
115
130
191
156
171
152
117
132
195
160
175
125
90
105
129
94
109
155
120
135
174
139
154
174
139
154
130
95
110
152
117
132
191
156
171
150
115
130
160
125
140
125
90
105
151
116
131
136
101
116
146
111
126
120
85
100
150
115
130
149
114
129
152
117
132
142
107
122
133
98
113
135
100
115
197
162
177
129
94
109
153
118
133
135
100
115
161
126
141
153
118
133
151
116
131
121
86
101
129
94
109
191
156
171
148
113
128
168
133
148
148
113
128
132
97
112
199
164
179
204
169
184
146
111
126
156
121
136
147
112
127
177
142
157
148
113
128
129
94
109
127
92
107
216
181
196
185
150
165
121
86
101
155
120
135
126
91
106
168
133
148
194
159
174
151
116
131
155
120
135
147
112
127
148
113
128
155
120
135
129
94
109
128
93
108
191
156
171
188
153
168
146
111
126
121
86
101
155
120
135
122
87
102
186
151
166
151
116
131
156
121
136
155
120
135
177
142
157
174
139
154
129
94
109
123
88
103
189
154
169
190
155
170
144
109
124
149
114
129
155
120
135
149
114
129
153
118
133
132
97
112
174
139
154
152
117
132
154
119
134
137
102
117
132
97
112
127
92
107
160
125
140
142
107
122
136
101
116
128
93
108
159
124
139
175
140
155
129
94
109
147
112
127
188
153
168
155
120
135
125
90
105
136
101
116
122
87
102
194
159
174
196
161
176
166
131
146
150
115
130
129
94
109
160
125
140
148
113
128
149
114
129
125
90
105
195
160
175
149
114
129
131
96
111
128
93
108
185
150
165
200
165
180
190
155
170
135
100
115
155
120
135
151
116
131
194
159
174
152
117
132
130
95
110
164
129
144
151
116
131
175
140
155
159
124
139
157
122
137
171
136
151
184
149
164
144
109
124
150
115
130
171
136
151
146
111
126
131
96
111
136
101
116
157
122
137
121
86
101
153
118
133
135
100
115
188
153
168
148
113
128
131
96
111
204
169
184
146
111
126
154
119
134
136
101
116
155
120
135
127
92
107
189
154
169
151
116
131
143
108
123
148
113
128
157
122
137
187
152
167
175
140
155
137
102
117
148
113
128
195
160
175
119
84
99
188
153
168
176
141
156
158
123
138
155
120
135
151
116
131
178
143
158
173
138
153
176
141
156
151
116
131
144
109
124
151
116
131
154
119
134
184
149
164
128
93
108
200
165
180
152
117
132
119
84
99
154
119
134
154
119
134
155
120
135
148
113
128
131
96
111
136
101
116
156
121
136
133
98
113
160
125
140
142
107
122
123
88
103
143
108
123
112
77
92
153
118
133
148
113
128
146
111
126
140
105
120
127
92
107
123
88
103
111
76
91
196
161
176
216
181
196
151
116
131
128
93
108
130
95
110
186
151
166
200
165
180
132
97
112
193
158
173
165
130
145
171
136
151
129
94
109
200
165
180
199
164
179
127
92
107
194
159
174
156
121
136
149
114
129
175
140
155
201
166
181
156
121
136
136
101
116
148
113
128
123
88
103
144
109
124
