P3
# Created by GIMP version 2.10.36 PNM plug-in
16 16
255
104
147
34
108
151
38
94
137
24
94
137
24
111
154
41
132
175
62
90
133
20
109
152
39
103
146
33
120
163
50
90
133
20
109
152
39
91
134
21
78
121
8
114
157
44
139
182
69
111
154
41
118
161
48
119
162
49
101
144
31
109
152
39
114
157
44
119
162
49
87
130
17
92
135
22
143
186
73
85
128
15
80
123
10
188
231
118
177
220
107
107
150
37
101
144
31
109
152
39
150
193
80
111
154
41
154
197
84
84
127
14
88
131
18
114
157
44
133
176
63
133
176
63
89
132
19
111
154
41
150
193
80
109
152
39
119
162
49
84
127
14
110
153
40
95
138
25
105
148
35
79
122
9
109
152
39
108
151
38
111
154
41
101
144
31
92
135
22
94
137
24
156
199
86
88
131
18
112
155
42
94
137
24
120
163
50
112
155
42
110
153
40
80
123
10
88
131
18
150
193
80
107
150
37
127
170
57
107
150
37
91
134
21
158
201
88
163
206
93
105
148
35
115
158
45
106
149
36
136
179
66
107
150
37
88
131
18
86
129
16
175
218
105
144
187
74
80
123
10
114
157
44
85
128
15
127
170
57
153
196
83
110
153
40
114
157
44
106
149
36
107
150
37
114
157
44
88
131
18
87
130
17
150
193
80
147
190
77
105
148
35
80
123
10
114
157
44
81
124
11
145
188
75
110
153
40
115
158
45
114
157
44
136
179
66
133
176
63
88
131
18
82
125
12
148
191
78
149
192
79
103
146
33
108
151
38
114
157
44
108
151
38
112
155
42
91
134
21
133
176
63
111
154
41
113
156
43
96
139
26
91
134
21
86
129
16
119
162
49
101
144
31
95
138
25
87
130
17
118
161
48
134
177
64
88
131
18
106
149
36
147
190
77
114
157
44
84
127
14
95
138
25
81
124
11
153
196
83
155
198
85
125
168
55
109
152
39
88
131
18
119
162
49
107
150
37
108
151
38
84
127
14
154
197
84
108
151
38
90
133
20
87
130
17
144
187
74
159
202
89
149
192
79
94
137
24
114
157
44
110
153
40
153
196
83
111
154
41
89
132
19
123
166
53
110
153
40
134
177
64
118
161
48
116
159
46
130
173
60
143
186
73
103
146
33
109
152
39
130
173
60
105
148
35
90
133
20
95
138
25
116
159
46
80
123
10
112
155
42
94
137
24
147
190
77
107
150
37
90
133
20
163
206
93
105
148
35
113
156
43
95
138
25
114
157
44
86
129
16
148
191
78
110
153
40
102
145
32
107
150
37
116
159
46
146
189
76
134
177
64
96
139
26
107
150
37
154
197
84
78
121
8
147
190
77
135
178
65
117
160
47
114
157
44
110
153
40
137
180
67
132
175
62
135
178
65
110
153
40
103
146
33
110
153
40
113
156
43
143
186
73
87
130
17
159
202
89
111
154
41
78
121
8
113
156
43
113
156
43
114
157
44
107
150
37
90
133
20
95
138
25
115
158
45
92
135
22
119
162
49
101
144
31
82
125
12
102
145
32
71
114
1
112
155
42
107
150
37
105
148
35
99
142
29
86
129
16
82
125
12
70
113
0
155
198
85
175
218
105
110
153
40
87
130
17
89
132
19
145
188
75
159
202
89
91
134
21
152
195
82
124
167
54
130
173
60
88
131
18
159
202
89
158
201
88
86
129
16
153
196
83
115
158
45
108
151
38
134
177
64
160
203
90
115
158
45
95
138
25
107
150
37
82
125
12
103
146
33
