P3
# Created by GIMP version 2.10.36 PNM plug-in
16 16
255
78
142
120
82
146
124
68
132
110
68
132
110
85
149
127
106
170
148
64
128
106
83
147
125
77
141
119
94
158
136
64
128
106
83
147
125
65
129
107
52
116
94
88
152
130
113
177
155
85
149
127
92
156
134
93
157
135
75
139
117
83
147
125
88
152
130
93
157
135
61
125
103
66
130
108
117
181
159
59
123
101
54
118
96
162
226
204
151
215
193
81
145
123
75
139
117
83
147
125
124
188
166
85
149
127
128
192
170
58
122
100
62
126
104
88
152
130
107
171
149
107
171
149
63
127
105
85
149
127
124
188
166
83
147
125
93
157
135
58
122
100
84
148
126
69
133
111
79
143
121
53
117
95
83
147
125
82
146
124
85
149
127
75
139
117
66
130
108
68
132
110
130
194
172
62
126
104
86
150
128
68
132
110
94
158
136
86
150
128
84
148
126
54
118
96
62
126
104
124
188
166
81
145
123
101
165
143
81
145
123
65
129
107
132
196
174
137
201
179
79
143
121
89
153
131
80
144
122
110
174
152
81
145
123
62
126
104
60
124
102
149
213
191
118
182
160
54
118
96
88
152
130
59
123
101
101
165
143
127
191
169
84
148
126
88
152
130
80
144
122
81
145
123
88
152
130
62
126
104
61
125
103
124
188
166
121
185
163
79
143
121
54
118
96
88
152
130
55
119
97
119
183
161
84
148
126
89
153
131
88
152
130
110
174
152
107
171
149
62
126
104
56
120
98
122
186
164
123
187
165
77
141
119
82
146
124
88
152
130
82
146
124
86
150
128
65
129
107
107
171
149
85
149
127
87
151
129
70
134
112
65
129
107
60
124
102
93
157
135
75
139
117
69
133
111
61
125
103
92
156
134
108
172
150
62
126
104
80
144
122
121
185
163
88
152
130
58
122
100
69
133
111
55
119
97
127
191
169
129
193
171
99
163
141
83
147
125
62
126
104
93
157
135
81
145
123
82
146
124
58
122
100
128
192
170
82
146
124
64
128
106
61
125
103
118
182
160
133
197
175
123
187
165
68
132
110
88
152
130
84
148
126
127
191
169
85
149
127
63
127
105
97
161
139
84
148
126
108
172
150
92
156
134
90
154
132
104
168
146
117
181
159
77
141
119
83
147
125
104
168
146
79
143
121
64
128
106
69
133
111
90
154
132
54
118
96
86
150
128
68
132
110
121
185
163
81
145
123
64
128
106
137
201
179
79
143
121
87
151
129
69
133
111
88
152
130
60
124
102
122
186
164
84
148
126
76
140
118
81
145
123
90
154
132
120
184
162
108
172
150
70
134
112
81
145
123
128
192
170
52
116
94
121
185
163
109
173
151
91
155
133
88
152
130
84
148
126
111
175
153
106
170
148
109
173
151
84
148
126
77
141
119
84
148
126
87
151
129
117
181
159
61
125
103
133
197
175
85
149
127
52
116
94
87
151
129
87
151
129
88
152
130
81
145
123
64
128
106
69
133
111
89
153
131
66
130
108
93
157
135
75
139
117
56
120
98
76
140
118
45
109
87
86
150
128
81
145
123
79
143
121
73
137
115
60
124
102
56
120
98
44
108
86
129
193
171
149
213
191
84
148
126
61
125
103
63
127
105
119
183
161
133
197
175
65
129
107
126
190
168
98
162
140
104
168
146
62
126
104
133
197
175
132
196
174
60
124
102
127
191
169
89
153
131
82
146
124
108
172
150
134
198
176
89
153
131
69
133
111
81
145
123
56
120
98
77
141
119
