P3
# Created by GIMP version 2.10.36 PNM plug-in
16 16
255
156
130
105
160
134
109
146
120
95
146
120
95
163
137
112
184
158
133
142
116
91
161
135
110
155
129
104
172
146
121
142
116
91
161
135
110
143
117
92
130
104
79
166
140
115
191
165
140
163
137
112
170
144
119
171
145
120
153
127
102
161
135
110
166
140
115
171
145
120
139
113
88
144
118
93
195
169
144
137
111
86
132
106
81
240
214
189
229
203
178
159
133
108
153
127
102
161
135
110
202
176
151
163
137
112
206
180
155
136
110
85
140
114
89
166
140
115
185
159
134
185
159
134
141
115
90
163
137
112
202
176
151
161
135
110
171
145
120
136
110
85
162
136
111
147
121
96
157
131
106
131
105
80
161
135
110
160
134
109
163
137
112
153
127
102
144
118
93
146
120
95
208
182
157
140
114
89
164
138
113
146
120
95
172
146
121
164
138
113
162
136
111
132
106
81
140
114
89
202
176
151
159
133
108
179
153
128
159
133
108
143
117
92
210
184
159
215
189
164
157
131
106
167
141
116
158
132
107
188
162
137
159
133
108
140
114
89
138
112
87
227
201
176
196
170
145
132
106
81
166
140
115
137
111
86
179
153
128
205
179
154
162
136
111
166
140
115
158
132
107
159
133
108
166
140
115
140
114
89
139
113
88
202
176
151
199
173
148
157
131
106
132
106
81
166
140
115
133
107
82
197
171
146
162
136
111
167
141
116
166
140
115
188
162
137
185
159
134
140
114
89
134
108
83
200
174
149
201
175
150
155
129
104
160
134
109
166
140
115
160
134
109
164
138
113
143
117
92
185
159
134
163
137
112
165
139
114
148
122
97
143
117
92
138
112
87
171
145
120
153
127
102
147
121
96
139
113
88
170
144
119
186
160
135
140
114
89
158
132
107
199
173
148
166
140
115
136
110
85
147
121
96
133
107
82
205
179
154
207
181
156
177
151
126
161
135
110
140
114
89
171
145
120
159
133
108
160
134
109
136
110
85
206
180
155
160
134
109
142
116
91
139
113
88
196
170
145
211
185
160
201
175
150
146
120
95
166
140
115
162
136
111
205
179
154
163
137
112
141
115
90
175
149
124
162
136
111
186
160
135
170
144
119
168
142
117
182
156
131
195
169
144
155
129
104
161
135
110
182
156
131
157
131
106
142
116
91
147
121
96
168
142
117
132
106
81
164
138
113
146
120
95
199
173
148
159
133
108
142
116
91
215
189
164
157
131
106
165
139
114
147
121
96
166
140
115
138
112
87
200
174
149
162
136
111
154
128
103
159
133
108
168
142
117
198
172
147
186
160
135
148
122
97
159
133
108
206
180
155
130
104
79
199
173
148
187
161
136
169
143
118
166
140
115
162
136
111
189
163
138
184
158
133
187
161
136
162
136
111
155
129
104
162
136
111
165
139
114
195
169
144
139
113
88
211
185
160
163
137
112
130
104
79
165
139
114
165
139
114
166
140
115
159
133
108
142
116
91
147
121
96
167
141
116
144
118
93
171
145
120
153
127
102
134
108
83
154
128
103
123
97
72
164
138
113
159
133
108
157
131
106
151
125
100
138
112
87
134
108
83
122
96
71
207
181
156
227
201
176
162
136
111
139
113
88
141
115
90
197
171
146
211
185
160
143
117
92
204
178
153
176
150
125
182
156
131
140
114
89
211
185
160
210
184
159
138
112
87
205
179
154
167
141
116
160
134
109
186
160
135
212
186
161
167
141
116
147
121
96
159
133
108
134
108
83
155
129
104
