P3
# Created by GIMP version 2.10.36 PNM plug-in
16 16
255
157
152
44
161
156
48
147
142
34
147
142
34
164
159
51
185
180
72
143
138
30
162
157
49
156
151
43
173
168
60
143
138
30
162
157
49
144
139
31
131
126
18
167
162
54
192
187
79
164
159
51
171
166
58
172
167
59
154
149
41
162
157
49
167
162
54
172
167
59
140
135
27
145
140
32
196
191
83
138
133
25
133
128
20
241
236
128
230
225
117
160
155
47
154
149
41
162
157
49
203
198
90
164
159
51
207
202
94
137
132
24
141
136
28
167
162
54
186
181
73
186
181
73
142
137
29
164
159
51
203
198
90
162
157
49
172
167
59
137
132
24
163
158
50
148
143
35
158
153
45
132
127
19
162
157
49
161
156
48
164
159
51
154
149
41
145
140
32
147
142
34
209
204
96
141
136
28
165
160
52
147
142
34
173
168
60
165
160
52
163
158
50
133
128
20
141
136
28
203
198
90
160
155
47
180
175
67
160
155
47
144
139
31
211
206
98
216
211
103
158
153
45
168
163
55
159
154
46
189
184
76
160
155
47
141
136
28
139
134
26
228
223
115
197
192
84
133
128
20
167
162
54
138
133
25
180
175
67
206
201
93
163
158
50
167
162
54
159
154
46
160
155
47
167
162
54
141
136
28
140
135
27
203
198
90
200
195
87
158
153
45
133
128
20
167
162
54
134
129
21
198
193
85
163
158
50
168
163
55
167
162
54
189
184
76
186
181
73
141
136
28
135
130
22
201
196
88
202
197
89
156
151
43
161
156
48
167
162
54
161
156
48
165
160
52
144
139
31
186
181
73
164
159
51
166
161
53
149
144
36
144
139
31
139
134
26
172
167
59
154
149
41
148
143
35
140
135
27
171
166
58
187
182
74
141
136
28
159
154
46
200
195
87
167
162
54
137
132
24
148
143
35
134
129
21
206
201
93
208
203
95
178
173
65
162
157
49
141
136
28
172
167
59
160
155
47
161
156
48
137
132
24
207
202
94
161
156
48
143
138
30
140
135
27
197
192
84
212
207
99
202
197
89
147
142
34
167
162
54
163
158
50
206
201
93
164
159
51
142
137
29
176
171
63
163
158
50
187
182
74
171
166
58
169
164
56
183
178
70
196
191
83
156
151
43
162
157
49
183
178
70
158
153
45
143
138
30
148
143
35
169
164
56
133
128
20
165
160
52
147
142
34
200
195
87
160
155
47
143
138
30
216
211
103
158
153
45
166
161
53
148
143
35
167
162
54
139
134
26
201
196
88
163
158
50
155
150
42
160
155
47
169
164
56
199
194
86
187
182
74
149
144
36
160
155
47
207
202
94
131
126
18
200
195
87
188
183
75
170
165
57
167
162
54
163
158
50
190
185
77
185
180
72
188
183
75
163
158
50
156
151
43
163
158
50
166
161
53
196
191
83
140
135
27
212
207
99
164
159
51
131
126
18
166
161
53
166
161
53
167
162
54
160
155
47
143
138
30
148
143
35
168
163
55
145
140
32
172
167
59
154
149
41
135
130
22
155
150
42
124
119
11
165
160
52
160
155
47
158
153
45
152
147
39
139
134
26
135
130
22
123
118
10
208
203
95
228
223
115
163
158
50
140
135
27
142
137
29
198
193
85
212
207
99
144
139
31
205
200
92
177
172
64
183
178
70
141
136
28
212
207
99
211
206
98
139
134
26
206
201
93
168
163
55
161
156
48
187
182
74
213
208
100
168
163
55
148
143
35
160
155
47
135
130
22
156
151
43
