P3
# Created by GIMP version 2.10.36 PNM plug-in
16 16
255
107
80
102
111
84
106
97
70
92
97
70
92
114
87
109
135
108
130
93
66
88
112
85
107
106
79
101
123
96
118
93
66
88
112
85
107
94
67
89
81
54
76
117
90
112
142
115
137
114
87
109
121
94
116
122
95
117
104
77
99
112
85
107
117
90
112
122
95
117
90
63
85
95
68
90
146
119
141
88
61
83
83
56
78
191
164
186
180
153
175
110
83
105
104
77
99
112
85
107
153
126
148
114
87
109
157
130
152
87
60
82
91
64
86
117
90
112
136
109
131
136
109
131
92
65
87
114
87
109
153
126
148
112
85
107
122
95
117
87
60
82
113
86
108
98
71
93
108
81
103
82
55
77
112
85
107
111
84
106
114
87
109
104
77
99
95
68
90
97
70
92
159
132
154
91
64
86
115
88
110
97
70
92
123
96
118
115
88
110
113
86
108
83
56
78
91
64
86
153
126
148
110
83
105
130
103
125
110
83
105
94
67
89
161
134
156
166
139
161
108
81
103
118
91
113
109
82
104
139
112
134
110
83
105
91
64
86
89
62
84
178
151
173
147
120
142
83
56
78
117
90
112
88
61
83
130
103
125
156
129
151
113
86
108
117
90
112
109
82
104
110
83
105
117
90
112
91
64
86
90
63
85
153
126
148
150
123
145
108
81
103
83
56
78
117
90
112
84
57
79
148
121
143
113
86
108
118
91
113
117
90
112
139
112
134
136
109
131
91
64
86
85
58
80
151
124
146
152
125
147
106
79
101
111
84
106
117
90
112
111
84
106
115
88
110
94
67
89
136
109
131
114
87
109
116
89
111
99
72
94
94
67
89
89
62
84
122
95
117
104
77
99
98
71
93
90
63
85
121
94
116
137
110
132
91
64
86
109
82
104
150
123
145
117
90
112
87
60
82
98
71
93
84
57
79
156
129
151
158
131
153
128
101
123
112
85
107
91
64
86
122
95
117
110
83
105
111
84
106
87
60
82
157
130
152
111
84
106
93
66
88
90
63
85
147
120
142
162
135
157
152
125
147
97
70
92
117
90
112
113
86
108
156
129
151
114
87
109
92
65
87
126
99
121
113
86
108
137
110
132
121
94
116
119
92
114
133
106
128
146
119
141
106
79
101
112
85
107
133
106
128
108
81
103
93
66
88
98
71
93
119
92
114
83
56
78
115
88
110
97
70
92
150
123
145
110
83
105
93
66
88
166
139
161
108
81
103
116
89
111
98
71
93
117
90
112
89
62
84
151
124
146
113
86
108
105
78
100
110
83
105
119
92
114
149
122
144
137
110
132
99
72
94
110
83
105
157
130
152
81
54
76
150
123
145
138
111
133
120
93
115
117
90
112
113
86
108
140
113
135
135
108
130
138
111
133
113
86
108
106
79
101
113
86
108
116
89
111
146
119
141
90
63
85
162
135
157
114
87
109
81
54
76
116
89
111
116
89
111
117
90
112
110
83
105
93
66
88
98
71
93
118
91
113
95
68
90
122
95
117
104
77
99
85
58
80
105
78
100
74
47
69
115
88
110
110
83
105
108
81
103
102
75
97
89
62
84
85
58
80
73
46
68
158
131
153
178
151
173
113
86
108
90
63
85
92
65
87
148
121
143
162
135
157
94
67
89
155
128
150
127
100
122
133
106
128
91
64
86
162
135
157
161
134
156
89
62
84
156
129
151
118
91
113
111
84
106
137
110
132
163
136
158
118
91
113
98
71
93
110
83
105
85
58
80
106
79
101
