P3
# Created by GIMP version 2.10.36 PNM plug-in
16 16
255
158
122
34
162
126
38
148
112
24
148
112
24
165
129
41
186
150
62
144
108
20
163
127
39
157
121
33
174
138
50
144
108
20
163
127
39
145
109
21
132
96
8
168
132
44
193
157
69
165
129
41
172
136
48
173
137
49
155
119
31
163
127
39
168
132
44
173
137
49
141
105
17
146
110
22
197
161
73
139
103
15
134
98
10
242
206
118
231
195
107
161
125
37
155
119
31
163
127
39
204
168
80
165
129
41
208
172
84
138
102
14
142
106
18
168
132
44
187
151
63
187
151
63
143
107
19
165
129
41
204
168
80
163
127
39
173
137
49
138
102
14
164
128
40
149
113
25
159
123
35
133
97
9
163
127
39
162
126
38
165
129
41
155
119
31
146
110
22
148
112
24
210
174
86
142
106
18
166
130
42
148
112
24
174
138
50
166
130
42
164
128
40
134
98
10
142
106
18
204
168
80
161
125
37
181
145
57
161
125
37
145
109
21
212
176
88
217
181
93
159
123
35
169
133
45
160
124
36
190
154
66
161
125
37
142
106
18
140
104
16
229
193
105
198
162
74
134
98
10
168
132
44
139
103
15
181
145
57
207
171
83
164
128
40
168
132
44
160
124
36
161
125
37
168
132
44
142
106
18
141
105
17
204
168
80
201
165
77
159
123
35
134
98
10
168
132
44
135
99
11
199
163
75
164
128
40
169
133
45
168
132
44
190
154
66
187
151
63
142
106
18
136
100
12
202
166
78
203
167
79
157
121
33
162
126
38
168
132
44
162
126
38
166
130
42
145
109
21
187
151
63
165
129
41
167
131
43
150
114
26
145
109
21
140
104
16
173
137
49
155
119
31
149
113
25
141
105
17
172
136
48
188
152
64
142
106
18
160
124
36
201
165
77
168
132
44
138
102
14
149
113
25
135
99
11
207
171
83
209
173
85
179
143
55
163
127
39
142
106
18
173
137
49
161
125
37
162
126
38
138
102
14
208
172
84
162
126
38
144
108
20
141
105
17
198
162
74
213
177
89
203
167
79
148
112
24
168
132
44
164
128
40
207
171
83
165
129
41
143
107
19
177
141
53
164
128
40
188
152
64
172
136
48
170
134
46
184
148
60
197
161
73
157
121
33
163
127
39
184
148
60
159
123
35
144
108
20
149
113
25
170
134
46
134
98
10
166
130
42
148
112
24
201
165
77
161
125
37
144
108
20
217
181
93
159
123
35
167
131
43
149
113
25
168
132
44
140
104
16
202
166
78
164
128
40
156
120
32
161
125
37
170
134
46
200
164
76
188
152
64
150
114
26
161
125
37
208
172
84
132
96
8
201
165
77
189
153
65
171
135
47
168
132
44
164
128
40
191
155
67
186
150
62
189
153
65
164
128
40
157
121
33
164
128
40
167
131
43
197
161
73
141
105
17
213
177
89
165
129
41
132
96
8
167
131
43
167
131
43
168
132
44
161
125
37
144
108
20
149
113
25
169
133
45
146
110
22
173
137
49
155
119
31
136
100
12
156
120
32
125
89
1
166
130
42
161
125
37
159
123
35
153
117
29
140
104
16
136
100
12
124
88
0
209
173
85
229
193
105
164
128
40
141
105
17
143
107
19
199
163
75
213
177
89
145
109
21
206
170
82
178
142
54
184
148
60
142
106
18
213
177
89
212
176
88
140
104
16
207
171
83
169
133
45
162
126
38
188
152
64
214
178
90
169
133
45
149
113
25
161
125
37
136
100
12
157
121
33
