P3
# Created by GIMP version 2.10.36 PNM plug-in
16 16
255
119
130
88
123
134
92
109
120
78
109
120
78
126
137
95
147
158
116
105
116
74
124
135
93
118
129
87
135
146
104
105
116
74
124
135
93
106
117
75
93
104
62
129
140
98
154
165
123
126
137
95
133
144
102
134
145
103
116
127
85
124
135
93
129
140
98
134
145
103
102
113
71
107
118
76
158
169
127
100
111
69
95
106
64
203
214
172
192
203
161
122
133
91
116
127
85
124
135
93
165
176
134
126
137
95
169
180
138
99
110
68
103
114
72
129
140
98
148
159
117
148
159
117
104
115
73
126
137
95
165
176
134
124
135
93
134
145
103
99
110
68
125
136
94
110
121
79
120
131
89
94
105
63
124
135
93
123
134
92
126
137
95
116
127
85
107
118
76
109
120
78
171
182
140
103
114
72
127
138
96
109
120
78
135
146
104
127
138
96
125
136
94
95
106
64
103
114
72
165
176
134
122
133
91
142
153
111
122
133
91
106
117
75
173
184
142
178
189
147
120
131
89
130
141
99
121
132
90
151
162
120
122
133
91
103
114
72
101
112
70
190
201
159
159
170
128
95
106
64
129
140
98
100
111
69
142
153
111
168
179
137
125
136
94
129
140
98
121
132
90
122
133
91
129
140
98
103
114
72
102
113
71
165
176
134
162
173
131
120
131
89
95
106
64
129
140
98
96
107
65
160
171
129
125
136
94
130
141
99
129
140
98
151
162
120
148
159
117
103
114
72
97
108
66
163
174
132
164
175
133
118
129
87
123
134
92
129
140
98
123
134
92
127
138
96
106
117
75
148
159
117
126
137
95
128
139
97
111
122
80
106
117
75
101
112
70
134
145
103
116
127
85
110
121
79
102
113
71
133
144
102
149
160
118
103
114
72
121
132
90
162
173
131
129
140
98
99
110
68
110
121
79
96
107
65
168
179
137
170
181
139
140
151
109
124
135
93
103
114
72
134
145
103
122
133
91
123
134
92
99
110
68
169
180
138
123
134
92
105
116
74
102
113
71
159
170
128
174
185
143
164
175
133
109
120
78
129
140
98
125
136
94
168
179
137
126
137
95
104
115
73
138
149
107
125
136
94
149
160
118
133
144
102
131
142
100
145
156
114
158
169
127
118
129
87
124
135
93
145
156
114
120
131
89
105
116
74
110
121
79
131
142
100
95
106
64
127
138
96
109
120
78
162
173
131
122
133
91
105
116
74
178
189
147
120
131
89
128
139
97
110
121
79
129
140
98
101
112
70
163
174
132
125
136
94
117
128
86
122
133
91
131
142
100
161
172
130
149
160
118
111
122
80
122
133
91
169
180
138
93
104
62
162
173
131
150
161
119
132
143
101
129
140
98
125
136
94
152
163
121
147
158
116
150
161
119
125
136
94
118
129
87
125
136
94
128
139
97
158
169
127
102
113
71
174
185
143
126
137
95
93
104
62
128
139
97
128
139
97
129
140
98
122
133
91
105
116
74
110
121
79
130
141
99
107
118
76
134
145
103
116
127
85
97
108
66
117
128
86
86
97
55
127
138
96
122
133
91
120
131
89
114
125
83
101
112
70
97
108
66
85
96
54
170
181
139
190
201
159
125
136
94
102
113
71
104
115
73
160
171
129
174
185
143
106
117
75
167
178
136
139
150
108
145
156
114
103
114
72
174
185
143
173
184
142
101
112
70
168
179
137
130
141
99
123
134
92
149
160
118
175
186
144
130
141
99
110
121
79
122
133
91
97
108
66
118
129
87
