P3
# Created by GIMP version 2.10.36 PNM plug-in
16 16
255
126
79
39
130
83
43
116
69
29
116
69
29
133
86
46
154
107
67
112
65
25
131
84
44
125
78
38
142
95
55
112
65
25
131
84
44
113
66
26
100
53
13
136
89
49
161
114
74
133
86
46
140
93
53
141
94
54
123
76
36
131
84
44
136
89
49
141
94
54
109
62
22
114
67
27
165
118
78
107
60
20
102
55
15
210
163
123
199
152
112
129
82
42
123
76
36
131
84
44
172
125
85
133
86
46
176
129
89
106
59
19
110
63
23
136
89
49
155
108
68
155
108
68
111
64
24
133
86
46
172
125
85
131
84
44
141
94
54
106
59
19
132
85
45
117
70
30
127
80
40
101
54
14
131
84
44
130
83
43
133
86
46
123
76
36
114
67
27
116
69
29
178
131
91
110
63
23
134
87
47
116
69
29
142
95
55
134
87
47
132
85
45
102
55
15
110
63
23
172
125
85
129
82
42
149
102
62
129
82
42
113
66
26
180
133
93
185
138
98
127
80
40
137
90
50
128
81
41
158
111
71
129
82
42
110
63
23
108
61
21
197
150
110
166
119
79
102
55
15
136
89
49
107
60
20
149
102
62
175
128
88
132
85
45
136
89
49
128
81
41
129
82
42
136
89
49
110
63
23
109
62
22
172
125
85
169
122
82
127
80
40
102
55
15
136
89
49
103
56
16
167
120
80
132
85
45
137
90
50
136
89
49
158
111
71
155
108
68
110
63
23
104
57
17
170
123
83
171
124
84
125
78
38
130
83
43
136
89
49
130
83
43
134
87
47
113
66
26
155
108
68
133
86
46
135
88
48
118
71
31
113
66
26
108
61
21
141
94
54
123
76
36
117
70
30
109
62
22
140
93
53
156
109
69
110
63
23
128
81
41
169
122
82
136
89
49
106
59
19
117
70
30
103
56
16
175
128
88
177
130
90
147
100
60
131
84
44
110
63
23
141
94
54
129
82
42
130
83
43
106
59
19
176
129
89
130
83
43
112
65
25
109
62
22
166
119
79
181
134
94
171
124
84
116
69
29
136
89
49
132
85
45
175
128
88
133
86
46
111
64
24
145
98
58
132
85
45
156
109
69
140
93
53
138
91
51
152
105
65
165
118
78
125
78
38
131
84
44
152
105
65
127
80
40
112
65
25
117
70
30
138
91
51
102
55
15
134
87
47
116
69
29
169
122
82
129
82
42
112
65
25
185
138
98
127
80
40
135
88
48
117
70
30
136
89
49
108
61
21
170
123
83
132
85
45
124
77
37
129
82
42
138
91
51
168
121
81
156
109
69
118
71
31
129
82
42
176
129
89
100
53
13
169
122
82
157
110
70
139
92
52
136
89
49
132
85
45
159
112
72
154
107
67
157
110
70
132
85
45
125
78
38
132
85
45
135
88
48
165
118
78
109
62
22
181
134
94
133
86
46
100
53
13
135
88
48
135
88
48
136
89
49
129
82
42
112
65
25
117
70
30
137
90
50
114
67
27
141
94
54
123
76
36
104
57
17
124
77
37
93
46
6
134
87
47
129
82
42
127
80
40
121
74
34
108
61
21
104
57
17
92
45
5
177
130
90
197
150
110
132
85
45
109
62
22
111
64
24
167
120
80
181
134
94
113
66
26
174
127
87
146
99
59
152
105
65
110
63
23
181
134
94
180
133
93
108
61
21
175
128
88
137
90
50
130
83
43
156
109
69
182
135
95
137
90
50
117
70
30
129
82
42
104
57
17
125
78
38
