P3
# Created by GIMP version 2.10.36 PNM plug-in
16 16
255
90
112
35
94
116
39
80
102
25
80
102
25
97
119
42
118
140
63
76
98
21
95
117
40
89
111
34
106
128
51
76
98
21
95
117
40
77
99
22
64
86
9
100
122
45
125
147
70
97
119
42
104
126
49
105
127
50
87
109
32
95
117
40
100
122
45
105
127
50
73
95
18
78
100
23
129
151
74
71
93
16
66
88
11
174
196
119
163
185
108
93
115
38
87
109
32
95
117
40
136
158
81
97
119
42
140
162
85
70
92
15
74
96
19
100
122
45
119
141
64
119
141
64
75
97
20
97
119
42
136
158
81
95
117
40
105
127
50
70
92
15
96
118
41
81
103
26
91
113
36
65
87
10
95
117
40
94
116
39
97
119
42
87
109
32
78
100
23
80
102
25
142
164
87
74
96
19
98
120
43
80
102
25
106
128
51
98
120
43
96
118
41
66
88
11
74
96
19
136
158
81
93
115
38
113
135
58
93
115
38
77
99
22
144
166
89
149
171
94
91
113
36
101
123
46
92
114
37
122
144
67
93
115
38
74
96
19
72
94
17
161
183
106
130
152
75
66
88
11
100
122
45
71
93
16
113
135
58
139
161
84
96
118
41
100
122
45
92
114
37
93
115
38
100
122
45
74
96
19
73
95
18
136
158
81
133
155
78
91
113
36
66
88
11
100
122
45
67
89
12
131
153
76
96
118
41
101
123
46
100
122
45
122
144
67
119
141
64
74
96
19
68
90
13
134
156
79
135
157
80
89
111
34
94
116
39
100
122
45
94
116
39
98
120
43
77
99
22
119
141
64
97
119
42
99
121
44
82
104
27
77
99
22
72
94
17
105
127
50
87
109
32
81
103
26
73
95
18
104
126
49
120
142
65
74
96
19
92
114
37
133
155
78
100
122
45
70
92
15
81
103
26
67
89
12
139
161
84
141
163
86
111
133
56
95
117
40
74
96
19
105
127
50
93
115
38
94
116
39
70
92
15
140
162
85
94
116
39
76
98
21
73
95
18
130
152
75
145
167
90
135
157
80
80
102
25
100
122
45
96
118
41
139
161
84
97
119
42
75
97
20
109
131
54
96
118
41
120
142
65
104
126
49
102
124
47
116
138
61
129
151
74
89
111
34
95
117
40
116
138
61
91
113
36
76
98
21
81
103
26
102
124
47
66
88
11
98
120
43
80
102
25
133
155
78
93
115
38
76
98
21
149
171
94
91
113
36
99
121
44
81
103
26
100
122
45
72
94
17
134
156
79
96
118
41
88
110
33
93
115
38
102
124
47
132
154
77
120
142
65
82
104
27
93
115
38
140
162
85
64
86
9
133
155
78
121
143
66
103
125
48
100
122
45
96
118
41
123
145
68
118
140
63
121
143
66
96
118
41
89
111
34
96
118
41
99
121
44
129
151
74
73
95
18
145
167
90
97
119
42
64
86
9
99
121
44
99
121
44
100
122
45
93
115
38
76
98
21
81
103
26
101
123
46
78
100
23
105
127
50
87
109
32
68
90
13
88
110
33
57
79
2
98
120
43
93
115
38
91
113
36
85
107
30
72
94
17
68
90
13
56
78
1
141
163
86
161
183
106
96
118
41
73
95
18
75
97
20
131
153
76
145
167
90
77
99
22
138
160
83
110
132
55
116
138
61
74
96
19
145
167
90
144
166
89
72
94
17
139
161
84
101
123
46
94
116
39
120
142
65
146
168
91
101
123
46
81
103
26
93
115
38
68
90
13
89
111
34
