P3
# Created by GIMP version 2.10.36 PNM plug-in
16 16
255
137
94
106
141
98
110
127
84
96
127
84
96
144
101
113
165
122
134
123
80
92
142
99
111
136
93
105
153
110
122
123
80
92
142
99
111
124
81
93
111
68
80
147
104
116
172
129
141
144
101
113
151
108
120
152
109
121
134
91
103
142
99
111
147
104
116
152
109
121
120
77
89
125
82
94
176
133
145
118
75
87
113
70
82
221
178
190
210
167
179
140
97
109
134
91
103
142
99
111
183
140
152
144
101
113
187
144
156
117
74
86
121
78
90
147
104
116
166
123
135
166
123
135
122
79
91
144
101
113
183
140
152
142
99
111
152
109
121
117
74
86
143
100
112
128
85
97
138
95
107
112
69
81
142
99
111
141
98
110
144
101
113
134
91
103
125
82
94
127
84
96
189
146
158
121
78
90
145
102
114
127
84
96
153
110
122
145
102
114
143
100
112
113
70
82
121
78
90
183
140
152
140
97
109
160
117
129
140
97
109
124
81
93
191
148
160
196
153
165
138
95
107
148
105
117
139
96
108
169
126
138
140
97
109
121
78
90
119
76
88
208
165
177
177
134
146
113
70
82
147
104
116
118
75
87
160
117
129
186
143
155
143
100
112
147
104
116
139
96
108
140
97
109
147
104
116
121
78
90
120
77
89
183
140
152
180
137
149
138
95
107
113
70
82
147
104
116
114
71
83
178
135
147
143
100
112
148
105
117
147
104
116
169
126
138
166
123
135
121
78
90
115
72
84
181
138
150
182
139
151
136
93
105
141
98
110
147
104
116
141
98
110
145
102
114
124
81
93
166
123
135
144
101
113
146
103
115
129
86
98
124
81
93
119
76
88
152
109
121
134
91
103
128
85
97
120
77
89
151
108
120
167
124
136
121
78
90
139
96
108
180
137
149
147
104
116
117
74
86
128
85
97
114
71
83
186
143
155
188
145
157
158
115
127
142
99
111
121
78
90
152
109
121
140
97
109
141
98
110
117
74
86
187
144
156
141
98
110
123
80
92
120
77
89
177
134
146
192
149
161
182
139
151
127
84
96
147
104
116
143
100
112
186
143
155
144
101
113
122
79
91
156
113
125
143
100
112
167
124
136
151
108
120
149
106
118
163
120
132
176
133
145
136
93
105
142
99
111
163
120
132
138
95
107
123
80
92
128
85
97
149
106
118
113
70
82
145
102
114
127
84
96
180
137
149
140
97
109
123
80
92
196
153
165
138
95
107
146
103
115
128
85
97
147
104
116
119
76
88
181
138
150
143
100
112
135
92
104
140
97
109
149
106
118
179
136
148
167
124
136
129
86
98
140
97
109
187
144
156
111
68
80
180
137
149
168
125
137
150
107
119
147
104
116
143
100
112
170
127
139
165
122
134
168
125
137
143
100
112
136
93
105
143
100
112
146
103
115
176
133
145
120
77
89
192
149
161
144
101
113
111
68
80
146
103
115
146
103
115
147
104
116
140
97
109
123
80
92
128
85
97
148
105
117
125
82
94
152
109
121
134
91
103
115
72
84
135
92
104
104
61
73
145
102
114
140
97
109
138
95
107
132
89
101
119
76
88
115
72
84
103
60
72
188
145
157
208
165
177
143
100
112
120
77
89
122
79
91
178
135
147
192
149
161
124
81
93
185
142
154
157
114
126
163
120
132
121
78
90
192
149
161
191
148
160
119
76
88
186
143
155
148
105
117
141
98
110
167
124
136
193
150
162
148
105
117
128
85
97
140
97
109
115
72
84
136
93
105
