P3
# Created by GIMP version 2.10.36 PNM plug-in
16 16
255
100
154
171
104
158
175
90
144
161
90
144
161
107
161
178
128
182
199
86
140
157
105
159
176
99
153
170
116
170
187
86
140
157
105
159
176
87
141
158
74
128
145
110
164
181
135
189
206
107
161
178
114
168
185
115
169
186
97
151
168
105
159
176
110
164
181
115
169
186
83
137
154
88
142
159
139
193
210
81
135
152
76
130
147
184
238
255
173
227
244
103
157
174
97
151
168
105
159
176
146
200
217
107
161
178
150
204
221
80
134
151
84
138
155
110
164
181
129
183
200
129
183
200
85
139
156
107
161
178
146
200
217
105
159
176
115
169
186
80
134
151
106
160
177
91
145
162
101
155
172
75
129
146
105
159
176
104
158
175
107
161
178
97
151
168
88
142
159
90
144
161
152
206
223
84
138
155
108
162
179
90
144
161
116
170
187
108
162
179
106
160
177
76
130
147
84
138
155
146
200
217
103
157
174
123
177
194
103
157
174
87
141
158
154
208
225
159
213
230
101
155
172
111
165
182
102
156
173
132
186
203
103
157
174
84
138
155
82
136
153
171
225
242
140
194
211
76
130
147
110
164
181
81
135
152
123
177
194
149
203
220
106
160
177
110
164
181
102
156
173
103
157
174
110
164
181
84
138
155
83
137
154
146
200
217
143
197
255
101
155
172
76
130
147
110
164
181
77
131
148
141
195
212
106
160
177
111
165
182
110
164
181
132
186
203
129
183
200
84
138
155
78
132
149
144
198
215
145
199
216
99
153
170
104
158
175
110
164
181
104
158
175
108
162
179
87
141
158
129
183
200
107
161
178
109
163
180
92
146
163
87
141
158
82
136
153
115
169
186
97
151
168
91
145
162
83
137
154
114
168
185
130
184
201
84
138
155
102
156
173
143
197
255
110
164
181
80
134
151
91
145
162
77
131
148
149
203
220
151
205
222
121
175
192
105
159
176
84
138
155
115
169
186
103
157
174
104
158
175
80
134
151
150
204
221
104
158
175
86
140
157
83
137
154
140
194
211
155
209
226
145
199
216
90
144
161
110
164
181
106
160
177
149
203
220
107
161
178
85
139
156
119
173
190
106
160
177
130
184
201
114
168
185
112
166
183
126
180
197
139
193
210
99
153
170
105
159
176
126
180
197
101
155
172
86
140
157
91
145
162
112
166
183
76
130
147
108
162
179
90
144
161
143
197
255
103
157
174
86
140
157
159
213
230
101
155
172
109
163
180
91
145
162
110
164
181
82
136
153
144
198
215
106
160
177
98
152
169
103
157
174
112
166
183
142
196
213
130
184
201
92
146
163
103
157
174
150
204
221
74
128
145
143
197
255
131
185
202
113
167
184
110
164
181
106
160
177
133
187
204
128
182
199
131
185
202
106
160
177
99
153
170
106
160
177
109
163
180
139
193
210
83
137
154
155
209
226
107
161
178
74
128
145
109
163
180
109
163
180
110
164
181
103
157
174
86
140
157
91
145
162
111
165
182
88
142
159
115
169
186
97
151
168
78
132
149
98
152
169
67
121
138
108
162
179
103
157
174
101
155
172
95
149
166
82
136
153
78
132
149
66
120
137
151
205
222
171
225
242
106
160
177
83
137
154
85
139
156
141
195
212
155
209
226
87
141
158
148
202
219
120
174
191
126
180
197
84
138
155
155
209
226
154
208
225
82
136
153
149
203
220
111
165
182
104
158
175
130
184
201
156
210
227
111
165
182
91
145
162
103
157
174
78
132
149
99
153
170
