P3
# Created by GIMP version 2.10.36 PNM plug-in
16 16
255
114
109
124
118
113
128
104
99
114
104
99
114
121
116
131
142
137
152
100
95
110
119
114
129
113
108
123
130
125
140
100
95
110
119
114
129
101
96
111
88
83
98
124
119
134
149
144
159
121
116
131
128
123
138
129
124
139
111
106
121
119
114
129
124
119
134
129
124
139
97
92
107
102
97
112
153
148
163
95
90
105
90
85
100
198
193
208
187
182
197
117
112
127
111
106
121
119
114
129
160
155
170
121
116
131
164
159
174
94
89
104
98
93
108
124
119
134
143
138
153
143
138
153
99
94
109
121
116
131
160
155
170
119
114
129
129
124
139
94
89
104
120
115
130
105
100
115
115
110
125
89
84
99
119
114
129
118
113
128
121
116
131
111
106
121
102
97
112
104
99
114
166
161
176
98
93
108
122
117
132
104
99
114
130
125
140
122
117
132
120
115
130
90
85
100
98
93
108
160
155
170
117
112
127
137
132
147
117
112
127
101
96
111
168
163
178
173
168
183
115
110
125
125
120
135
116
111
126
146
141
156
117
112
127
98
93
108
96
91
106
185
180
195
154
149
164
90
85
100
124
119
134
95
90
105
137
132
147
163
158
173
120
115
130
124
119
134
116
111
126
117
112
127
124
119
134
98
93
108
97
92
107
160
155
170
157
152
167
115
110
125
90
85
100
124
119
134
91
86
101
155
150
165
120
115
130
125
120
135
124
119
134
146
141
156
143
138
153
98
93
108
92
87
102
158
153
168
159
154
169
113
108
123
118
113
128
124
119
134
118
113
128
122
117
132
101
96
111
143
138
153
121
116
131
123
118
133
106
101
116
101
96
111
96
91
106
129
124
139
111
106
121
105
100
115
97
92
107
128
123
138
144
139
154
98
93
108
116
111
126
157
152
167
124
119
134
94
89
104
105
100
115
91
86
101
163
158
173
165
160
175
135
130
145
119
114
129
98
93
108
129
124
139
117
112
127
118
113
128
94
89
104
164
159
174
118
113
128
100
95
110
97
92
107
154
149
164
169
164
179
159
154
169
104
99
114
124
119
134
120
115
130
163
158
173
121
116
131
99
94
109
133
128
143
120
115
130
144
139
154
128
123
138
126
121
136
140
135
150
153
148
163
113
108
123
119
114
129
140
135
150
115
110
125
100
95
110
105
100
115
126
121
136
90
85
100
122
117
132
104
99
114
157
152
167
117
112
127
100
95
110
173
168
183
115
110
125
123
118
133
105
100
115
124
119
134
96
91
106
158
153
168
120
115
130
112
107
122
117
112
127
126
121
136
156
151
166
144
139
154
106
101
116
117
112
127
164
159
174
88
83
98
157
152
167
145
140
155
127
122
137
124
119
134
120
115
130
147
142
157
142
137
152
145
140
155
120
115
130
113
108
123
120
115
130
123
118
133
153
148
163
97
92
107
169
164
179
121
116
131
88
83
98
123
118
133
123
118
133
124
119
134
117
112
127
100
95
110
105
100
115
125
120
135
102
97
112
129
124
139
111
106
121
92
87
102
112
107
122
81
76
91
122
117
132
117
112
127
115
110
125
109
104
119
96
91
106
92
87
102
80
75
90
165
160
175
185
180
195
120
115
130
97
92
107
99
94
109
155
150
165
169
164
179
101
96
111
162
157
172
134
129
144
140
135
150
98
93
108
169
164
179
168
163
178
96
91
106
163
158
173
125
120
135
118
113
128
144
139
154
170
165
180
125
120
135
105
100
115
117
112
127
92
87
102
113
108
123
