P3
# Created by GIMP version 2.10.36 PNM plug-in
16 16
255
79
94
171
83
98
175
69
84
161
69
84
161
86
101
178
107
122
199
65
80
157
84
99
176
78
93
170
95
110
187
65
80
157
84
99
176
66
81
158
53
68
145
89
104
181
114
129
206
86
101
178
93
108
185
94
109
186
76
91
168
84
99
176
89
104
181
94
109
186
62
77
154
67
82
159
118
133
210
60
75
152
55
70
147
163
178
255
152
167
244
82
97
174
76
91
168
84
99
176
125
140
217
86
101
178
129
144
221
59
74
151
63
78
155
89
104
181
108
123
200
108
123
200
64
79
156
86
101
178
125
140
217
84
99
176
94
109
186
59
74
151
85
100
177
70
85
162
80
95
172
54
69
146
84
99
176
83
98
175
86
101
178
76
91
168
67
82
159
69
84
161
131
146
223
63
78
155
87
102
179
69
84
161
95
110
187
87
102
179
85
100
177
55
70
147
63
78
155
125
140
217
82
97
174
102
117
194
82
97
174
66
81
158
133
148
225
138
153
230
80
95
172
90
105
182
81
96
173
111
126
203
82
97
174
63
78
155
61
76
153
150
165
242
119
134
211
55
70
147
89
104
181
60
75
152
102
117
194
128
143
220
85
100
177
89
104
181
81
96
173
82
97
174
89
104
181
63
78
155
62
77
154
125
140
217
122
137
214
80
95
172
55
70
147
89
104
181
56
71
148
120
135
212
85
100
177
90
105
182
89
104
181
111
126
203
108
123
200
63
78
155
57
72
149
123
138
215
124
139
216
78
93
170
83
98
175
89
104
181
83
98
175
87
102
179
66
81
158
108
123
200
86
101
178
88
103
180
71
86
163
66
81
158
61
76
153
94
109
186
76
91
168
70
85
162
62
77
154
93
108
185
109
124
201
63
78
155
81
96
173
122
137
214
89
104
181
59
74
151
70
85
162
56
71
148
128
143
220
130
145
222
100
115
192
84
99
176
63
78
155
94
109
186
82
97
174
83
98
175
59
74
151
129
144
221
83
98
175
65
80
157
62
77
154
119
134
211
134
149
226
124
139
216
69
84
161
89
104
181
85
100
177
128
143
220
86
101
178
64
79
156
98
113
190
85
100
177
109
124
201
93
108
185
91
106
183
105
120
197
118
133
210
78
93
170
84
99
176
105
120
197
80
95
172
65
80
157
70
85
162
91
106
183
55
70
147
87
102
179
69
84
161
122
137
214
82
97
174
65
80
157
138
153
230
80
95
172
88
103
180
70
85
162
89
104
181
61
76
153
123
138
215
85
100
177
77
92
169
82
97
174
91
106
183
121
136
213
109
124
201
71
86
163
82
97
174
129
144
221
53
68
145
122
137
214
110
125
202
92
107
184
89
104
181
85
100
177
112
127
204
107
122
199
110
125
202
85
100
177
78
93
170
85
100
177
88
103
180
118
133
210
62
77
154
134
149
226
86
101
178
53
68
145
88
103
180
88
103
180
89
104
181
82
97
174
65
80
157
70
85
162
90
105
182
67
82
159
94
109
186
76
91
168
57
72
149
77
92
169
46
61
138
87
102
179
82
97
174
80
95
172
74
89
166
61
76
153
57
72
149
45
60
137
130
145
222
150
165
242
85
100
177
62
77
154
64
79
156
120
135
212
134
149
226
66
81
158
127
142
219
99
114
191
105
120
197
63
78
155
134
149
226
133
148
225
61
76
153
128
143
220
90
105
182
83
98
175
109
124
201
135
150
227
90
105
182
70
85
162
82
97
174
57
72
149
78
93
170
