P3
# Created by GIMP version 2.10.36 PNM plug-in
16 16
255
105
158
171
109
162
175
95
148
161
95
148
161
112
165
178
133
186
199
91
144
157
110
163
176
104
157
170
121
174
187
91
144
157
110
163
176
92
145
158
79
132
145
115
168
181
140
193
206
112
165
178
119
172
185
120
173
186
102
155
168
110
163
176
115
168
181
120
173
186
88
141
154
93
146
159
144
197
210
86
139
152
81
134
147
189
242
255
178
231
244
108
161
174
102
155
168
110
163
176
151
204
217
112
165
178
155
208
221
85
138
151
89
142
155
115
168
181
134
187
200
134
187
200
90
143
156
112
165
178
151
204
217
110
163
176
120
173
186
85
138
151
111
164
177
96
149
162
106
159
172
80
133
146
110
163
176
109
162
175
112
165
178
102
155
168
93
146
159
95
148
161
157
210
223
89
142
155
113
166
179
95
148
161
121
174
187
113
166
179
111
164
177
81
134
147
89
142
155
151
204
217
108
161
174
128
181
194
108
161
174
92
145
158
159
212
225
164
217
230
106
159
172
116
169
182
107
160
173
137
190
203
108
161
174
89
142
155
87
140
153
176
229
242
145
198
211
81
134
147
115
168
181
86
139
152
128
181
194
154
207
220
111
164
177
115
168
181
107
160
173
108
161
174
115
168
181
89
142
155
88
141
154
151
204
217
148
201
214
106
159
172
81
134
147
115
168
181
82
135
148
146
199
212
111
164
177
116
169
182
115
168
181
137
190
203
134
187
200
89
142
155
83
136
149
149
202
215
150
203
216
104
157
170
109
162
175
115
168
181
109
162
175
113
166
179
92
145
158
134
187
200
112
165
178
114
167
180
97
150
163
92
145
158
87
140
153
120
173
186
102
155
168
96
149
162
88
141
154
119
172
185
135
188
201
89
142
155
107
160
173
148
201
214
115
168
181
85
138
151
96
149
162
82
135
148
154
207
220
156
209
222
126
179
192
110
163
176
89
142
155
120
173
186
108
161
174
109
162
175
85
138
151
155
208
221
109
162
175
91
144
157
88
141
154
145
198
211
160
213
226
150
203
216
95
148
161
115
168
181
111
164
177
154
207
220
112
165
178
90
143
156
124
177
190
111
164
177
135
188
201
119
172
185
117
170
183
131
184
197
144
197
210
104
157
170
110
163
176
131
184
197
106
159
172
91
144
157
96
149
162
117
170
183
81
134
147
113
166
179
95
148
161
148
201
214
108
161
174
91
144
157
164
217
230
106
159
172
114
167
180
96
149
162
115
168
181
87
140
153
149
202
215
111
164
177
103
156
169
108
161
174
117
170
183
147
200
213
135
188
201
97
150
163
108
161
174
155
208
221
79
132
145
148
201
214
136
189
202
118
171
184
115
168
181
111
164
177
138
191
204
133
186
199
136
189
202
111
164
177
104
157
170
111
164
177
114
167
180
144
197
210
88
141
154
160
213
226
112
165
178
79
132
145
114
167
180
114
167
180
115
168
181
108
161
174
91
144
157
96
149
162
116
169
182
93
146
159
120
173
186
102
155
168
83
136
149
103
156
169
72
125
138
113
166
179
108
161
174
106
159
172
100
153
166
87
140
153
83
136
149
71
124
137
156
209
222
176
229
242
111
164
177
88
141
154
90
143
156
146
199
212
160
213
226
92
145
158
153
206
219
125
178
191
131
184
197
89
142
155
160
213
226
159
212
225
87
140
153
154
207
220
116
169
182
109
162
175
135
188
201
161
214
227
116
169
182
96
149
162
108
161
174
83
136
149
104
157
170
