P3
# Created by GIMP version 2.10.36 PNM plug-in
16 16
255
133
164
86
137
168
90
123
154
76
123
154
76
140
171
93
161
192
114
119
150
72
138
169
91
132
163
85
149
180
102
119
150
72
138
169
91
120
151
73
107
138
60
143
174
96
168
199
121
140
171
93
147
178
100
148
179
101
130
161
83
138
169
91
143
174
96
148
179
101
116
147
69
121
152
74
172
203
125
114
145
67
109
140
62
217
248
170
206
237
159
136
167
89
130
161
83
138
169
91
179
210
132
140
171
93
183
214
136
113
144
66
117
148
70
143
174
96
162
193
115
162
193
115
118
149
71
140
171
93
179
210
132
138
169
91
148
179
101
113
144
66
139
170
92
124
155
77
134
165
87
108
139
61
138
169
91
137
168
90
140
171
93
130
161
83
121
152
74
123
154
76
185
216
138
117
148
70
141
172
94
123
154
76
149
180
102
141
172
94
139
170
92
109
140
62
117
148
70
179
210
132
136
167
89
156
187
109
136
167
89
120
151
73
187
218
140
192
223
145
134
165
87
144
175
97
135
166
88
165
196
118
136
167
89
117
148
70
115
146
68
204
235
157
173
204
126
109
140
62
143
174
96
114
145
67
156
187
109
182
213
135
139
170
92
143
174
96
135
166
88
136
167
89
143
174
96
117
148
70
116
147
69
179
210
132
176
207
129
134
165
87
109
140
62
143
174
96
110
141
63
174
205
127
139
170
92
144
175
97
143
174
96
165
196
118
162
193
115
117
148
70
111
142
64
177
208
130
178
209
131
132
163
85
137
168
90
143
174
96
137
168
90
141
172
94
120
151
73
162
193
115
140
171
93
142
173
95
125
156
78
120
151
73
115
146
68
148
179
101
130
161
83
124
155
77
116
147
69
147
178
100
163
194
116
117
148
70
135
166
88
176
207
129
143
174
96
113
144
66
124
155
77
110
141
63
182
213
135
184
215
137
154
185
107
138
169
91
117
148
70
148
179
101
136
167
89
137
168
90
113
144
66
183
214
136
137
168
90
119
150
72
116
147
69
173
204
126
188
219
141
178
209
131
123
154
76
143
174
96
139
170
92
182
213
135
140
171
93
118
149
71
152
183
105
139
170
92
163
194
116
147
178
100
145
176
98
159
190
112
172
203
125
132
163
85
138
169
91
159
190
112
134
165
87
119
150
72
124
155
77
145
176
98
109
140
62
141
172
94
123
154
76
176
207
129
136
167
89
119
150
72
192
223
145
134
165
87
142
173
95
124
155
77
143
174
96
115
146
68
177
208
130
139
170
92
131
162
84
136
167
89
145
176
98
175
206
128
163
194
116
125
156
78
136
167
89
183
214
136
107
138
60
176
207
129
164
195
117
146
177
99
143
174
96
139
170
92
166
197
119
161
192
114
164
195
117
139
170
92
132
163
85
139
170
92
142
173
95
172
203
125
116
147
69
188
219
141
140
171
93
107
138
60
142
173
95
142
173
95
143
174
96
136
167
89
119
150
72
124
155
77
144
175
97
121
152
74
148
179
101
130
161
83
111
142
64
131
162
84
100
131
53
141
172
94
136
167
89
134
165
87
128
159
81
115
146
68
111
142
64
99
130
52
184
215
137
204
235
157
139
170
92
116
147
69
118
149
71
174
205
127
188
219
141
120
151
73
181
212
134
153
184
106
159
190
112
117
148
70
188
219
141
187
218
140
115
146
68
182
213
135
144
175
97
137
168
90
163
194
116
189
220
142
144
175
97
124
155
77
136
167
89
111
142
64
132
163
85
