P3
# Created by GIMP version 2.10.36 PNM plug-in
16 16
255
166
112
159
170
116
163
156
102
149
156
102
149
173
119
166
194
140
187
152
98
145
171
117
164
165
111
158
182
128
175
152
98
145
171
117
164
153
99
146
140
86
133
176
122
169
201
147
194
173
119
166
180
126
173
181
127
174
163
109
156
171
117
164
176
122
169
181
127
174
149
95
142
154
100
147
205
151
198
147
93
140
142
88
135
250
196
243
239
185
232
169
115
162
163
109
156
171
117
164
212
158
205
173
119
166
216
162
209
146
92
139
150
96
143
176
122
169
195
141
188
195
141
188
151
97
144
173
119
166
212
158
205
171
117
164
181
127
174
146
92
139
172
118
165
157
103
150
167
113
160
141
87
134
171
117
164
170
116
163
173
119
166
163
109
156
154
100
147
156
102
149
218
164
211
150
96
143
174
120
167
156
102
149
182
128
175
174
120
167
172
118
165
142
88
135
150
96
143
212
158
205
169
115
162
189
135
182
169
115
162
153
99
146
220
166
213
225
171
218
167
113
160
177
123
170
168
114
161
198
144
191
169
115
162
150
96
143
148
94
141
237
183
230
206
152
199
142
88
135
176
122
169
147
93
140
189
135
182
215
161
208
172
118
165
176
122
169
168
114
161
169
115
162
176
122
169
150
96
143
149
95
142
212
158
205
209
155
202
167
113
160
142
88
135
176
122
169
143
89
136
207
153
200
172
118
165
177
123
170
176
122
169
198
144
191
195
141
188
150
96
143
144
90
137
210
156
203
211
157
204
165
111
158
170
116
163
176
122
169
170
116
163
174
120
167
153
99
146
195
141
188
173
119
166
175
121
168
158
104
151
153
99
146
148
94
141
181
127
174
163
109
156
157
103
150
149
95
142
180
126
173
196
142
189
150
96
143
168
114
161
209
155
202
176
122
169
146
92
139
157
103
150
143
89
136
215
161
208
217
163
210
187
133
180
171
117
164
150
96
143
181
127
174
169
115
162
170
116
163
146
92
139
216
162
209
170
116
163
152
98
145
149
95
142
206
152
199
221
167
214
211
157
204
156
102
149
176
122
169
172
118
165
215
161
208
173
119
166
151
97
144
185
131
178
172
118
165
196
142
189
180
126
173
178
124
171
192
138
185
205
151
198
165
111
158
171
117
164
192
138
185
167
113
160
152
98
145
157
103
150
178
124
171
142
88
135
174
120
167
156
102
149
209
155
202
169
115
162
152
98
145
225
171
218
167
113
160
175
121
168
157
103
150
176
122
169
148
94
141
210
156
203
172
118
165
164
110
157
169
115
162
178
124
171
208
154
201
196
142
189
158
104
151
169
115
162
216
162
209
140
86
133
209
155
202
197
143
190
179
125
172
176
122
169
172
118
165
199
145
192
194
140
187
197
143
190
172
118
165
165
111
158
172
118
165
175
121
168
205
151
198
149
95
142
221
167
214
173
119
166
140
86
133
175
121
168
175
121
168
176
122
169
169
115
162
152
98
145
157
103
150
177
123
170
154
100
147
181
127
174
163
109
156
144
90
137
164
110
157
133
79
126
174
120
167
169
115
162
167
113
160
161
107
154
148
94
141
144
90
137
132
78
125
217
163
210
237
183
230
172
118
165
149
95
142
151
97
144
207
153
200
221
167
214
153
99
146
214
160
207
186
132
179
192
138
185
150
96
143
221
167
214
220
166
213
148
94
141
215
161
208
177
123
170
170
116
163
196
142
189
222
168
215
177
123
170
157
103
150
169
115
162
144
90
137
165
111
158
