P3
# Created by GIMP version 2.10.36 PNM plug-in
16 16
255
86
171
113
90
175
117
76
161
103
76
161
103
93
178
120
114
199
141
72
157
99
91
176
118
85
170
112
102
187
129
72
157
99
91
176
118
73
158
100
60
145
87
96
181
123
121
206
148
93
178
120
100
185
127
101
186
128
83
168
110
91
176
118
96
181
123
101
186
128
69
154
96
74
159
101
125
210
152
67
152
94
62
147
89
170
255
197
159
244
186
89
174
116
83
168
110
91
176
118
132
217
159
93
178
120
136
221
163
66
151
93
70
155
97
96
181
123
115
200
142
115
200
142
71
156
98
93
178
120
132
217
159
91
176
118
101
186
128
66
151
93
92
177
119
77
162
104
87
172
114
61
146
88
91
176
118
90
175
117
93
178
120
83
168
110
74
159
101
76
161
103
138
223
165
70
155
97
94
179
121
76
161
103
102
187
129
94
179
121
92
177
119
62
147
89
70
155
97
132
217
159
89
174
116
109
194
136
89
174
116
73
158
100
140
225
167
145
230
172
87
172
114
97
182
124
88
173
115
118
203
145
89
174
116
70
155
97
68
153
95
157
242
184
126
211
153
62
147
89
96
181
123
67
152
94
109
194
136
135
220
162
92
177
119
96
181
123
88
173
115
89
174
116
96
181
123
70
155
97
69
154
96
132
217
159
129
214
156
87
172
114
62
147
89
96
181
123
63
148
90
127
212
154
92
177
119
97
182
124
96
181
123
118
203
145
115
200
142
70
155
97
64
149
91
130
215
157
131
216
158
85
170
112
90
175
117
96
181
123
90
175
117
94
179
121
73
158
100
115
200
142
93
178
120
95
180
122
78
163
105
73
158
100
68
153
95
101
186
128
83
168
110
77
162
104
69
154
96
100
185
127
116
201
143
70
155
97
88
173
115
129
214
156
96
181
123
66
151
93
77
162
104
63
148
90
135
220
162
137
222
164
107
192
134
91
176
118
70
155
97
101
186
128
89
174
116
90
175
117
66
151
93
136
221
163
90
175
117
72
157
99
69
154
96
126
211
153
141
226
168
131
216
158
76
161
103
96
181
123
92
177
119
135
220
162
93
178
120
71
156
98
105
190
132
92
177
119
116
201
143
100
185
127
98
183
125
112
197
139
125
210
152
85
170
112
91
176
118
112
197
139
87
172
114
72
157
99
77
162
104
98
183
125
62
147
89
94
179
121
76
161
103
129
214
156
89
174
116
72
157
99
145
230
172
87
172
114
95
180
122
77
162
104
96
181
123
68
153
95
130
215
157
92
177
119
84
169
111
89
174
116
98
183
125
128
213
155
116
201
143
78
163
105
89
174
116
136
221
163
60
145
87
129
214
156
117
202
144
99
184
126
96
181
123
92
177
119
119
204
146
114
199
141
117
202
144
92
177
119
85
170
112
92
177
119
95
180
122
125
210
152
69
154
96
141
226
168
93
178
120
60
145
87
95
180
122
95
180
122
96
181
123
89
174
116
72
157
99
77
162
104
97
182
124
74
159
101
101
186
128
83
168
110
64
149
91
84
169
111
53
138
80
94
179
121
89
174
116
87
172
114
81
166
108
68
153
95
64
149
91
52
137
79
137
222
164
157
242
184
92
177
119
69
154
96
71
156
98
127
212
154
141
226
168
73
158
100
134
219
161
106
191
133
112
197
139
70
155
97
141
226
168
140
225
167
68
153
95
135
220
162
97
182
124
90
175
117
116
201
143
142
227
169
97
182
124
77
162
104
89
174
116
64
149
91
85
170
112
