P3
# Created by GIMP version 2.10.36 PNM plug-in
16 16
255
154
97
91
158
101
95
144
87
81
144
87
81
161
104
98
182
125
119
140
83
77
159
102
96
153
96
90
170
113
107
140
83
77
159
102
96
141
84
78
128
71
65
164
107
101
189
132
126
161
104
98
168
111
105
169
112
106
151
94
88
159
102
96
164
107
101
169
112
106
137
80
74
142
85
79
193
136
130
135
78
72
130
73
67
238
181
175
227
170
164
157
100
94
151
94
88
159
102
96
200
143
137
161
104
98
204
147
141
134
77
71
138
81
75
164
107
101
183
126
120
183
126
120
139
82
76
161
104
98
200
143
137
159
102
96
169
112
106
134
77
71
160
103
97
145
88
82
155
98
92
129
72
66
159
102
96
158
101
95
161
104
98
151
94
88
142
85
79
144
87
81
206
149
143
138
81
75
162
105
99
144
87
81
170
113
107
162
105
99
160
103
97
130
73
67
138
81
75
200
143
137
157
100
94
177
120
114
157
100
94
141
84
78
208
151
145
213
156
150
155
98
92
165
108
102
156
99
93
186
129
123
157
100
94
138
81
75
136
79
73
225
168
162
194
137
131
130
73
67
164
107
101
135
78
72
177
120
114
203
146
140
160
103
97
164
107
101
156
99
93
157
100
94
164
107
101
138
81
75
137
80
74
200
143
137
197
140
134
155
98
92
130
73
67
164
107
101
131
74
68
195
138
132
160
103
97
165
108
102
164
107
101
186
129
123
183
126
120
138
81
75
132
75
69
198
141
135
199
142
136
153
96
90
158
101
95
164
107
101
158
101
95
162
105
99
141
84
78
183
126
120
161
104
98
163
106
100
146
89
83
141
84
78
136
79
73
169
112
106
151
94
88
145
88
82
137
80
74
168
111
105
184
127
121
138
81
75
156
99
93
197
140
134
164
107
101
134
77
71
145
88
82
131
74
68
203
146
140
205
148
142
175
118
112
159
102
96
138
81
75
169
112
106
157
100
94
158
101
95
134
77
71
204
147
141
158
101
95
140
83
77
137
80
74
194
137
131
209
152
146
199
142
136
144
87
81
164
107
101
160
103
97
203
146
140
161
104
98
139
82
76
173
116
110
160
103
97
184
127
121
168
111
105
166
109
103
180
123
117
193
136
130
153
96
90
159
102
96
180
123
117
155
98
92
140
83
77
145
88
82
166
109
103
130
73
67
162
105
99
144
87
81
197
140
134
157
100
94
140
83
77
213
156
150
155
98
92
163
106
100
145
88
82
164
107
101
136
79
73
198
141
135
160
103
97
152
95
89
157
100
94
166
109
103
196
139
133
184
127
121
146
89
83
157
100
94
204
147
141
128
71
65
197
140
134
185
128
122
167
110
104
164
107
101
160
103
97
187
130
124
182
125
119
185
128
122
160
103
97
153
96
90
160
103
97
163
106
100
193
136
130
137
80
74
209
152
146
161
104
98
128
71
65
163
106
100
163
106
100
164
107
101
157
100
94
140
83
77
145
88
82
165
108
102
142
85
79
169
112
106
151
94
88
132
75
69
152
95
89
121
64
58
162
105
99
157
100
94
155
98
92
149
92
86
136
79
73
132
75
69
120
63
57
205
148
142
225
168
162
160
103
97
137
80
74
139
82
76
195
138
132
209
152
146
141
84
78
202
145
139
174
117
111
180
123
117
138
81
75
209
152
146
208
151
145
136
79
73
203
146
140
165
108
102
158
101
95
184
127
121
210
153
147
165
108
102
145
88
82
157
100
94
132
75
69
153
96
90
