P3
# Created by GIMP version 2.10.36 PNM plug-in
16 16
255
171
124
71
175
128
75
161
114
61
161
114
61
178
131
78
199
152
99
157
110
57
176
129
76
170
123
70
187
140
87
157
110
57
176
129
76
158
111
58
145
98
45
181
134
81
206
159
106
178
131
78
185
138
85
186
139
86
168
121
68
176
129
76
181
134
81
186
139
86
154
107
54
159
112
59
210
163
110
152
105
52
147
100
47
255
208
155
244
197
144
174
127
74
168
121
68
176
129
76
217
170
117
178
131
78
221
174
121
151
104
51
155
108
55
181
134
81
200
153
100
200
153
100
156
109
56
178
131
78
217
170
117
176
129
76
186
139
86
151
104
51
177
130
77
162
115
62
172
125
72
146
99
46
176
129
76
175
128
75
178
131
78
168
121
68
159
112
59
161
114
61
223
176
123
155
108
55
179
132
79
161
114
61
187
140
87
179
132
79
177
130
77
147
100
47
155
108
55
217
170
117
174
127
74
194
147
94
174
127
74
158
111
58
225
178
125
230
183
130
172
125
72
182
135
82
173
126
73
203
156
103
174
127
74
155
108
55
153
106
53
242
195
142
211
164
111
147
100
47
181
134
81
152
105
52
194
147
94
220
173
120
177
130
77
181
134
81
173
126
73
174
127
74
181
134
81
155
108
55
154
107
54
217
170
117
214
167
114
172
125
72
147
100
47
181
134
81
148
101
48
212
165
112
177
130
77
182
135
82
181
134
81
203
156
103
200
153
100
155
108
55
149
102
49
215
168
115
216
169
116
170
123
70
175
128
75
181
134
81
175
128
75
179
132
79
158
111
58
200
153
100
178
131
78
180
133
80
163
116
63
158
111
58
153
106
53
186
139
86
168
121
68
162
115
62
154
107
54
185
138
85
201
154
101
155
108
55
173
126
73
214
167
114
181
134
81
151
104
51
162
115
62
148
101
48
220
173
120
222
175
122
192
145
92
176
129
76
155
108
55
186
139
86
174
127
74
175
128
75
151
104
51
221
174
121
175
128
75
157
110
57
154
107
54
211
164
111
226
179
126
216
169
116
161
114
61
181
134
81
177
130
77
220
173
120
178
131
78
156
109
56
190
143
90
177
130
77
201
154
101
185
138
85
183
136
83
197
150
97
210
163
110
170
123
70
176
129
76
197
150
97
172
125
72
157
110
57
162
115
62
183
136
83
147
100
47
179
132
79
161
114
61
214
167
114
174
127
74
157
110
57
230
183
130
172
125
72
180
133
80
162
115
62
181
134
81
153
106
53
215
168
115
177
130
77
169
122
69
174
127
74
183
136
83
213
166
113
201
154
101
163
116
63
174
127
74
221
174
121
145
98
45
214
167
114
202
155
102
184
137
84
181
134
81
177
130
77
204
157
104
199
152
99
202
155
102
177
130
77
170
123
70
177
130
77
180
133
80
210
163
110
154
107
54
226
179
126
178
131
78
145
98
45
180
133
80
180
133
80
181
134
81
174
127
74
157
110
57
162
115
62
182
135
82
159
112
59
186
139
86
168
121
68
149
102
49
169
122
69
138
91
38
179
132
79
174
127
74
172
125
72
166
119
66
153
106
53
149
102
49
137
90
37
222
175
122
242
195
142
177
130
77
154
107
54
156
109
56
212
165
112
226
179
126
158
111
58
219
172
119
191
144
91
197
150
97
155
108
55
226
179
126
225
178
125
153
106
53
220
173
120
182
135
82
175
128
75
201
154
101
227
180
127
182
135
82
162
115
62
174
127
74
149
102
49
170
123
70
