P3
# Created by GIMP version 2.10.36 PNM plug-in
16 16
255
143
149
116
147
153
120
133
139
106
133
139
106
150
156
123
171
177
144
129
135
102
148
154
121
142
148
115
159
165
132
129
135
102
148
154
121
130
136
103
117
123
90
153
159
126
178
184
151
150
156
123
157
163
130
158
164
131
140
146
113
148
154
121
153
159
126
158
164
131
126
132
99
131
137
104
182
188
155
124
130
97
119
125
92
227
233
200
216
222
189
146
152
119
140
146
113
148
154
121
189
195
162
150
156
123
193
199
166
123
129
96
127
133
100
153
159
126
172
178
145
172
178
145
128
134
101
150
156
123
189
195
162
148
154
121
158
164
131
123
129
96
149
155
122
134
140
107
144
150
117
118
124
91
148
154
121
147
153
120
150
156
123
140
146
113
131
137
104
133
139
106
195
201
168
127
133
100
151
157
124
133
139
106
159
165
132
151
157
124
149
155
122
119
125
92
127
133
100
189
195
162
146
152
119
166
172
139
146
152
119
130
136
103
197
203
170
202
208
175
144
150
117
154
160
127
145
151
118
175
181
148
146
152
119
127
133
100
125
131
98
214
220
187
183
189
156
119
125
92
153
159
126
124
130
97
166
172
139
192
198
165
149
155
122
153
159
126
145
151
118
146
152
119
153
159
126
127
133
100
126
132
99
189
195
162
186
192
159
144
150
117
119
125
92
153
159
126
120
126
93
184
190
157
149
155
122
154
160
127
153
159
126
175
181
148
172
178
145
127
133
100
121
127
94
187
193
160
188
194
161
142
148
115
147
153
120
153
159
126
147
153
120
151
157
124
130
136
103
172
178
145
150
156
123
152
158
125
135
141
108
130
136
103
125
131
98
158
164
131
140
146
113
134
140
107
126
132
99
157
163
130
173
179
146
127
133
100
145
151
118
186
192
159
153
159
126
123
129
96
134
140
107
120
126
93
192
198
165
194
200
167
164
170
137
148
154
121
127
133
100
158
164
131
146
152
119
147
153
120
123
129
96
193
199
166
147
153
120
129
135
102
126
132
99
183
189
156
198
204
171
188
194
161
133
139
106
153
159
126
149
155
122
192
198
165
150
156
123
128
134
101
162
168
135
149
155
122
173
179
146
157
163
130
155
161
128
169
175
142
182
188
155
142
148
115
148
154
121
169
175
142
144
150
117
129
135
102
134
140
107
155
161
128
119
125
92
151
157
124
133
139
106
186
192
159
146
152
119
129
135
102
202
208
175
144
150
117
152
158
125
134
140
107
153
159
126
125
131
98
187
193
160
149
155
122
141
147
114
146
152
119
155
161
128
185
191
158
173
179
146
135
141
108
146
152
119
193
199
166
117
123
90
186
192
159
174
180
147
156
162
129
153
159
126
149
155
122
176
182
149
171
177
144
174
180
147
149
155
122
142
148
115
149
155
122
152
158
125
182
188
155
126
132
99
198
204
171
150
156
123
117
123
90
152
158
125
152
158
125
153
159
126
146
152
119
129
135
102
134
140
107
154
160
127
131
137
104
158
164
131
140
146
113
121
127
94
141
147
114
110
116
83
151
157
124
146
152
119
144
150
117
138
144
111
125
131
98
121
127
94
109
115
82
194
200
167
214
220
187
149
155
122
126
132
99
128
134
101
184
190
157
198
204
171
130
136
103
191
197
164
163
169
136
169
175
142
127
133
100
198
204
171
197
203
170
125
131
98
192
198
165
154
160
127
147
153
120
173
179
146
199
205
172
154
160
127
134
140
107
146
152
119
121
127
94
142
148
115
