P3
# Created by GIMP version 2.10.36 PNM plug-in
16 16
255
171
154
82
175
158
86
161
144
72
161
144
72
178
161
89
199
182
110
157
140
68
176
159
87
170
153
81
187
170
98
157
140
68
176
159
87
158
141
69
145
128
56
181
164
92
206
189
117
178
161
89
185
168
96
186
169
97
168
151
79
176
159
87
181
164
92
186
169
97
154
137
65
159
142
70
210
193
121
152
135
63
147
130
58
255
238
166
244
227
155
174
157
85
168
151
79
176
159
87
217
200
128
178
161
89
221
204
132
151
134
62
155
138
66
181
164
92
200
183
111
200
183
111
156
139
67
178
161
89
217
200
128
176
159
87
186
169
97
151
134
62
177
160
88
162
145
73
172
155
83
146
129
57
176
159
87
175
158
86
178
161
89
168
151
79
159
142
70
161
144
72
223
206
134
155
138
66
179
162
90
161
144
72
187
170
98
179
162
90
177
160
88
147
130
58
155
138
66
217
200
128
174
157
85
194
177
105
174
157
85
158
141
69
225
208
136
230
213
141
172
155
83
182
165
93
173
156
84
203
186
114
174
157
85
155
138
66
153
136
64
242
225
153
211
194
122
147
130
58
181
164
92
152
135
63
194
177
105
220
203
131
177
160
88
181
164
92
173
156
84
174
157
85
181
164
92
155
138
66
154
137
65
217
200
128
214
197
125
172
155
83
147
130
58
181
164
92
148
131
59
212
195
123
177
160
88
182
165
93
181
164
92
203
186
114
200
183
111
155
138
66
149
132
60
215
198
126
216
199
127
170
153
81
175
158
86
181
164
92
175
158
86
179
162
90
158
141
69
200
183
111
178
161
89
180
163
91
163
146
74
158
141
69
153
136
64
186
169
97
168
151
79
162
145
73
154
137
65
185
168
96
201
184
112
155
138
66
173
156
84
214
197
125
181
164
92
151
134
62
162
145
73
148
131
59
220
203
131
222
205
133
192
175
103
176
159
87
155
138
66
186
169
97
174
157
85
175
158
86
151
134
62
221
204
132
175
158
86
157
140
68
154
137
65
211
194
122
226
209
137
216
199
127
161
144
72
181
164
92
177
160
88
220
203
131
178
161
89
156
139
67
190
173
101
177
160
88
201
184
112
185
168
96
183
166
94
197
180
108
210
193
121
170
153
81
176
159
87
197
180
108
172
155
83
157
140
68
162
145
73
183
166
94
147
130
58
179
162
90
161
144
72
214
197
125
174
157
85
157
140
68
230
213
141
172
155
83
180
163
91
162
145
73
181
164
92
153
136
64
215
198
126
177
160
88
169
152
80
174
157
85
183
166
94
213
196
124
201
184
112
163
146
74
174
157
85
221
204
132
145
128
56
214
197
125
202
185
113
184
167
95
181
164
92
177
160
88
204
187
115
199
182
110
202
185
113
177
160
88
170
153
81
177
160
88
180
163
91
210
193
121
154
137
65
226
209
137
178
161
89
145
128
56
180
163
91
180
163
91
181
164
92
174
157
85
157
140
68
162
145
73
182
165
93
159
142
70
186
169
97
168
151
79
149
132
60
169
152
80
138
121
49
179
162
90
174
157
85
172
155
83
166
149
77
153
136
64
149
132
60
137
120
48
222
205
133
242
225
153
177
160
88
154
137
65
156
139
67
212
195
123
226
209
137
158
141
69
219
202
130
191
174
102
197
180
108
155
138
66
226
209
137
225
208
136
153
136
64
220
203
131
182
165
93
175
158
86
201
184
112
227
210
138
182
165
93
162
145
73
174
157
85
149
132
60
170
153
81
