P3
# Created by GIMP version 2.10.36 PNM plug-in
16 16
255
171
134
144
175
138
148
161
124
134
161
124
134
178
141
151
199
162
172
157
120
130
176
139
149
170
133
143
187
150
160
157
120
130
176
139
149
158
121
131
145
108
118
181
144
154
206
169
179
178
141
151
185
148
158
186
149
159
168
131
141
176
139
149
181
144
154
186
149
159
154
117
127
159
122
132
210
173
183
152
115
125
147
110
120
255
218
228
244
207
217
174
137
147
168
131
141
176
139
149
217
180
190
178
141
151
221
184
194
151
114
124
155
118
128
181
144
154
200
163
173
200
163
173
156
119
129
178
141
151
217
180
190
176
139
149
186
149
159
151
114
124
177
140
150
162
125
135
172
135
145
146
109
119
176
139
149
175
138
148
178
141
151
168
131
141
159
122
132
161
124
134
223
186
196
155
118
128
179
142
152
161
124
134
187
150
160
179
142
152
177
140
150
147
110
120
155
118
128
217
180
190
174
137
147
194
157
167
174
137
147
158
121
131
225
188
198
230
193
203
172
135
145
182
145
155
173
136
146
203
166
176
174
137
147
155
118
128
153
116
126
255
205
215
211
174
184
147
110
120
181
144
154
152
115
125
194
157
167
220
183
193
177
140
150
181
144
154
173
136
146
174
137
147
181
144
154
155
118
128
154
117
127
217
180
190
214
177
187
172
135
145
147
110
120
181
144
154
148
111
121
212
175
185
177
140
150
182
145
155
181
144
154
203
166
176
200
163
173
155
118
128
149
112
122
215
178
188
216
179
189
170
133
143
175
138
148
181
144
154
175
138
148
179
142
152
158
121
131
200
163
173
178
141
151
180
143
153
163
126
136
158
121
131
153
116
126
186
149
159
168
131
141
162
125
135
154
117
127
185
148
158
201
164
174
155
118
128
173
136
146
214
177
187
181
144
154
151
114
124
162
125
135
148
111
121
220
183
193
222
185
195
192
155
165
176
139
149
155
118
128
186
149
159
174
137
147
175
138
148
151
114
124
221
184
194
175
138
148
157
120
130
154
117
127
211
174
184
226
189
199
216
179
189
161
124
134
181
144
154
177
140
150
220
183
193
178
141
151
156
119
129
190
153
163
177
140
150
201
164
174
185
148
158
183
146
156
197
160
170
210
173
183
170
133
143
176
139
149
197
160
170
172
135
145
157
120
130
162
125
135
183
146
156
147
110
120
179
142
152
161
124
134
214
177
187
174
137
147
157
120
130
230
193
203
172
135
145
180
143
153
162
125
135
181
144
154
153
116
126
215
178
188
177
140
150
169
132
142
174
137
147
183
146
156
213
176
186
201
164
174
163
126
136
174
137
147
221
184
194
145
108
118
214
177
187
202
165
175
184
147
157
181
144
154
177
140
150
204
167
177
199
162
172
202
165
175
177
140
150
170
133
143
177
140
150
180
143
153
210
173
183
154
117
127
226
189
199
178
141
151
145
108
118
180
143
153
180
143
153
181
144
154
174
137
147
157
120
130
162
125
135
182
145
155
159
122
132
186
149
159
168
131
141
149
112
122
169
132
142
138
101
111
179
142
152
174
137
147
172
135
145
166
129
139
153
116
126
149
112
122
137
100
110
222
185
195
255
205
215
177
140
150
154
117
127
156
119
129
212
175
185
226
189
199
158
121
131
219
182
192
191
154
164
197
160
170
155
118
128
226
189
199
225
188
198
153
116
126
220
183
193
182
145
155
175
138
148
201
164
174
227
190
200
182
145
155
162
125
135
174
137
147
149
112
122
170
133
143
