P3
# Created by GIMP version 2.10.36 PNM plug-in
16 16
255
171
170
167
175
174
171
161
160
157
161
160
157
178
177
174
199
198
195
157
156
153
176
175
172
170
169
166
187
186
183
157
156
153
176
175
172
158
157
154
145
144
141
181
180
177
206
205
202
178
177
174
185
184
181
186
185
182
168
167
164
176
175
172
181
180
177
186
185
182
154
153
150
159
158
155
210
209
206
152
151
148
147
146
143
255
254
251
244
255
240
174
173
170
168
167
164
176
175
172
217
216
213
178
177
174
221
220
217
151
150
147
155
154
151
181
180
177
200
199
196
200
199
196
156
155
152
178
177
174
217
216
213
176
175
172
186
185
182
151
150
147
177
176
173
162
161
158
172
171
168
146
145
142
176
175
172
175
174
171
178
177
174
168
167
164
159
158
155
161
160
157
223
222
219
155
154
151
179
178
175
161
160
157
187
186
183
179
178
175
177
176
173
147
146
143
155
154
151
217
216
213
174
173
170
194
193
190
174
173
170
158
157
154
225
224
221
230
229
226
172
171
168
182
181
178
173
172
169
203
202
199
174
173
170
155
154
151
153
152
149
242
241
238
211
210
207
147
146
143
181
180
177
152
151
148
194
193
190
220
219
216
177
176
173
181
180
177
173
172
169
174
173
170
181
180
177
155
154
151
154
153
150
217
216
213
214
213
210
172
171
168
147
146
143
181
180
177
148
147
144
212
211
208
177
176
173
182
181
178
181
180
177
203
202
199
200
199
196
155
154
151
149
148
145
215
214
211
216
215
212
170
169
166
175
174
171
181
180
177
175
174
171
179
178
175
158
157
154
200
199
196
178
177
174
180
179
176
163
162
159
158
157
154
153
152
149
186
185
182
168
167
164
162
161
158
154
153
150
185
184
181
201
200
197
155
154
151
173
172
169
214
213
210
181
180
177
151
150
147
162
161
158
148
147
144
220
219
216
222
221
218
192
191
188
176
175
172
155
154
151
186
185
182
174
173
170
175
174
171
151
150
147
221
220
217
175
174
171
157
156
153
154
153
150
211
210
207
226
225
222
216
215
212
161
160
157
181
180
177
177
176
173
220
219
216
178
177
174
156
155
152
190
189
186
177
176
173
201
200
197
185
184
181
183
182
179
197
196
193
210
209
206
170
169
166
176
175
172
197
196
193
172
171
168
157
156
153
162
161
158
183
182
179
147
146
143
179
178
175
161
160
157
214
213
210
174
173
170
157
156
153
230
229
226
172
171
168
180
179
176
162
161
158
181
180
177
153
152
149
215
214
211
177
176
173
169
168
165
174
173
170
183
182
179
213
212
209
201
200
197
163
162
159
174
173
170
221
220
217
145
144
141
214
213
210
202
201
198
184
183
180
181
180
177
177
176
173
204
203
200
199
198
195
202
201
198
177
176
173
170
169
166
177
176
173
180
179
176
210
209
206
154
153
150
226
225
222
178
177
174
145
144
141
180
179
176
180
179
176
181
180
177
174
173
170
157
156
153
162
161
158
182
181
178
159
158
155
186
185
182
168
167
164
149
148
145
169
168
165
138
137
134
179
178
175
174
173
170
172
171
168
166
165
162
153
152
149
149
148
145
137
136
133
222
221
218
242
241
238
177
176
173
154
153
150
156
155
152
212
211
208
226
225
222
158
157
154
219
218
215
191
190
187
197
196
193
155
154
151
226
225
222
225
224
221
153
152
149
220
219
216
182
181
178
175
174
171
201
200
197
227
226
223
182
181
178
162
161
158
174
173
170
149
148
145
170
169
166
