P3
# Created by GIMP version 2.10.36 PNM plug-in
16 16
255
105
104
171
109
108
175
95
94
161
95
94
161
112
111
178
133
132
199
91
90
157
110
109
176
104
103
170
121
120
187
91
90
157
110
109
176
92
91
158
79
78
145
115
114
181
140
139
206
112
111
178
119
118
185
120
119
186
102
101
168
110
109
176
115
114
181
120
119
186
88
87
154
93
92
159
144
143
210
86
85
152
81
80
147
189
188
255
178
177
244
108
107
174
102
101
168
110
109
176
151
150
217
112
111
178
155
154
221
85
84
151
89
88
155
115
114
181
134
133
200
134
133
200
90
89
156
112
111
178
151
150
217
110
109
176
120
119
186
85
84
151
111
110
177
96
95
162
106
105
172
80
79
146
110
109
176
109
108
175
112
111
178
102
101
168
93
92
159
95
94
161
157
156
223
89
88
155
113
112
179
95
94
161
121
120
187
113
112
179
111
110
177
81
80
147
89
88
155
151
150
217
108
107
174
128
127
194
108
107
174
92
91
158
159
158
225
164
163
230
106
105
172
116
115
182
107
106
173
137
136
203
108
107
174
89
88
155
87
86
153
176
175
242
145
144
211
81
80
147
115
114
181
86
85
152
128
127
194
154
153
220
111
110
177
115
114
181
107
106
173
108
107
174
115
114
181
89
88
155
88
87
154
151
150
217
148
147
214
106
105
172
81
80
147
115
114
181
82
81
148
146
145
212
111
110
177
116
115
182
115
114
181
137
136
203
134
133
200
89
88
155
83
82
149
149
148
215
150
149
216
104
103
170
109
108
175
115
114
181
109
108
175
113
112
179
92
91
158
134
133
200
112
111
178
114
113
180
97
96
163
92
91
158
87
86
153
120
119
186
102
101
168
96
95
162
88
87
154
119
118
185
135
134
201
89
88
155
107
106
173
148
147
214
115
114
181
85
84
151
96
95
162
82
81
148
154
153
220
156
155
222
126
125
192
110
109
176
89
88
155
120
119
186
108
107
174
109
108
175
85
84
151
155
154
221
109
108
175
91
90
157
88
87
154
145
144
211
160
159
226
150
149
216
95
94
161
115
114
181
111
110
177
154
153
220
112
111
178
90
89
156
124
123
190
111
110
177
135
134
201
119
118
185
117
116
183
131
130
197
144
143
210
104
103
170
110
109
176
131
130
197
106
105
172
91
90
157
96
95
162
117
116
183
81
80
147
113
112
179
95
94
161
148
147
214
108
107
174
91
90
157
164
163
230
106
105
172
114
113
180
96
95
162
115
114
181
87
86
153
149
148
215
111
110
177
103
102
169
108
107
174
117
116
183
147
146
213
135
134
201
97
96
163
108
107
174
155
154
221
79
78
145
148
147
214
136
135
202
118
117
184
115
114
181
111
110
177
138
137
204
133
132
199
136
135
202
111
110
177
104
103
170
111
110
177
114
113
180
144
143
210
88
87
154
160
159
226
112
111
178
79
78
145
114
113
180
114
113
180
115
114
181
108
107
174
91
90
157
96
95
162
116
115
182
93
92
159
120
119
186
102
101
168
83
82
149
103
102
169
72
71
138
113
112
179
108
107
174
106
105
172
100
99
166
87
86
153
83
82
149
71
70
137
156
155
222
176
175
242
111
110
177
88
87
154
90
89
156
146
145
212
160
159
226
92
91
158
153
152
219
125
124
191
131
130
197
89
88
155
160
159
226
159
158
225
87
86
153
154
153
220
116
115
182
109
108
175
135
134
201
161
160
227
116
115
182
96
95
162
108
107
174
83
82
149
104
103
170
