P3
# Created by GIMP version 2.10.36 PNM plug-in
16 16
255
135
97
155
139
101
159
125
87
145
125
87
145
142
104
162
163
125
183
121
83
141
140
102
160
134
96
154
151
113
171
121
83
141
140
102
160
122
84
142
109
71
129
145
107
165
170
132
190
142
104
162
149
111
169
150
112
170
132
94
152
140
102
160
145
107
165
150
112
170
118
80
138
123
85
143
174
136
194
116
78
136
111
73
131
219
181
239
208
170
228
138
100
158
132
94
152
140
102
160
181
143
201
142
104
162
185
147
205
115
77
135
119
81
139
145
107
165
164
126
184
164
126
184
120
82
140
142
104
162
181
143
201
140
102
160
150
112
170
115
77
135
141
103
161
126
88
146
136
98
156
110
72
130
140
102
160
139
101
159
142
104
162
132
94
152
123
85
143
125
87
145
187
149
207
119
81
139
143
105
163
125
87
145
151
113
171
143
105
163
141
103
161
111
73
131
119
81
139
181
143
201
138
100
158
158
120
178
138
100
158
122
84
142
189
151
209
194
156
214
136
98
156
146
108
166
137
99
157
167
129
187
138
100
158
119
81
139
117
79
137
206
168
226
175
137
195
111
73
131
145
107
165
116
78
136
158
120
178
184
146
204
141
103
161
145
107
165
137
99
157
138
100
158
145
107
165
119
81
139
118
80
138
181
143
201
178
140
198
136
98
156
111
73
131
145
107
165
112
74
132
176
138
196
141
103
161
146
108
166
145
107
165
167
129
187
164
126
184
119
81
139
113
75
133
179
141
199
180
142
200
134
96
154
139
101
159
145
107
165
139
101
159
143
105
163
122
84
142
164
126
184
142
104
162
144
106
164
127
89
147
122
84
142
117
79
137
150
112
170
132
94
152
126
88
146
118
80
138
149
111
169
165
127
185
119
81
139
137
99
157
178
140
198
145
107
165
115
77
135
126
88
146
112
74
132
184
146
204
186
148
206
156
118
176
140
102
160
119
81
139
150
112
170
138
100
158
139
101
159
115
77
135
185
147
205
139
101
159
121
83
141
118
80
138
175
137
195
190
152
210
180
142
200
125
87
145
145
107
165
141
103
161
184
146
204
142
104
162
120
82
140
154
116
174
141
103
161
165
127
185
149
111
169
147
109
167
161
123
181
174
136
194
134
96
154
140
102
160
161
123
181
136
98
156
121
83
141
126
88
146
147
109
167
111
73
131
143
105
163
125
87
145
178
140
198
138
100
158
121
83
141
194
156
214
136
98
156
144
106
164
126
88
146
145
107
165
117
79
137
179
141
199
141
103
161
133
95
153
138
100
158
147
109
167
177
139
197
165
127
185
127
89
147
138
100
158
185
147
205
109
71
129
178
140
198
166
128
186
148
110
168
145
107
165
141
103
161
168
130
188
163
125
183
166
128
186
141
103
161
134
96
154
141
103
161
144
106
164
174
136
194
118
80
138
190
152
210
142
104
162
109
71
129
144
106
164
144
106
164
145
107
165
138
100
158
121
83
141
126
88
146
146
108
166
123
85
143
150
112
170
132
94
152
113
75
133
133
95
153
102
64
122
143
105
163
138
100
158
136
98
156
130
92
150
117
79
137
113
75
133
101
63
121
186
148
206
206
168
226
141
103
161
118
80
138
120
82
140
176
138
196
190
152
210
122
84
142
183
145
203
155
117
175
161
123
181
119
81
139
190
152
210
189
151
209
117
79
137
184
146
204
146
108
166
139
101
159
165
127
185
191
153
211
146
108
166
126
88
146
138
100
158
113
75
133
134
96
154
