P3
# Created by GIMP version 2.10.36 PNM plug-in
16 16
255
134
171
118
138
175
122
124
161
108
124
161
108
141
178
125
162
199
146
120
157
104
139
176
123
133
170
117
150
187
134
120
157
104
139
176
123
121
158
105
108
145
92
144
181
128
169
206
153
141
178
125
148
185
132
149
186
133
131
168
115
139
176
123
144
181
128
149
186
133
117
154
101
122
159
106
173
210
157
115
152
99
110
147
94
218
255
202
207
255
191
137
174
121
131
168
115
139
176
123
180
217
164
141
178
125
184
221
168
114
151
98
118
155
102
144
181
128
163
200
147
163
200
147
119
156
103
141
178
125
180
217
164
139
176
123
149
186
133
114
151
98
140
177
124
125
162
109
135
172
119
109
146
93
139
176
123
138
175
122
141
178
125
131
168
115
122
159
106
124
161
108
186
223
170
118
155
102
142
179
126
124
161
108
150
187
134
142
179
126
140
177
124
110
147
94
118
155
102
180
217
164
137
174
121
157
194
141
137
174
121
121
158
105
188
225
172
193
230
177
135
172
119
145
182
129
136
173
120
166
203
150
137
174
121
118
155
102
116
153
100
205
242
189
174
211
158
110
147
94
144
181
128
115
152
99
157
194
141
183
220
167
140
177
124
144
181
128
136
173
120
137
174
121
144
181
128
118
155
102
117
154
101
180
217
164
177
214
161
135
172
119
110
147
94
144
181
128
111
148
95
175
212
159
140
177
124
145
182
129
144
181
128
166
203
150
163
200
147
118
155
102
112
149
96
178
215
162
179
216
163
133
170
117
138
175
122
144
181
128
138
175
122
142
179
126
121
158
105
163
200
147
141
178
125
143
180
127
126
163
110
121
158
105
116
153
100
149
186
133
131
168
115
125
162
109
117
154
101
148
185
132
164
201
148
118
155
102
136
173
120
177
214
161
144
181
128
114
151
98
125
162
109
111
148
95
183
220
167
185
222
169
155
192
139
139
176
123
118
155
102
149
186
133
137
174
121
138
175
122
114
151
98
184
221
168
138
175
122
120
157
104
117
154
101
174
211
158
189
226
173
179
216
163
124
161
108
144
181
128
140
177
124
183
220
167
141
178
125
119
156
103
153
190
137
140
177
124
164
201
148
148
185
132
146
183
130
160
197
144
173
210
157
133
170
117
139
176
123
160
197
144
135
172
119
120
157
104
125
162
109
146
183
130
110
147
94
142
179
126
124
161
108
177
214
161
137
174
121
120
157
104
193
230
177
135
172
119
143
180
127
125
162
109
144
181
128
116
153
100
178
215
162
140
177
124
132
169
116
137
174
121
146
183
130
176
213
160
164
201
148
126
163
110
137
174
121
184
221
168
108
145
92
177
214
161
165
202
149
147
184
131
144
181
128
140
177
124
167
204
151
162
199
146
165
202
149
140
177
124
133
170
117
140
177
124
143
180
127
173
210
157
117
154
101
189
226
173
141
178
125
108
145
92
143
180
127
143
180
127
144
181
128
137
174
121
120
157
104
125
162
109
145
182
129
122
159
106
149
186
133
131
168
115
112
149
96
132
169
116
101
138
85
142
179
126
137
174
121
135
172
119
129
166
113
116
153
100
112
149
96
100
137
84
185
222
169
205
242
189
140
177
124
117
154
101
119
156
103
175
212
159
189
226
173
121
158
105
182
219
166
154
191
138
160
197
144
118
155
102
189
226
173
188
225
172
116
153
100
183
220
167
145
182
129
138
175
122
164
201
148
190
227
174
145
182
129
125
162
109
137
174
121
112
149
96
133
170
117
