P3
# Created by GIMP version 2.10.36 PNM plug-in
16 16
255
125
141
171
129
145
175
115
131
161
115
131
161
132
148
178
153
169
199
111
127
157
130
146
176
124
140
170
141
157
187
111
127
157
130
146
176
112
128
158
99
115
145
135
151
181
160
176
206
132
148
178
139
155
185
140
156
186
122
138
168
130
146
176
135
151
181
140
156
186
108
124
154
113
129
159
164
180
210
106
122
152
101
117
147
209
225
255
198
214
244
128
144
174
122
138
168
130
146
176
171
187
217
132
148
178
175
191
221
105
121
151
109
125
155
135
151
181
154
170
200
154
170
200
110
126
156
132
148
178
171
187
217
130
146
176
140
156
186
105
121
151
131
147
177
116
132
162
126
142
172
100
116
146
130
146
176
129
145
175
132
148
178
122
138
168
113
129
159
115
131
161
177
193
223
109
125
155
133
149
179
115
131
161
141
157
187
133
149
179
131
147
177
101
117
147
109
125
155
171
187
217
128
144
174
148
164
194
128
144
174
112
128
158
179
195
225
184
200
230
126
142
172
136
152
182
127
143
173
157
173
203
128
144
174
109
125
155
107
123
153
196
212
242
165
181
211
101
117
147
135
151
181
106
122
152
148
164
194
174
190
220
131
147
177
135
151
181
127
143
173
128
144
174
135
151
181
109
125
155
108
124
154
171
187
217
168
184
214
126
142
172
101
117
147
135
151
181
102
118
148
166
182
212
131
147
177
136
152
182
135
151
181
157
173
203
154
170
200
109
125
155
103
119
149
169
185
215
170
186
216
124
140
170
129
145
175
135
151
181
129
145
175
133
149
179
112
128
158
154
170
200
132
148
178
134
150
180
117
133
163
112
128
158
107
123
153
140
156
186
122
138
168
116
132
162
108
124
154
139
155
185
155
171
201
109
125
155
127
143
173
168
184
214
135
151
181
105
121
151
116
132
162
102
118
148
174
190
220
176
192
222
146
162
192
130
146
176
109
125
155
140
156
186
128
144
174
129
145
175
105
121
151
175
191
221
129
145
175
111
127
157
108
124
154
165
181
211
180
196
226
170
186
216
115
131
161
135
151
181
131
147
177
174
190
220
132
148
178
110
126
156
144
160
190
131
147
177
155
171
201
139
155
185
137
153
183
151
167
197
164
180
210
124
140
170
130
146
176
151
167
197
126
142
172
111
127
157
116
132
162
137
153
183
101
117
147
133
149
179
115
131
161
168
184
214
128
144
174
111
127
157
184
200
230
126
142
172
134
150
180
116
132
162
135
151
181
107
123
153
169
185
215
131
147
177
123
139
169
128
144
174
137
153
183
167
183
213
155
171
201
117
133
163
128
144
174
175
191
221
99
115
145
168
184
214
156
172
202
138
154
184
135
151
181
131
147
177
158
174
204
153
169
199
156
172
202
131
147
177
124
140
170
131
147
177
134
150
180
164
180
210
108
124
154
180
196
226
132
148
178
99
115
145
134
150
180
134
150
180
135
151
181
128
144
174
111
127
157
116
132
162
136
152
182
113
129
159
140
156
186
122
138
168
103
119
149
123
139
169
92
108
138
133
149
179
128
144
174
126
142
172
120
136
166
107
123
153
103
119
149
91
107
137
176
192
222
196
212
242
131
147
177
108
124
154
110
126
156
166
182
212
180
196
226
112
128
158
173
189
219
145
161
191
151
167
197
109
125
155
180
196
226
179
195
225
107
123
153
174
190
220
136
152
182
129
145
175
155
171
201
181
197
227
136
152
182
116
132
162
128
144
174
103
119
149
124
140
170
