P3
# Created by GIMP version 2.10.36 PNM plug-in
16 16
255
170
164
103
174
168
107
160
154
93
160
154
93
177
171
110
198
192
131
156
150
89
175
169
108
169
163
102
186
180
119
156
150
89
175
169
108
157
151
90
144
138
77
180
174
113
205
199
138
177
171
110
184
178
117
185
179
118
167
161
100
175
169
108
180
174
113
185
179
118
153
147
86
158
152
91
209
203
142
151
145
84
146
140
79
254
248
187
243
237
176
173
167
106
167
161
100
175
169
108
216
210
149
177
171
110
220
214
153
150
144
83
154
148
87
180
174
113
199
193
132
199
193
132
155
149
88
177
171
110
216
210
149
175
169
108
185
179
118
150
144
83
176
170
109
161
155
94
171
165
104
145
139
78
175
169
108
174
168
107
177
171
110
167
161
100
158
152
91
160
154
93
222
216
155
154
148
87
178
172
111
160
154
93
186
180
119
178
172
111
176
170
109
146
140
79
154
148
87
216
210
149
173
167
106
193
187
126
173
167
106
157
151
90
224
218
157
229
223
162
171
165
104
181
175
114
172
166
105
202
196
135
173
167
106
154
148
87
152
146
85
241
235
174
210
204
143
146
140
79
180
174
113
151
145
84
193
187
126
219
213
152
176
170
109
180
174
113
172
166
105
173
167
106
180
174
113
154
148
87
153
147
86
216
210
149
213
207
146
171
165
104
146
140
79
180
174
113
147
141
80
211
205
144
176
170
109
181
175
114
180
174
113
202
196
135
199
193
132
154
148
87
148
142
81
214
208
147
215
209
148
169
163
102
174
168
107
180
174
113
174
168
107
178
172
111
157
151
90
199
193
132
177
171
110
179
173
112
162
156
95
157
151
90
152
146
85
185
179
118
167
161
100
161
155
94
153
147
86
184
178
117
200
194
133
154
148
87
172
166
105
213
207
146
180
174
113
150
144
83
161
155
94
147
141
80
219
213
152
221
215
154
191
185
124
175
169
108
154
148
87
185
179
118
173
167
106
174
168
107
150
144
83
220
214
153
174
168
107
156
150
89
153
147
86
210
204
143
225
219
158
215
209
148
160
154
93
180
174
113
176
170
109
219
213
152
177
171
110
155
149
88
189
183
122
176
170
109
200
194
133
184
178
117
182
176
115
196
190
129
209
203
142
169
163
102
175
169
108
196
190
129
171
165
104
156
150
89
161
155
94
182
176
115
146
140
79
178
172
111
160
154
93
213
207
146
173
167
106
156
150
89
229
223
162
171
165
104
179
173
112
161
155
94
180
174
113
152
146
85
214
208
147
176
170
109
168
162
101
173
167
106
182
176
115
212
206
145
200
194
133
162
156
95
173
167
106
220
214
153
144
138
77
213
207
146
201
195
134
183
177
116
180
174
113
176
170
109
203
197
136
198
192
131
201
195
134
176
170
109
169
163
102
176
170
109
179
173
112
209
203
142
153
147
86
225
219
158
177
171
110
144
138
77
179
173
112
179
173
112
180
174
113
173
167
106
156
150
89
161
155
94
181
175
114
158
152
91
185
179
118
167
161
100
148
142
81
168
162
101
137
131
70
178
172
111
173
167
106
171
165
104
165
159
98
152
146
85
148
142
81
136
130
69
221
215
154
241
235
174
176
170
109
153
147
86
155
149
88
211
205
144
225
219
158
157
151
90
218
212
151
190
184
123
196
190
129
154
148
87
225
219
158
224
218
157
152
146
85
219
213
152
181
175
114
174
168
107
200
194
133
226
220
159
181
175
114
161
155
94
173
167
106
148
142
81
169
163
102
