P3
# Created by GIMP version 2.10.36 PNM plug-in
16 16
255
121
114
101
125
118
105
111
104
91
111
104
91
128
121
108
149
142
129
107
100
87
126
119
106
120
113
100
137
130
117
107
100
87
126
119
106
108
101
88
95
88
75
131
124
111
156
149
136
128
121
108
135
128
115
136
129
116
118
111
98
126
119
106
131
124
111
136
129
116
104
97
84
109
102
89
160
153
140
102
95
82
97
90
77
205
198
185
194
187
174
124
117
104
118
111
98
126
119
106
167
160
147
128
121
108
171
164
151
101
94
81
105
98
85
131
124
111
150
143
130
150
143
130
106
99
86
128
121
108
167
160
147
126
119
106
136
129
116
101
94
81
127
120
107
112
105
92
122
115
102
96
89
76
126
119
106
125
118
105
128
121
108
118
111
98
109
102
89
111
104
91
173
166
153
105
98
85
129
122
109
111
104
91
137
130
117
129
122
109
127
120
107
97
90
77
105
98
85
167
160
147
124
117
104
144
137
124
124
117
104
108
101
88
175
168
155
180
173
160
122
115
102
132
125
112
123
116
103
153
146
133
124
117
104
105
98
85
103
96
83
192
185
172
161
154
141
97
90
77
131
124
111
102
95
82
144
137
124
170
163
150
127
120
107
131
124
111
123
116
103
124
117
104
131
124
111
105
98
85
104
97
84
167
160
147
164
157
144
122
115
102
97
90
77
131
124
111
98
91
78
162
155
142
127
120
107
132
125
112
131
124
111
153
146
133
150
143
130
105
98
85
99
92
79
165
158
145
166
159
146
120
113
100
125
118
105
131
124
111
125
118
105
129
122
109
108
101
88
150
143
130
128
121
108
130
123
110
113
106
93
108
101
88
103
96
83
136
129
116
118
111
98
112
105
92
104
97
84
135
128
115
151
144
131
105
98
85
123
116
103
164
157
144
131
124
111
101
94
81
112
105
92
98
91
78
170
163
150
172
165
152
142
135
122
126
119
106
105
98
85
136
129
116
124
117
104
125
118
105
101
94
81
171
164
151
125
118
105
107
100
87
104
97
84
161
154
141
176
169
156
166
159
146
111
104
91
131
124
111
127
120
107
170
163
150
128
121
108
106
99
86
140
133
120
127
120
107
151
144
131
135
128
115
133
126
113
147
140
127
160
153
140
120
113
100
126
119
106
147
140
127
122
115
102
107
100
87
112
105
92
133
126
113
97
90
77
129
122
109
111
104
91
164
157
144
124
117
104
107
100
87
180
173
160
122
115
102
130
123
110
112
105
92
131
124
111
103
96
83
165
158
145
127
120
107
119
112
99
124
117
104
133
126
113
163
156
143
151
144
131
113
106
93
124
117
104
171
164
151
95
88
75
164
157
144
152
145
132
134
127
114
131
124
111
127
120
107
154
147
134
149
142
129
152
145
132
127
120
107
120
113
100
127
120
107
130
123
110
160
153
140
104
97
84
176
169
156
128
121
108
95
88
75
130
123
110
130
123
110
131
124
111
124
117
104
107
100
87
112
105
92
132
125
112
109
102
89
136
129
116
118
111
98
99
92
79
119
112
99
88
81
68
129
122
109
124
117
104
122
115
102
116
109
96
103
96
83
99
92
79
87
80
67
172
165
152
192
185
172
127
120
107
104
97
84
106
99
86
162
155
142
176
169
156
108
101
88
169
162
149
141
134
121
147
140
127
105
98
85
176
169
156
175
168
155
103
96
83
170
163
150
132
125
112
125
118
105
151
144
131
177
170
157
132
125
112
112
105
92
124
117
104
99
92
79
120
113
100
