P3
# Created by GIMP version 2.10.36 PNM plug-in
16 16
255
171
155
31
175
159
35
161
145
21
161
145
21
178
162
38
199
183
59
157
141
17
176
160
36
170
154
30
187
171
47
157
141
17
176
160
36
158
142
18
145
129
5
181
165
41
206
190
66
178
162
38
185
169
45
186
170
46
168
152
28
176
160
36
181
165
41
186
170
46
154
138
14
159
143
19
210
194
70
152
136
12
147
131
7
255
239
115
244
228
104
174
158
34
168
152
28
176
160
36
217
201
77
178
162
38
221
205
81
151
135
11
155
139
15
181
165
41
200
184
60
200
184
60
156
140
16
178
162
38
217
201
77
176
160
36
186
170
46
151
135
11
177
161
37
162
146
22
172
156
32
146
130
6
176
160
36
175
159
35
178
162
38
168
152
28
159
143
19
161
145
21
223
207
83
155
139
15
179
163
39
161
145
21
187
171
47
179
163
39
177
161
37
147
131
7
155
139
15
217
201
77
174
158
34
194
178
54
174
158
34
158
142
18
225
209
85
230
214
90
172
156
32
182
166
42
173
157
33
203
187
63
174
158
34
155
139
15
153
137
13
242
226
102
211
195
71
147
131
7
181
165
41
152
136
12
194
178
54
220
204
80
177
161
37
181
165
41
173
157
33
174
158
34
181
165
41
155
139
15
154
138
14
217
201
77
214
198
74
172
156
32
147
131
7
181
165
41
148
132
8
212
196
72
177
161
37
182
166
42
181
165
41
203
187
63
200
184
60
155
139
15
149
133
9
215
199
75
216
200
76
170
154
30
175
159
35
181
165
41
175
159
35
179
163
39
158
142
18
200
184
60
178
162
38
180
164
40
163
147
23
158
142
18
153
137
13
186
170
46
168
152
28
162
146
22
154
138
14
185
169
45
201
185
61
155
139
15
173
157
33
214
198
74
181
165
41
151
135
11
162
146
22
148
132
8
220
204
80
222
206
82
192
176
52
176
160
36
155
139
15
186
170
46
174
158
34
175
159
35
151
135
11
221
205
81
175
159
35
157
141
17
154
138
14
211
195
71
226
210
86
216
200
76
161
145
21
181
165
41
177
161
37
220
204
80
178
162
38
156
140
16
190
174
50
177
161
37
201
185
61
185
169
45
183
167
43
197
181
57
210
194
70
170
154
30
176
160
36
197
181
57
172
156
32
157
141
17
162
146
22
183
167
43
147
131
7
179
163
39
161
145
21
214
198
74
174
158
34
157
141
17
230
214
90
172
156
32
180
164
40
162
146
22
181
165
41
153
137
13
215
199
75
177
161
37
169
153
29
174
158
34
183
167
43
213
197
73
201
185
61
163
147
23
174
158
34
221
205
81
145
129
5
214
198
74
202
186
62
184
168
44
181
165
41
177
161
37
204
188
64
199
183
59
202
186
62
177
161
37
170
154
30
177
161
37
180
164
40
210
194
70
154
138
14
226
210
86
178
162
38
145
129
5
180
164
40
180
164
40
181
165
41
174
158
34
157
141
17
162
146
22
182
166
42
159
143
19
186
170
46
168
152
28
149
133
9
169
153
29
138
122
0
179
163
39
174
158
34
172
156
32
166
150
26
153
137
13
149
133
9
137
121
0
222
206
82
242
226
102
177
161
37
154
138
14
156
140
16
212
196
72
226
210
86
158
142
18
219
203
79
191
175
51
197
181
57
155
139
15
226
210
86
225
209
85
153
137
13
220
204
80
182
166
42
175
159
35
201
185
61
227
211
87
182
166
42
162
146
22
174
158
34
149
133
9
170
154
30
