P3
# Created by GIMP version 2.10.36 PNM plug-in
16 16
255
151
129
105
155
133
109
141
119
95
141
119
95
158
136
112
179
157
133
137
115
91
156
134
110
150
128
104
167
145
121
137
115
91
156
134
110
138
116
92
125
103
79
161
139
115
186
164
140
158
136
112
165
143
119
166
144
120
148
126
102
156
134
110
161
139
115
166
144
120
134
112
88
139
117
93
190
168
144
132
110
86
127
105
81
235
213
189
224
202
178
154
132
108
148
126
102
156
134
110
197
175
151
158
136
112
201
179
155
131
109
85
135
113
89
161
139
115
180
158
134
180
158
134
136
114
90
158
136
112
197
175
151
156
134
110
166
144
120
131
109
85
157
135
111
142
120
96
152
130
106
126
104
80
156
134
110
155
133
109
158
136
112
148
126
102
139
117
93
141
119
95
203
181
157
135
113
89
159
137
113
141
119
95
167
145
121
159
137
113
157
135
111
127
105
81
135
113
89
197
175
151
154
132
108
174
152
128
154
132
108
138
116
92
205
183
159
210
188
164
152
130
106
162
140
116
153
131
107
183
161
137
154
132
108
135
113
89
133
111
87
222
200
176
191
169
145
127
105
81
161
139
115
132
110
86
174
152
128
200
178
154
157
135
111
161
139
115
153
131
107
154
132
108
161
139
115
135
113
89
134
112
88
197
175
151
194
172
148
152
130
106
127
105
81
161
139
115
128
106
82
192
170
146
157
135
111
162
140
116
161
139
115
183
161
137
180
158
134
135
113
89
129
107
83
195
173
149
196
174
150
150
128
104
155
133
109
161
139
115
155
133
109
159
137
113
138
116
92
180
158
134
158
136
112
160
138
114
143
121
97
138
116
92
133
111
87
166
144
120
148
126
102
142
120
96
134
112
88
165
143
119
181
159
135
135
113
89
153
131
107
194
172
148
161
139
115
131
109
85
142
120
96
128
106
82
200
178
154
202
180
156
172
150
126
156
134
110
135
113
89
166
144
120
154
132
108
155
133
109
131
109
85
201
179
155
155
133
109
137
115
91
134
112
88
191
169
145
206
184
160
196
174
150
141
119
95
161
139
115
157
135
111
200
178
154
158
136
112
136
114
90
170
148
124
157
135
111
181
159
135
165
143
119
163
141
117
177
155
131
190
168
144
150
128
104
156
134
110
177
155
131
152
130
106
137
115
91
142
120
96
163
141
117
127
105
81
159
137
113
141
119
95
194
172
148
154
132
108
137
115
91
210
188
164
152
130
106
160
138
114
142
120
96
161
139
115
133
111
87
195
173
149
157
135
111
149
127
103
154
132
108
163
141
117
193
171
147
181
159
135
143
121
97
154
132
108
201
179
155
125
103
79
194
172
148
182
160
136
164
142
118
161
139
115
157
135
111
184
162
138
179
157
133
182
160
136
157
135
111
150
128
104
157
135
111
160
138
114
190
168
144
134
112
88
206
184
160
158
136
112
125
103
79
160
138
114
160
138
114
161
139
115
154
132
108
137
115
91
142
120
96
162
140
116
139
117
93
166
144
120
148
126
102
129
107
83
149
127
103
118
96
72
159
137
113
154
132
108
152
130
106
146
124
100
133
111
87
129
107
83
117
95
71
202
180
156
222
200
176
157
135
111
134
112
88
136
114
90
192
170
146
206
184
160
138
116
92
199
177
153
171
149
125
177
155
131
135
113
89
206
184
160
205
183
159
133
111
87
200
178
154
162
140
116
155
133
109
181
159
135
207
185
161
162
140
116
142
120
96
154
132
108
129
107
83
150
128
104
