P3
# Created by GIMP version 2.10.36 PNM plug-in
16 16
255
138
171
96
142
175
100
128
161
86
128
161
86
145
178
103
166
199
124
124
157
82
143
176
101
137
170
95
154
187
112
124
157
82
143
176
101
125
158
83
112
145
70
148
181
106
173
206
131
145
178
103
152
185
110
153
186
111
135
168
93
143
176
101
148
181
106
153
186
111
121
154
79
126
159
84
177
210
135
119
152
77
114
147
72
222
255
180
211
244
169
141
174
99
135
168
93
143
176
101
184
217
142
145
178
103
188
221
146
118
151
76
122
155
80
148
181
106
167
200
125
167
200
125
123
156
81
145
178
103
184
217
142
143
176
101
153
186
111
118
151
76
144
177
102
129
162
87
139
172
97
113
146
71
143
176
101
142
175
100
145
178
103
135
168
93
126
159
84
128
161
86
190
223
148
122
155
80
146
179
104
128
161
86
154
187
112
146
179
104
144
177
102
114
147
72
122
155
80
184
217
142
141
174
99
161
194
119
141
174
99
125
158
83
192
225
150
197
230
155
139
172
97
149
182
107
140
173
98
170
203
128
141
174
99
122
155
80
120
153
78
209
242
167
178
211
136
114
147
72
148
181
106
119
152
77
161
194
119
187
220
145
144
177
102
148
181
106
140
173
98
141
174
99
148
181
106
122
155
80
121
154
79
184
217
142
181
214
139
139
172
97
114
147
72
148
181
106
115
148
73
179
212
137
144
177
102
149
182
107
148
181
106
170
203
128
167
200
125
122
155
80
116
149
74
182
215
140
183
216
141
137
170
95
142
175
100
148
181
106
142
175
100
146
179
104
125
158
83
167
200
125
145
178
103
147
180
105
130
163
88
125
158
83
120
153
78
153
186
111
135
168
93
129
162
87
121
154
79
152
185
110
168
201
126
122
155
80
140
173
98
181
214
139
148
181
106
118
151
76
129
162
87
115
148
73
187
220
145
189
222
147
159
192
117
143
176
101
122
155
80
153
186
111
141
174
99
142
175
100
118
151
76
188
221
146
142
175
100
124
157
82
121
154
79
178
211
136
193
255
151
183
216
141
128
161
86
148
181
106
144
177
102
187
220
145
145
178
103
123
156
81
157
190
115
144
177
102
168
201
126
152
185
110
150
183
108
164
197
122
177
210
135
137
170
95
143
176
101
164
197
122
139
172
97
124
157
82
129
162
87
150
183
108
114
147
72
146
179
104
128
161
86
181
214
139
141
174
99
124
157
82
197
230
155
139
172
97
147
180
105
129
162
87
148
181
106
120
153
78
182
215
140
144
177
102
136
169
94
141
174
99
150
183
108
180
213
138
168
201
126
130
163
88
141
174
99
188
221
146
112
145
70
181
214
139
169
202
127
151
184
109
148
181
106
144
177
102
171
204
129
166
199
124
169
202
127
144
177
102
137
170
95
144
177
102
147
180
105
177
210
135
121
154
79
193
255
151
145
178
103
112
145
70
147
180
105
147
180
105
148
181
106
141
174
99
124
157
82
129
162
87
149
182
107
126
159
84
153
186
111
135
168
93
116
149
74
136
169
94
105
138
63
146
179
104
141
174
99
139
172
97
133
166
91
120
153
78
116
149
74
104
137
62
189
222
147
209
242
167
144
177
102
121
154
79
123
156
81
179
212
137
193
255
151
125
158
83
186
219
144
158
191
116
164
197
122
122
155
80
193
255
151
192
225
150
120
153
78
187
220
145
149
182
107
142
175
100
168
201
126
194
227
152
149
182
107
129
162
87
141
174
99
116
149
74
137
170
95
