P3
# Created by GIMP version 2.10.36 PNM plug-in
16 16
255
140
114
37
144
118
41
130
104
27
130
104
27
147
121
44
168
142
65
126
100
23
145
119
42
139
113
36
156
130
53
126
100
23
145
119
42
127
101
24
114
88
11
150
124
47
175
149
72
147
121
44
154
128
51
155
129
52
137
111
34
145
119
42
150
124
47
155
129
52
123
97
20
128
102
25
179
153
76
121
95
18
116
90
13
224
198
121
213
187
110
143
117
40
137
111
34
145
119
42
186
160
83
147
121
44
190
164
87
120
94
17
124
98
21
150
124
47
169
143
66
169
143
66
125
99
22
147
121
44
186
160
83
145
119
42
155
129
52
120
94
17
146
120
43
131
105
28
141
115
38
115
89
12
145
119
42
144
118
41
147
121
44
137
111
34
128
102
25
130
104
27
192
166
89
124
98
21
148
122
45
130
104
27
156
130
53
148
122
45
146
120
43
116
90
13
124
98
21
186
160
83
143
117
40
163
137
60
143
117
40
127
101
24
194
168
91
199
173
96
141
115
38
151
125
48
142
116
39
172
146
69
143
117
40
124
98
21
122
96
19
211
185
108
180
154
77
116
90
13
150
124
47
121
95
18
163
137
60
189
163
86
146
120
43
150
124
47
142
116
39
143
117
40
150
124
47
124
98
21
123
97
20
186
160
83
183
157
80
141
115
38
116
90
13
150
124
47
117
91
14
181
155
78
146
120
43
151
125
48
150
124
47
172
146
69
169
143
66
124
98
21
118
92
15
184
158
81
185
159
82
139
113
36
144
118
41
150
124
47
144
118
41
148
122
45
127
101
24
169
143
66
147
121
44
149
123
46
132
106
29
127
101
24
122
96
19
155
129
52
137
111
34
131
105
28
123
97
20
154
128
51
170
144
67
124
98
21
142
116
39
183
157
80
150
124
47
120
94
17
131
105
28
117
91
14
189
163
86
191
165
88
161
135
58
145
119
42
124
98
21
155
129
52
143
117
40
144
118
41
120
94
17
190
164
87
144
118
41
126
100
23
123
97
20
180
154
77
195
169
92
185
159
82
130
104
27
150
124
47
146
120
43
189
163
86
147
121
44
125
99
22
159
133
56
146
120
43
170
144
67
154
128
51
152
126
49
166
140
63
179
153
76
139
113
36
145
119
42
166
140
63
141
115
38
126
100
23
131
105
28
152
126
49
116
90
13
148
122
45
130
104
27
183
157
80
143
117
40
126
100
23
199
173
96
141
115
38
149
123
46
131
105
28
150
124
47
122
96
19
184
158
81
146
120
43
138
112
35
143
117
40
152
126
49
182
156
79
170
144
67
132
106
29
143
117
40
190
164
87
114
88
11
183
157
80
171
145
68
153
127
50
150
124
47
146
120
43
173
147
70
168
142
65
171
145
68
146
120
43
139
113
36
146
120
43
149
123
46
179
153
76
123
97
20
195
169
92
147
121
44
114
88
11
149
123
46
149
123
46
150
124
47
143
117
40
126
100
23
131
105
28
151
125
48
128
102
25
155
129
52
137
111
34
118
92
15
138
112
35
107
81
4
148
122
45
143
117
40
141
115
38
135
109
32
122
96
19
118
92
15
106
80
3
191
165
88
211
185
108
146
120
43
123
97
20
125
99
22
181
155
78
195
169
92
127
101
24
188
162
85
160
134
57
166
140
63
124
98
21
195
169
92
194
168
91
122
96
19
189
163
86
151
125
48
144
118
41
170
144
67
196
170
93
151
125
48
131
105
28
143
117
40
118
92
15
139
113
36
