P3
# Created by GIMP version 2.10.36 PNM plug-in
16 16
255
156
171
28
160
175
32
146
161
18
146
161
18
163
178
35
184
199
56
142
157
14
161
176
33
155
170
27
172
187
44
142
157
14
161
176
33
143
158
15
130
145
2
166
181
38
191
206
63
163
178
35
170
185
42
171
186
43
153
168
25
161
176
33
166
181
38
171
186
43
139
154
11
144
159
16
195
210
67
137
152
9
132
147
4
255
255
112
229
244
101
159
174
31
153
168
25
161
176
33
202
217
74
163
178
35
206
221
78
136
151
8
140
155
12
166
181
38
185
200
57
185
200
57
141
156
13
163
178
35
202
217
74
161
176
33
171
186
43
136
151
8
162
177
34
147
162
19
157
172
29
131
146
3
161
176
33
160
175
32
163
178
35
153
168
25
144
159
16
146
161
18
208
223
80
140
155
12
164
179
36
146
161
18
172
187
44
164
179
36
162
177
34
132
147
4
140
155
12
202
217
74
159
174
31
179
194
51
159
174
31
143
158
15
210
225
82
215
230
87
157
172
29
167
182
39
158
173
30
188
203
60
159
174
31
140
155
12
138
153
10
227
242
99
196
211
68
132
147
4
166
181
38
137
152
9
179
194
51
205
220
77
162
177
34
166
181
38
158
173
30
159
174
31
166
181
38
140
155
12
139
154
11
202
217
74
199
214
71
157
172
29
132
147
4
166
181
38
133
148
5
197
212
69
162
177
34
167
182
39
166
181
38
188
203
60
185
200
57
140
155
12
134
149
6
200
215
72
201
216
73
155
170
27
160
175
32
166
181
38
160
175
32
164
179
36
143
158
15
185
200
57
163
178
35
165
180
37
148
163
20
143
158
15
138
153
10
171
186
43
153
168
25
147
162
19
139
154
11
170
185
42
186
201
58
140
155
12
158
173
30
199
214
71
166
181
38
136
151
8
147
162
19
133
148
5
205
220
77
207
222
79
177
192
49
161
176
33
140
155
12
171
186
43
159
174
31
160
175
32
136
151
8
206
221
78
160
175
32
142
157
14
139
154
11
196
211
68
211
226
83
201
216
73
146
161
18
166
181
38
162
177
34
205
220
77
163
178
35
141
156
13
175
190
47
162
177
34
186
201
58
170
185
42
168
183
40
182
197
54
195
210
67
155
170
27
161
176
33
182
197
54
157
172
29
142
157
14
147
162
19
168
183
40
132
147
4
164
179
36
146
161
18
199
214
71
159
174
31
142
157
14
215
230
87
157
172
29
165
180
37
147
162
19
166
181
38
138
153
10
200
215
72
162
177
34
154
169
26
159
174
31
168
183
40
198
213
70
186
201
58
148
163
20
159
174
31
206
221
78
130
145
2
199
214
71
187
202
59
169
184
41
166
181
38
162
177
34
189
204
61
184
199
56
187
202
59
162
177
34
155
170
27
162
177
34
165
180
37
195
210
67
139
154
11
211
226
83
163
178
35
130
145
2
165
180
37
165
180
37
166
181
38
159
174
31
142
157
14
147
162
19
167
182
39
144
159
16
171
186
43
153
168
25
134
149
6
154
169
26
123
138
0
164
179
36
159
174
31
157
172
29
151
166
23
138
153
10
134
149
6
122
137
0
207
222
79
227
242
99
162
177
34
139
154
11
141
156
13
197
212
69
211
226
83
143
158
15
204
219
76
176
191
48
182
197
54
140
155
12
211
226
83
210
225
82
138
153
10
205
220
77
167
182
39
160
175
32
186
201
58
212
227
84
167
182
39
147
162
19
159
174
31
134
149
6
155
170
27
