P3
# Created by GIMP version 2.10.36 PNM plug-in
16 16
255
108
171
22
112
175
26
98
161
12
98
161
12
115
178
29
136
199
50
94
157
8
113
176
27
107
170
21
124
187
38
94
157
8
113
176
27
95
158
9
82
145
0
118
181
32
143
206
57
115
178
29
122
185
36
123
186
37
105
168
19
113
176
27
118
181
32
123
186
37
91
154
5
96
159
10
147
210
61
89
152
3
84
147
0
192
255
106
181
244
95
111
174
25
105
168
19
113
176
27
154
217
68
115
178
29
158
221
72
88
151
2
92
155
6
118
181
32
137
200
51
137
200
51
93
156
7
115
178
29
154
217
68
113
176
27
123
186
37
88
151
2
114
177
28
99
162
13
109
172
23
83
146
0
113
176
27
112
175
26
115
178
29
105
168
19
96
159
10
98
161
12
160
223
74
92
155
6
116
179
30
98
161
12
124
187
38
116
179
30
114
177
28
84
147
0
92
155
6
154
217
68
111
174
25
131
194
45
111
174
25
95
158
9
162
225
76
167
230
81
109
172
23
119
182
33
110
173
24
140
203
54
111
174
25
92
155
6
90
153
4
179
242
93
148
211
62
84
147
0
118
181
32
89
152
3
131
194
45
157
220
71
114
177
28
118
181
32
110
173
24
111
174
25
118
181
32
92
155
6
91
154
5
154
217
68
151
214
65
109
172
23
84
147
0
118
181
32
85
148
0
149
212
63
114
177
28
119
182
33
118
181
32
140
203
54
137
200
51
92
155
6
86
149
0
152
215
66
153
216
67
107
170
21
112
175
26
118
181
32
112
175
26
116
179
30
95
158
9
137
200
51
115
178
29
117
180
31
100
163
14
95
158
9
90
153
4
123
186
37
105
168
19
99
162
13
91
154
5
122
185
36
138
201
52
92
155
6
110
173
24
151
214
65
118
181
32
88
151
2
99
162
13
85
148
0
157
220
71
159
222
73
129
192
43
113
176
27
92
155
6
123
186
37
111
174
25
112
175
26
88
151
2
158
221
72
112
175
26
94
157
8
91
154
5
148
211
62
163
226
77
153
216
67
98
161
12
118
181
32
114
177
28
157
220
71
115
178
29
93
156
7
127
190
41
114
177
28
138
201
52
122
185
36
120
183
34
134
197
48
147
210
61
107
170
21
113
176
27
134
197
48
109
172
23
94
157
8
99
162
13
120
183
34
84
147
0
116
179
30
98
161
12
151
214
65
111
174
25
94
157
8
167
230
81
109
172
23
117
180
31
99
162
13
118
181
32
90
153
4
152
215
66
114
177
28
106
169
20
111
174
25
120
183
34
150
213
64
138
201
52
100
163
14
111
174
25
158
221
72
82
145
0
151
214
65
139
202
53
121
184
35
118
181
32
114
177
28
141
204
55
136
199
50
139
202
53
114
177
28
107
170
21
114
177
28
117
180
31
147
210
61
91
154
5
163
226
77
115
178
29
82
145
0
117
180
31
117
180
31
118
181
32
111
174
25
94
157
8
99
162
13
119
182
33
96
159
10
123
186
37
105
168
19
86
149
0
106
169
20
75
138
0
116
179
30
111
174
25
109
172
23
103
166
17
90
153
4
86
149
0
74
137
0
159
222
73
179
242
93
114
177
28
91
154
5
93
156
7
149
212
63
163
226
77
95
158
9
156
219
70
128
191
42
134
197
48
92
155
6
163
226
77
162
225
76
90
153
4
157
220
71
119
182
33
112
175
26
138
201
52
164
227
78
119
182
33
99
162
13
111
174
25
86
149
0
107
170
21
