P3
# Created by GIMP version 2.10.36 PNM plug-in
16 16
255
171
70
71
175
74
75
161
60
61
161
60
61
178
77
78
199
98
99
157
56
57
176
75
76
170
69
70
187
86
87
157
56
57
176
75
76
158
57
58
145
44
45
181
80
81
206
105
106
178
77
78
185
84
85
186
85
86
168
67
68
176
75
76
181
80
81
186
85
86
154
53
54
159
58
59
210
109
110
152
51
52
147
46
47
255
154
155
244
143
144
174
73
74
168
67
68
176
75
76
217
116
117
178
77
78
221
120
121
151
50
51
155
54
55
181
80
81
200
99
100
200
99
100
156
55
56
178
77
78
217
116
117
176
75
76
186
85
86
151
50
51
177
76
77
162
61
62
172
71
72
146
45
46
176
75
76
175
74
75
178
77
78
168
67
68
159
58
59
161
60
61
223
122
123
155
54
55
179
78
79
161
60
61
187
86
87
179
78
79
177
76
77
147
46
47
155
54
55
217
116
117
174
73
74
194
93
94
174
73
74
158
57
58
225
124
125
230
129
130
172
71
72
182
81
82
173
72
73
203
102
103
174
73
74
155
54
55
153
52
53
242
141
142
211
110
111
147
46
47
181
80
81
152
51
52
194
93
94
220
119
120
177
76
77
181
80
81
173
72
73
174
73
74
181
80
81
155
54
55
154
53
54
217
116
117
214
113
114
172
71
72
147
46
47
181
80
81
148
47
48
212
111
112
177
76
77
182
81
82
181
80
81
203
102
103
200
99
100
155
54
55
149
48
49
215
114
115
216
115
116
170
69
70
175
74
75
181
80
81
175
74
75
179
78
79
158
57
58
200
99
100
178
77
78
180
79
80
163
62
63
158
57
58
153
52
53
186
85
86
168
67
68
162
61
62
154
53
54
185
84
85
201
100
101
155
54
55
173
72
73
214
113
114
181
80
81
151
50
51
162
61
62
148
47
48
220
119
120
222
121
122
192
91
92
176
75
76
155
54
55
186
85
86
174
73
74
175
74
75
151
50
51
221
120
121
175
74
75
157
56
57
154
53
54
211
110
111
226
125
126
216
115
116
161
60
61
181
80
81
177
76
77
220
119
120
178
77
78
156
55
56
190
89
90
177
76
77
201
100
101
185
84
85
183
82
83
197
96
97
210
109
110
170
69
70
176
75
76
197
96
97
172
71
72
157
56
57
162
61
62
183
82
83
147
46
47
179
78
79
161
60
61
214
113
114
174
73
74
157
56
57
230
129
130
172
71
72
180
79
80
162
61
62
181
80
81
153
52
53
215
114
115
177
76
77
169
68
69
174
73
74
183
82
83
213
112
113
201
100
101
163
62
63
174
73
74
221
120
121
145
44
45
214
113
114
202
101
102
184
83
84
181
80
81
177
76
77
204
103
104
199
98
99
202
101
102
177
76
77
170
69
70
177
76
77
180
79
80
210
109
110
154
53
54
226
125
126
178
77
78
145
44
45
180
79
80
180
79
80
181
80
81
174
73
74
157
56
57
162
61
62
182
81
82
159
58
59
186
85
86
168
67
68
149
48
49
169
68
69
138
37
38
179
78
79
174
73
74
172
71
72
166
65
66
153
52
53
149
48
49
137
36
37
222
121
122
242
141
142
177
76
77
154
53
54
156
55
56
212
111
112
226
125
126
158
57
58
219
118
119
191
90
91
197
96
97
155
54
55
226
125
126
225
124
125
153
52
53
220
119
120
182
81
82
175
74
75
201
100
101
227
126
127
182
81
82
162
61
62
174
73
74
149
48
49
170
69
70
