P3
# Created by GIMP version 2.10.36 PNM plug-in
16 16
255
171
80
144
175
84
148
161
70
134
161
70
134
178
87
151
199
108
172
157
66
130
176
85
149
170
79
143
187
96
160
157
66
130
176
85
149
158
67
131
145
54
118
181
90
154
206
115
179
178
87
151
185
94
158
186
95
159
168
77
141
176
85
149
181
90
154
186
95
159
154
63
127
159
68
132
210
119
183
152
61
125
147
56
120
255
164
228
244
153
217
174
83
147
168
77
141
176
85
149
217
126
190
178
87
151
221
130
194
151
60
124
155
64
128
181
90
154
200
109
173
200
109
173
156
65
129
178
87
151
217
126
190
176
85
149
186
95
159
151
60
124
177
86
150
162
71
135
172
81
145
146
55
119
176
85
149
175
84
148
178
87
151
168
77
141
159
68
132
161
70
134
255
132
196
155
64
128
179
88
152
161
70
134
187
96
160
179
88
152
177
86
150
147
56
120
155
64
128
217
126
190
174
83
147
194
103
167
174
83
147
158
67
131
225
134
198
230
139
203
172
81
145
182
91
155
173
82
146
203
112
176
174
83
147
155
64
128
153
62
126
242
151
215
211
120
184
147
56
120
181
90
154
152
61
125
194
103
167
220
129
193
177
86
150
181
90
154
173
82
146
174
83
147
181
90
154
155
64
128
154
63
127
217
126
190
214
123
187
172
81
145
147
56
120
181
90
154
148
57
121
212
121
185
177
86
150
182
91
155
181
90
154
203
112
176
200
109
173
155
64
128
149
58
122
215
124
188
216
125
189
170
79
143
175
84
148
181
90
154
175
84
148
179
88
152
158
67
131
200
109
173
178
87
151
180
89
153
163
72
136
158
67
131
153
62
126
186
95
159
168
77
141
162
71
135
154
63
127
185
94
158
201
110
174
155
64
128
173
82
146
214
123
187
181
90
154
151
60
124
162
71
135
148
57
121
220
129
193
222
131
195
192
101
165
176
85
149
155
64
128
186
95
159
174
83
147
175
84
148
151
60
124
221
130
194
175
84
148
157
66
130
154
63
127
211
120
184
226
135
199
216
125
189
161
70
134
181
90
154
177
86
150
220
129
193
178
87
151
156
65
129
190
99
163
177
86
150
201
110
174
185
94
158
183
92
156
197
106
170
210
119
183
170
79
143
176
85
149
197
106
170
172
81
145
157
66
130
162
71
135
183
92
156
147
56
120
179
88
152
161
70
134
214
123
187
174
83
147
157
66
130
230
139
203
172
81
145
180
89
153
162
71
135
181
90
154
153
62
126
215
124
188
177
86
150
169
78
142
174
83
147
183
92
156
213
122
186
201
110
174
163
72
136
174
83
147
221
130
194
145
54
118
214
123
187
202
111
175
184
93
157
181
90
154
177
86
150
204
113
177
199
108
172
202
111
175
177
86
150
170
79
143
177
86
150
180
89
153
210
119
183
154
63
127
226
135
199
178
87
151
145
54
118
180
89
153
180
89
153
181
90
154
174
83
147
157
66
130
162
71
135
182
91
155
159
68
132
186
95
159
168
77
141
149
58
122
169
78
142
138
47
111
179
88
152
174
83
147
172
81
145
166
75
139
153
62
126
149
58
122
137
46
110
222
131
195
242
151
215
177
86
150
154
63
127
156
65
129
212
121
185
226
135
199
158
67
131
219
128
192
191
100
164
197
106
170
155
64
128
226
135
199
225
134
198
153
62
126
220
129
193
182
91
155
175
84
148
201
110
174
227
136
200
182
91
155
162
71
135
174
83
147
149
58
122
170
79
143
