P3
# Created by GIMP version 2.10.36 PNM plug-in
16 16
255
171
118
169
175
122
173
161
108
159
161
108
159
178
125
176
199
146
197
157
104
155
176
123
174
170
117
168
187
134
185
157
104
155
176
123
174
158
105
156
145
92
143
181
128
179
206
153
204
178
125
176
185
132
183
186
133
184
168
115
166
176
123
174
181
128
179
186
133
184
154
101
152
159
106
157
210
157
208
152
99
150
147
94
145
255
202
253
244
191
242
174
121
172
168
115
166
176
123
174
217
164
215
178
125
176
221
168
219
151
98
149
155
102
153
181
128
179
200
147
198
200
147
198
156
103
154
178
125
176
217
164
215
176
123
174
186
133
184
151
98
149
177
124
175
162
109
160
172
119
170
146
93
144
176
123
174
175
122
173
178
125
176
168
115
166
159
106
157
161
108
159
223
170
221
155
102
153
179
126
177
161
108
159
187
134
185
179
126
177
177
124
175
147
94
145
155
102
153
217
164
215
174
121
172
194
141
192
174
121
172
158
105
156
225
172
223
230
177
228
172
119
170
182
129
180
173
120
171
203
150
201
174
121
172
155
102
153
153
100
151
242
189
240
211
158
209
147
94
145
181
128
179
152
99
150
194
141
192
220
167
218
177
124
175
181
128
179
173
120
171
174
121
172
181
128
179
155
102
153
154
101
152
217
164
215
214
161
212
172
119
170
147
94
145
181
128
179
148
95
146
212
159
210
177
124
175
182
129
180
181
128
179
203
150
201
200
147
198
155
102
153
149
96
147
215
162
213
216
163
214
170
117
168
175
122
173
181
128
179
175
122
173
179
126
177
158
105
156
200
147
198
178
125
176
180
127
178
163
110
161
158
105
156
153
100
151
186
133
184
168
115
166
162
109
160
154
101
152
185
132
183
201
148
199
155
102
153
173
120
171
214
161
212
181
128
179
151
98
149
162
109
160
148
95
146
220
167
218
222
169
220
192
139
190
176
123
174
155
102
153
186
133
184
174
121
172
175
122
173
151
98
149
221
168
219
175
122
173
157
104
155
154
101
152
211
158
209
255
173
224
216
163
214
161
108
159
181
128
179
177
124
175
220
167
218
178
125
176
156
103
154
190
137
188
177
124
175
201
148
199
185
132
183
183
130
181
197
144
195
210
157
208
170
117
168
176
123
174
197
144
195
172
119
170
157
104
155
162
109
160
183
130
181
147
94
145
179
126
177
161
108
159
214
161
212
174
121
172
157
104
155
230
177
228
172
119
170
180
127
178
162
109
160
181
128
179
153
100
151
215
162
213
177
124
175
169
116
167
174
121
172
183
130
181
213
160
211
201
148
199
163
110
161
174
121
172
221
168
219
145
92
143
214
161
212
202
149
200
184
131
182
181
128
179
177
124
175
204
151
202
199
146
197
202
149
200
177
124
175
170
117
168
177
124
175
180
127
178
210
157
208
154
101
152
255
173
224
178
125
176
145
92
143
180
127
178
180
127
178
181
128
179
174
121
172
157
104
155
162
109
160
182
129
180
159
106
157
186
133
184
168
115
166
149
96
147
169
116
167
138
85
136
179
126
177
174
121
172
172
119
170
166
113
164
153
100
151
149
96
147
137
84
135
222
169
220
242
189
240
177
124
175
154
101
152
156
103
154
212
159
210
255
173
224
158
105
156
219
166
217
191
138
189
197
144
195
155
102
153
255
173
224
225
172
223
153
100
151
220
167
218
182
129
180
175
122
173
201
148
199
227
174
225
182
129
180
162
109
160
174
121
172
149
96
147
170
117
168
