P3
# Created by GIMP version 2.10.36 PNM plug-in
16 16
255
152
60
171
156
64
175
142
50
161
142
50
161
159
67
178
180
88
199
138
46
157
157
65
176
151
59
170
168
76
187
138
46
157
157
65
176
139
47
158
126
34
145
162
70
181
187
95
206
159
67
178
166
74
185
167
75
186
149
57
168
157
65
176
162
70
181
167
75
186
135
43
154
140
48
159
191
99
210
133
41
152
128
36
147
236
144
255
225
133
244
155
63
174
149
57
168
157
65
176
198
106
217
159
67
178
202
110
221
132
40
151
136
44
155
162
70
181
181
89
200
181
89
200
137
45
156
159
67
178
198
106
217
157
65
176
167
75
186
132
40
151
158
66
177
143
51
162
153
61
172
127
35
146
157
65
176
156
64
175
159
67
178
149
57
168
140
48
159
142
50
161
204
112
223
136
44
155
160
68
179
142
50
161
168
76
187
160
68
179
158
66
177
128
36
147
136
44
155
198
106
217
155
63
174
175
83
194
155
63
174
139
47
158
206
114
225
211
119
230
153
61
172
163
71
182
154
62
173
184
92
203
155
63
174
136
44
155
134
42
153
223
131
242
192
100
211
128
36
147
162
70
181
133
41
152
175
83
194
201
109
220
158
66
177
162
70
181
154
62
173
155
63
174
162
70
181
136
44
155
135
43
154
198
106
217
195
103
214
153
61
172
128
36
147
162
70
181
129
37
148
193
101
212
158
66
177
163
71
182
162
70
181
184
92
203
181
89
200
136
44
155
130
38
149
196
104
215
197
105
216
151
59
170
156
64
175
162
70
181
156
64
175
160
68
179
139
47
158
181
89
200
159
67
178
161
69
180
144
52
163
139
47
158
134
42
153
167
75
186
149
57
168
143
51
162
135
43
154
166
74
185
182
90
201
136
44
155
154
62
173
195
103
214
162
70
181
132
40
151
143
51
162
129
37
148
201
109
220
203
111
222
173
81
192
157
65
176
136
44
155
167
75
186
155
63
174
156
64
175
132
40
151
202
110
221
156
64
175
138
46
157
135
43
154
192
100
211
207
115
226
197
105
216
142
50
161
162
70
181
158
66
177
201
109
220
159
67
178
137
45
156
171
79
190
158
66
177
182
90
201
166
74
185
164
72
183
178
86
197
191
99
210
151
59
170
157
65
176
178
86
197
153
61
172
138
46
157
143
51
162
164
72
183
128
36
147
160
68
179
142
50
161
195
103
214
155
63
174
138
46
157
211
119
230
153
61
172
161
69
180
143
51
162
162
70
181
134
42
153
196
104
215
158
66
177
150
58
169
155
63
174
164
72
183
194
102
213
182
90
201
144
52
163
155
63
174
202
110
221
126
34
145
195
103
214
183
91
202
165
73
184
162
70
181
158
66
177
185
93
204
180
88
199
183
91
202
158
66
177
151
59
170
158
66
177
161
69
180
191
99
210
135
43
154
207
115
226
159
67
178
126
34
145
161
69
180
161
69
180
162
70
181
155
63
174
138
46
157
143
51
162
163
71
182
140
48
159
167
75
186
149
57
168
130
38
149
150
58
169
119
27
138
160
68
179
155
63
174
153
61
172
147
55
166
134
42
153
130
38
149
118
26
137
203
111
222
223
131
242
158
66
177
135
43
154
137
45
156
193
101
212
207
115
226
139
47
158
200
108
219
172
80
191
178
86
197
136
44
155
207
115
226
206
114
225
134
42
153
201
109
220
163
71
182
156
64
175
182
90
201
208
116
227
163
71
182
143
51
162
155
63
174
130
38
149
151
59
170
