P3
# Created by GIMP version 2.10.36 PNM plug-in
16 16
255
171
101
82
175
105
86
161
91
72
161
91
72
178
108
89
199
129
110
157
87
68
176
106
87
170
100
81
187
117
98
157
87
68
176
106
87
158
88
69
145
75
56
181
111
92
206
136
117
178
108
89
185
115
96
186
116
97
168
98
79
176
106
87
181
111
92
186
116
97
154
84
65
159
89
70
210
140
121
152
82
63
147
77
58
255
185
166
244
174
155
174
104
85
168
98
79
176
106
87
217
147
128
178
108
89
221
151
132
151
81
62
155
85
66
181
111
92
200
130
111
200
130
111
156
86
67
178
108
89
217
147
128
176
106
87
186
116
97
151
81
62
177
107
88
162
92
73
172
102
83
146
76
57
176
106
87
175
105
86
178
108
89
168
98
79
159
89
70
161
91
72
223
153
134
155
85
66
179
109
90
161
91
72
187
117
98
179
109
90
177
107
88
147
77
58
155
85
66
217
147
128
174
104
85
194
124
105
174
104
85
158
88
69
225
155
136
230
160
141
172
102
83
182
112
93
173
103
84
203
133
114
174
104
85
155
85
66
153
83
64
242
172
153
211
141
122
147
77
58
181
111
92
152
82
63
194
124
105
220
150
131
177
107
88
181
111
92
173
103
84
174
104
85
181
111
92
155
85
66
154
84
65
217
147
128
214
144
125
172
102
83
147
77
58
181
111
92
148
78
59
212
142
123
177
107
88
182
112
93
181
111
92
203
133
114
200
130
111
155
85
66
149
79
60
215
145
126
216
146
127
170
100
81
175
105
86
181
111
92
175
105
86
179
109
90
158
88
69
200
130
111
178
108
89
180
110
91
163
93
74
158
88
69
153
83
64
186
116
97
168
98
79
162
92
73
154
84
65
185
115
96
201
131
112
155
85
66
173
103
84
214
144
125
181
111
92
151
81
62
162
92
73
148
78
59
220
150
131
255
152
133
192
122
103
176
106
87
155
85
66
186
116
97
174
104
85
175
105
86
151
81
62
221
151
132
175
105
86
157
87
68
154
84
65
211
141
122
226
156
137
216
146
127
161
91
72
181
111
92
177
107
88
220
150
131
178
108
89
156
86
67
190
120
101
177
107
88
201
131
112
185
115
96
183
113
94
197
127
108
210
140
121
170
100
81
176
106
87
197
127
108
172
102
83
157
87
68
162
92
73
183
113
94
147
77
58
179
109
90
161
91
72
214
144
125
174
104
85
157
87
68
230
160
141
172
102
83
180
110
91
162
92
73
181
111
92
153
83
64
215
145
126
177
107
88
169
99
80
174
104
85
183
113
94
213
143
124
201
131
112
163
93
74
174
104
85
221
151
132
145
75
56
214
144
125
202
132
113
184
114
95
181
111
92
177
107
88
204
134
115
199
129
110
202
132
113
177
107
88
170
100
81
177
107
88
180
110
91
210
140
121
154
84
65
226
156
137
178
108
89
145
75
56
180
110
91
180
110
91
181
111
92
174
104
85
157
87
68
162
92
73
182
112
93
159
89
70
186
116
97
168
98
79
149
79
60
169
99
80
138
68
49
179
109
90
174
104
85
172
102
83
166
96
77
153
83
64
149
79
60
137
67
48
255
152
133
242
172
153
177
107
88
154
84
65
156
86
67
212
142
123
226
156
137
158
88
69
219
149
130
191
121
102
197
127
108
155
85
66
226
156
137
225
155
136
153
83
64
220
150
131
182
112
93
175
105
86
201
131
112
227
157
138
182
112
93
162
92
73
174
104
85
149
79
60
170
100
81
