P3
# Created by GIMP version 2.10.36 PNM plug-in
16 16
255
171
59
108
175
63
112
161
49
98
161
49
98
178
66
115
199
87
136
157
45
94
176
64
113
170
58
107
187
75
124
157
45
94
176
64
113
158
46
95
145
33
82
181
69
118
206
94
143
178
66
115
185
73
122
186
74
123
168
56
105
176
64
113
181
69
118
186
74
123
154
42
91
159
47
96
210
98
147
152
40
89
147
35
84
255
143
192
244
132
181
174
62
111
168
56
105
176
64
113
217
105
154
178
66
115
221
109
158
151
39
88
155
43
92
181
69
118
200
88
137
200
88
137
156
44
93
178
66
115
217
105
154
176
64
113
186
74
123
151
39
88
177
65
114
162
50
99
172
60
109
146
34
83
176
64
113
175
63
112
178
66
115
168
56
105
159
47
96
161
49
98
223
111
160
155
43
92
179
67
116
161
49
98
187
75
124
179
67
116
177
65
114
147
35
84
155
43
92
217
105
154
174
62
111
194
82
131
174
62
111
158
46
95
225
113
162
230
118
167
172
60
109
182
70
119
173
61
110
203
91
140
174
62
111
155
43
92
153
41
90
242
130
179
211
99
148
147
35
84
181
69
118
152
40
89
194
82
131
220
108
157
177
65
114
181
69
118
173
61
110
174
62
111
181
69
118
155
43
92
154
42
91
217
105
154
214
102
151
172
60
109
147
35
84
181
69
118
148
36
85
212
100
149
177
65
114
182
70
119
181
69
118
203
91
140
200
88
137
155
43
92
149
37
86
215
103
152
216
104
153
170
58
107
175
63
112
181
69
118
175
63
112
179
67
116
158
46
95
200
88
137
178
66
115
180
68
117
163
51
100
158
46
95
153
41
90
186
74
123
168
56
105
162
50
99
154
42
91
185
73
122
201
89
138
155
43
92
173
61
110
214
102
151
181
69
118
151
39
88
162
50
99
148
36
85
220
108
157
222
110
159
192
80
129
176
64
113
155
43
92
186
74
123
174
62
111
175
63
112
151
39
88
221
109
158
175
63
112
157
45
94
154
42
91
211
99
148
226
114
163
216
104
153
161
49
98
181
69
118
177
65
114
220
108
157
178
66
115
156
44
93
190
78
127
177
65
114
201
89
138
185
73
122
183
71
120
197
85
134
210
98
147
170
58
107
176
64
113
197
85
134
172
60
109
157
45
94
162
50
99
183
71
120
147
35
84
179
67
116
161
49
98
214
102
151
174
62
111
157
45
94
230
118
167
172
60
109
180
68
117
162
50
99
181
69
118
153
41
90
215
103
152
177
65
114
169
57
106
174
62
111
183
71
120
213
101
150
201
89
138
163
51
100
174
62
111
221
109
158
145
33
82
214
102
151
202
90
139
184
72
121
181
69
118
177
65
114
204
92
141
199
87
136
202
90
139
177
65
114
170
58
107
177
65
114
180
68
117
210
98
147
154
42
91
226
114
163
178
66
115
145
33
82
180
68
117
180
68
117
181
69
118
174
62
111
157
45
94
162
50
99
182
70
119
159
47
96
186
74
123
168
56
105
149
37
86
169
57
106
138
26
75
179
67
116
174
62
111
172
60
109
166
54
103
153
41
90
149
37
86
137
25
74
222
110
159
242
130
179
177
65
114
154
42
91
156
44
93
212
100
149
226
114
163
158
46
95
219
107
156
191
79
128
197
85
134
155
43
92
226
114
163
225
113
162
153
41
90
220
108
157
182
70
119
175
63
112
201
89
138
227
115
164
182
70
119
162
50
99
174
62
111
149
37
86
170
58
107
