P3
# Created by GIMP version 2.10.36 PNM plug-in
16 16
255
171
63
164
175
67
168
161
53
154
161
53
154
178
70
171
199
91
192
157
49
150
176
68
169
170
62
163
187
79
180
157
49
150
176
68
169
158
50
151
145
37
138
181
73
174
206
98
199
178
70
171
185
77
178
186
78
179
168
60
161
176
68
169
181
73
174
186
78
179
154
46
147
159
51
152
210
102
203
152
44
145
147
39
140
255
147
248
244
136
237
174
66
167
168
60
161
176
68
169
217
109
210
178
70
171
221
113
214
151
43
144
155
47
148
181
73
174
200
92
193
200
92
193
156
48
149
178
70
171
217
109
210
176
68
169
186
78
179
151
43
144
177
69
170
162
54
155
172
64
165
146
38
139
176
68
169
175
67
168
178
70
171
168
60
161
159
51
152
161
53
154
223
115
216
155
47
148
179
71
172
161
53
154
187
79
180
179
71
172
177
69
170
147
39
140
155
47
148
217
109
210
174
66
167
194
86
187
174
66
167
158
50
151
225
117
218
230
122
223
172
64
165
182
74
175
173
65
166
203
95
196
174
66
167
155
47
148
153
45
146
255
134
235
211
103
204
147
39
140
181
73
174
152
44
145
194
86
187
220
112
213
177
69
170
181
73
174
173
65
166
174
66
167
181
73
174
155
47
148
154
46
147
217
109
210
214
106
207
172
64
165
147
39
140
181
73
174
148
40
141
212
104
205
177
69
170
182
74
175
181
73
174
203
95
196
200
92
193
155
47
148
149
41
142
215
107
208
216
108
209
170
62
163
175
67
168
181
73
174
175
67
168
179
71
172
158
50
151
200
92
193
178
70
171
180
72
173
163
55
156
158
50
151
153
45
146
186
78
179
168
60
161
162
54
155
154
46
147
185
77
178
201
93
194
155
47
148
173
65
166
214
106
207
181
73
174
151
43
144
162
54
155
148
40
141
220
112
213
222
114
215
192
84
185
176
68
169
155
47
148
186
78
179
174
66
167
175
67
168
151
43
144
221
113
214
175
67
168
157
49
150
154
46
147
211
103
204
226
118
219
216
108
209
161
53
154
181
73
174
177
69
170
220
112
213
178
70
171
156
48
149
190
82
183
177
69
170
201
93
194
185
77
178
183
75
176
197
89
190
210
102
203
170
62
163
176
68
169
197
89
190
172
64
165
157
49
150
162
54
155
183
75
176
147
39
140
179
71
172
161
53
154
214
106
207
174
66
167
157
49
150
230
122
223
172
64
165
180
72
173
162
54
155
181
73
174
153
45
146
215
107
208
177
69
170
169
61
162
174
66
167
183
75
176
213
105
206
201
93
194
163
55
156
174
66
167
221
113
214
145
37
138
214
106
207
202
94
195
184
76
177
181
73
174
177
69
170
204
96
197
199
91
192
202
94
195
177
69
170
170
62
163
177
69
170
180
72
173
210
102
203
154
46
147
226
118
219
178
70
171
145
37
138
180
72
173
180
72
173
181
73
174
174
66
167
157
49
150
162
54
155
182
74
175
159
51
152
186
78
179
168
60
161
149
41
142
169
61
162
138
30
131
179
71
172
174
66
167
172
64
165
166
58
159
153
45
146
149
41
142
137
29
130
222
114
215
255
134
235
177
69
170
154
46
147
156
48
149
212
104
205
226
118
219
158
50
151
219
111
212
191
83
184
197
89
190
155
47
148
226
118
219
225
117
218
153
45
146
220
112
213
182
74
175
175
67
168
201
93
194
227
119
220
182
74
175
162
54
155
174
66
167
149
41
142
170
62
163
