P3
# Created by GIMP version 2.10.36 PNM plug-in
16 16
255
171
107
0
175
111
0
161
97
0
161
97
0
178
114
0
199
135
17
157
93
0
176
112
0
170
106
0
187
123
5
157
93
0
176
112
0
158
94
0
145
81
0
181
117
0
206
142
24
178
114
0
185
121
3
186
122
4
168
104
0
176
112
0
181
117
0
186
122
4
154
90
0
159
95
0
210
146
28
152
88
0
147
83
0
255
191
73
244
180
62
174
110
0
168
104
0
176
112
0
217
153
35
178
114
0
221
157
39
151
87
0
155
91
0
181
117
0
200
136
18
200
136
18
156
92
0
178
114
0
217
153
35
176
112
0
186
122
4
151
87
0
177
113
0
162
98
0
172
108
0
146
82
0
176
112
0
175
111
0
178
114
0
168
104
0
159
95
0
161
97
0
223
159
41
155
91
0
179
115
0
161
97
0
187
123
5
179
115
0
177
113
0
147
83
0
155
91
0
217
153
35
174
110
0
194
130
12
174
110
0
158
94
0
225
161
43
230
166
48
172
108
0
182
118
0
173
109
0
203
139
21
174
110
0
155
91
0
153
89
0
242
178
60
211
147
29
147
83
0
181
117
0
152
88
0
194
130
12
220
156
38
177
113
0
181
117
0
173
109
0
174
110
0
181
117
0
155
91
0
154
90
0
217
153
35
214
150
32
172
108
0
147
83
0
181
117
0
148
84
0
212
148
30
177
113
0
182
118
0
181
117
0
203
139
21
200
136
18
155
91
0
149
85
0
215
151
33
216
152
34
170
106
0
175
111
0
181
117
0
175
111
0
179
115
0
158
94
0
200
136
18
178
114
0
180
116
0
163
99
0
158
94
0
153
89
0
186
122
4
168
104
0
162
98
0
154
90
0
185
121
3
201
137
19
155
91
0
173
109
0
214
150
32
181
117
0
151
87
0
162
98
0
148
84
0
220
156
38
222
158
40
192
128
10
176
112
0
155
91
0
186
122
4
174
110
0
175
111
0
151
87
0
221
157
39
175
111
0
157
93
0
154
90
0
211
147
29
226
162
44
216
152
34
161
97
0
181
117
0
177
113
0
220
156
38
178
114
0
156
92
0
190
126
8
177
113
0
201
137
19
185
121
3
183
119
1
197
133
15
210
146
28
170
106
0
176
112
0
197
133
15
172
108
0
157
93
0
162
98
0
183
119
1
147
83
0
179
115
0
161
97
0
214
150
32
174
110
0
157
93
0
230
166
48
172
108
0
180
116
0
162
98
0
181
117
0
153
89
0
215
151
33
177
113
0
169
105
0
174
110
0
183
119
1
213
149
31
201
137
19
163
99
0
174
110
0
221
157
39
145
81
0
214
150
32
202
138
20
184
120
2
181
117
0
177
113
0
255
140
22
199
135
17
202
138
20
177
113
0
170
106
0
177
113
0
180
116
0
210
146
28
154
90
0
226
162
44
178
114
0
145
81
0
180
116
0
180
116
0
181
117
0
174
110
0
157
93
0
162
98
0
182
118
0
159
95
0
186
122
4
168
104
0
149
85
0
169
105
0
138
74
0
179
115
0
174
110
0
172
108
0
166
102
0
153
89
0
149
85
0
137
73
0
222
158
40
242
178
60
177
113
0
154
90
0
156
92
0
212
148
30
226
162
44
158
94
0
219
155
37
191
127
9
197
133
15
155
91
0
226
162
44
225
161
43
153
89
0
220
156
38
182
118
0
175
111
0
201
137
19
227
163
45
182
118
0
162
98
0
174
110
0
149
85
0
170
106
0
