P3
# Created by GIMP version 2.10.36 PNM plug-in
16 16
255
171
67
15
175
71
19
161
57
5
161
57
5
178
74
22
199
95
43
157
53
1
176
72
20
170
66
14
187
83
31
157
53
1
176
72
20
158
54
2
145
41
0
181
77
25
206
102
50
178
74
22
185
81
29
186
82
30
168
64
12
176
72
20
181
77
25
186
82
30
154
50
0
159
55
3
210
106
54
152
48
0
147
43
0
255
151
99
244
140
88
174
70
18
168
64
12
176
72
20
217
113
61
178
74
22
221
117
65
151
47
0
155
51
0
181
77
25
200
96
44
200
96
44
156
52
0
178
74
22
217
113
61
176
72
20
186
82
30
151
47
0
177
73
21
162
58
6
172
68
16
146
42
0
176
72
20
175
71
19
178
74
22
168
64
12
159
55
3
161
57
5
223
119
67
155
51
0
179
75
23
161
57
5
187
83
31
179
75
23
177
73
21
147
43
0
155
51
0
217
113
61
174
70
18
194
90
38
174
70
18
158
54
2
225
121
69
230
126
74
172
68
16
182
78
26
173
69
17
203
99
47
174
70
18
155
51
0
153
49
0
242
138
86
211
107
55
147
43
0
181
77
25
152
48
0
194
90
38
220
116
64
177
73
21
181
77
25
173
69
17
174
70
18
181
77
25
155
51
0
154
50
0
217
113
61
214
110
58
172
68
16
147
43
0
181
77
25
148
44
0
212
108
56
177
73
21
182
78
26
181
77
25
203
99
47
200
96
44
155
51
0
149
45
0
215
111
59
216
112
60
170
66
14
175
71
19
181
77
25
175
71
19
179
75
23
158
54
2
200
96
44
178
74
22
180
76
24
163
59
7
158
54
2
153
49
0
186
82
30
168
64
12
162
58
6
154
50
0
185
81
29
201
97
45
155
51
0
173
69
17
214
110
58
181
77
25
151
47
0
162
58
6
148
44
0
220
116
64
222
118
66
192
88
36
176
72
20
155
51
0
186
82
30
174
70
18
175
71
19
151
47
0
221
117
65
175
71
19
157
53
1
154
50
0
211
107
55
226
122
70
216
112
60
161
57
5
181
77
25
177
73
21
220
116
64
178
74
22
156
52
0
190
86
34
177
73
21
201
97
45
185
81
29
183
79
27
197
93
41
210
106
54
170
66
14
176
72
20
197
93
41
172
68
16
157
53
1
162
58
6
183
79
27
147
43
0
179
75
23
161
57
5
214
110
58
174
70
18
157
53
1
230
126
74
172
68
16
180
76
24
162
58
6
181
77
25
153
49
0
215
111
59
177
73
21
169
65
13
174
70
18
183
79
27
213
109
57
201
97
45
163
59
7
174
70
18
221
117
65
145
41
0
214
110
58
202
98
46
184
80
28
181
77
25
177
73
21
204
100
48
199
95
43
202
98
46
177
73
21
170
66
14
177
73
21
180
76
24
210
106
54
154
50
0
226
122
70
178
74
22
145
41
0
180
76
24
180
76
24
181
77
25
174
70
18
157
53
1
162
58
6
182
78
26
159
55
3
186
82
30
168
64
12
149
45
0
169
65
13
138
34
0
179
75
23
174
70
18
172
68
16
166
62
10
153
49
0
149
45
0
137
33
0
222
118
66
242
138
86
177
73
21
154
50
0
156
52
0
212
108
56
226
122
70
158
54
2
219
115
63
191
87
35
197
93
41
155
51
0
226
122
70
225
121
69
153
49
0
220
116
64
182
78
26
175
71
19
201
97
45
227
123
71
182
78
26
162
58
6
174
70
18
149
45
0
170
66
14
