P3
# Created by GIMP version 2.10.36 PNM plug-in
16 16
255
171
125
75
175
129
79
161
115
65
161
115
65
178
132
82
199
153
103
157
111
61
176
130
80
170
124
74
187
141
91
157
111
61
176
130
80
158
112
62
145
99
49
181
135
85
206
160
110
178
132
82
185
139
89
186
140
90
168
122
72
176
130
80
181
135
85
186
140
90
154
108
58
159
113
63
210
164
114
152
106
56
147
101
51
255
209
159
244
198
148
174
128
78
168
122
72
176
130
80
217
171
121
178
132
82
221
175
125
151
105
55
155
109
59
181
135
85
200
154
104
200
154
104
156
110
60
178
132
82
217
171
121
176
130
80
186
140
90
151
105
55
177
131
81
162
116
66
172
126
76
146
100
50
176
130
80
175
129
79
178
132
82
168
122
72
159
113
63
161
115
65
223
177
127
155
109
59
179
133
83
161
115
65
187
141
91
179
133
83
177
131
81
147
101
51
155
109
59
217
171
121
174
128
78
194
148
98
174
128
78
158
112
62
225
179
129
230
184
134
172
126
76
182
136
86
173
127
77
203
157
107
174
128
78
155
109
59
153
107
57
242
196
146
211
165
115
147
101
51
181
135
85
152
106
56
194
148
98
220
174
124
177
131
81
181
135
85
173
127
77
174
128
78
181
135
85
155
109
59
154
108
58
217
171
121
214
168
118
172
126
76
147
101
51
181
135
85
148
102
52
212
166
116
177
131
81
182
136
86
181
135
85
203
157
107
200
154
104
155
109
59
149
103
53
215
169
119
216
170
120
170
124
74
175
129
79
181
135
85
175
129
79
179
133
83
158
112
62
200
154
104
178
132
82
180
134
84
163
117
67
158
112
62
153
107
57
186
140
90
168
122
72
162
116
66
154
108
58
185
139
89
201
155
105
155
109
59
173
127
77
214
168
118
181
135
85
151
105
55
162
116
66
148
102
52
220
174
124
222
176
126
192
146
96
176
130
80
155
109
59
186
140
90
174
128
78
175
129
79
151
105
55
221
175
125
175
129
79
157
111
61
154
108
58
211
165
115
226
180
130
216
170
120
161
115
65
181
135
85
177
131
81
220
174
124
178
132
82
156
110
60
190
144
94
177
131
81
201
155
105
185
139
89
183
137
87
197
151
101
210
164
114
170
124
74
176
130
80
197
151
101
172
126
76
157
111
61
162
116
66
183
137
87
147
101
51
179
133
83
161
115
65
214
168
118
174
128
78
157
111
61
230
184
134
172
126
76
180
134
84
162
116
66
181
135
85
153
107
57
215
169
119
177
131
81
169
123
73
174
128
78
183
137
87
213
167
117
201
155
105
163
117
67
174
128
78
221
175
125
145
99
49
214
168
118
202
156
106
184
138
88
181
135
85
177
131
81
204
158
108
199
153
103
202
156
106
177
131
81
170
124
74
177
131
81
180
134
84
210
164
114
154
108
58
226
180
130
178
132
82
145
99
49
180
134
84
180
134
84
181
135
85
174
128
78
157
111
61
162
116
66
182
136
86
159
113
63
186
140
90
168
122
72
149
103
53
169
123
73
138
92
42
179
133
83
174
128
78
172
126
76
166
120
70
153
107
57
149
103
53
137
91
41
222
176
126
242
196
146
177
131
81
154
108
58
156
110
60
212
166
116
226
180
130
158
112
62
219
173
123
191
145
95
197
151
101
155
109
59
226
180
130
225
179
129
153
107
57
220
174
124
182
136
86
175
129
79
201
155
105
227
181
131
182
136
86
162
116
66
174
128
78
149
103
53
170
124
74
