P3
# Created by GIMP version 2.10.36 PNM plug-in
16 16
255
171
87
51
175
91
55
161
77
41
161
77
41
178
94
58
199
115
79
157
73
37
176
92
56
170
86
50
187
103
67
157
73
37
176
92
56
158
74
38
145
61
25
181
97
61
255
122
86
178
94
58
185
101
65
186
102
66
168
84
48
176
92
56
181
97
61
186
102
66
154
70
34
159
75
39
210
126
90
152
68
32
147
63
27
255
171
135
244
160
124
174
90
54
168
84
48
176
92
56
217
133
97
178
94
58
221
137
101
151
67
31
155
71
35
181
97
61
200
116
80
200
116
80
156
72
36
178
94
58
217
133
97
176
92
56
186
102
66
151
67
31
177
93
57
162
78
42
172
88
52
146
62
26
176
92
56
175
91
55
178
94
58
168
84
48
159
75
39
161
77
41
223
139
103
155
71
35
179
95
59
161
77
41
187
103
67
179
95
59
177
93
57
147
63
27
155
71
35
217
133
97
174
90
54
194
110
74
174
90
54
158
74
38
225
141
105
230
146
110
172
88
52
182
98
62
173
89
53
203
119
83
174
90
54
155
71
35
153
69
33
242
158
122
211
127
91
147
63
27
181
97
61
152
68
32
194
110
74
220
136
100
177
93
57
181
97
61
173
89
53
174
90
54
181
97
61
155
71
35
154
70
34
217
133
97
214
130
94
172
88
52
147
63
27
181
97
61
148
64
28
212
128
92
177
93
57
182
98
62
181
97
61
203
119
83
200
116
80
155
71
35
149
65
29
215
131
95
216
132
96
170
86
50
175
91
55
181
97
61
175
91
55
179
95
59
158
74
38
200
116
80
178
94
58
180
96
60
163
79
43
158
74
38
153
69
33
186
102
66
168
84
48
162
78
42
154
70
34
185
101
65
201
117
81
155
71
35
173
89
53
214
130
94
181
97
61
151
67
31
162
78
42
148
64
28
220
136
100
222
138
102
192
108
72
176
92
56
155
71
35
186
102
66
174
90
54
175
91
55
151
67
31
221
137
101
175
91
55
157
73
37
154
70
34
211
127
91
226
142
106
216
132
96
161
77
41
181
97
61
177
93
57
220
136
100
178
94
58
156
72
36
190
106
70
177
93
57
201
117
81
185
101
65
183
99
63
197
113
77
210
126
90
170
86
50
176
92
56
197
113
77
172
88
52
157
73
37
162
78
42
183
99
63
147
63
27
179
95
59
161
77
41
214
130
94
174
90
54
157
73
37
230
146
110
172
88
52
180
96
60
162
78
42
181
97
61
153
69
33
215
131
95
177
93
57
169
85
49
174
90
54
183
99
63
213
129
93
201
117
81
163
79
43
174
90
54
221
137
101
145
61
25
214
130
94
202
118
82
184
100
64
181
97
61
177
93
57
204
120
84
199
115
79
202
118
82
177
93
57
170
86
50
177
93
57
180
96
60
210
126
90
154
70
34
226
142
106
178
94
58
145
61
25
180
96
60
180
96
60
181
97
61
174
90
54
157
73
37
162
78
42
182
98
62
159
75
39
186
102
66
168
84
48
149
65
29
169
85
49
138
54
18
179
95
59
174
90
54
172
88
52
166
82
46
153
69
33
149
65
29
137
53
17
222
138
102
242
158
122
177
93
57
154
70
34
156
72
36
212
128
92
226
142
106
158
74
38
219
135
99
191
107
71
197
113
77
155
71
35
226
142
106
225
141
105
153
69
33
220
136
100
182
98
62
175
91
55
201
117
81
227
143
107
182
98
62
162
78
42
174
90
54
149
65
29
170
86
50
