P3
# Created by GIMP version 2.10.36 PNM plug-in
16 16
255
171
86
98
175
90
102
161
76
88
161
76
88
178
93
105
199
114
126
157
72
84
176
91
103
170
85
97
187
102
114
157
72
84
176
91
103
158
73
85
145
60
72
181
96
108
206
121
133
178
93
105
185
100
112
186
101
113
168
83
95
176
91
103
181
96
108
186
101
113
154
69
81
159
74
86
210
125
137
152
67
79
147
62
74
255
170
182
244
159
171
174
89
101
168
83
95
176
91
103
217
132
144
178
93
105
221
136
148
151
66
78
155
70
82
181
96
108
200
115
127
200
115
127
156
71
83
178
93
105
217
132
144
176
91
103
186
101
113
151
66
78
177
92
104
162
77
89
172
87
99
146
61
73
176
91
103
175
90
102
178
93
105
168
83
95
159
74
86
161
76
88
223
138
150
155
70
82
179
94
106
161
76
88
187
102
114
179
94
106
177
92
104
147
62
74
155
70
82
217
132
144
174
89
101
194
109
121
174
89
101
158
73
85
225
140
152
230
145
157
172
87
99
182
97
109
173
88
100
203
118
130
174
89
101
155
70
82
153
68
80
242
157
169
211
126
138
147
62
74
181
96
108
152
67
79
194
109
121
220
135
147
177
92
104
181
96
108
173
88
100
174
89
101
181
96
108
155
70
82
154
69
81
217
132
144
214
129
141
172
87
99
147
62
74
181
96
108
148
63
75
212
127
139
177
92
104
182
97
109
181
96
108
203
118
130
200
115
127
155
70
82
149
64
76
215
130
142
216
131
143
170
85
97
175
90
102
181
96
108
175
90
102
179
94
106
158
73
85
200
115
127
178
93
105
180
95
107
163
78
90
158
73
85
153
68
80
186
101
113
168
83
95
162
77
89
154
69
81
185
100
112
201
116
128
155
70
82
173
88
100
214
129
141
181
96
108
151
66
78
162
77
89
148
63
75
220
135
147
222
137
149
192
107
119
176
91
103
155
70
82
186
101
113
174
89
101
175
90
102
151
66
78
221
136
148
175
90
102
157
72
84
154
69
81
211
126
138
226
141
153
216
131
143
161
76
88
181
96
108
177
92
104
220
135
147
178
93
105
156
71
83
190
105
117
177
92
104
201
116
128
185
100
112
183
98
110
197
112
124
210
125
137
170
85
97
176
91
103
197
112
124
172
87
99
157
72
84
162
77
89
183
98
110
147
62
74
179
94
106
161
76
88
214
129
141
174
89
101
157
72
84
230
145
157
172
87
99
180
95
107
162
77
89
181
96
108
153
68
80
215
130
142
177
92
104
169
84
96
174
89
101
183
98
110
213
128
140
201
116
128
163
78
90
174
89
101
221
136
148
145
60
72
214
129
141
202
117
129
184
99
111
181
96
108
177
92
104
204
119
131
199
114
126
202
117
129
177
92
104
170
85
97
177
92
104
180
95
107
210
125
137
154
69
81
226
141
153
178
93
105
145
60
72
180
95
107
180
95
107
181
96
108
174
89
101
157
72
84
162
77
89
182
97
109
159
74
86
186
101
113
168
83
95
149
64
76
169
84
96
138
53
65
179
94
106
174
89
101
172
87
99
166
81
93
153
68
80
149
64
76
137
52
64
222
137
149
242
157
169
177
92
104
154
69
81
156
71
83
212
127
139
226
141
153
158
73
85
219
134
146
191
106
118
197
112
124
155
70
82
226
141
153
225
140
152
153
68
80
220
135
147
182
97
109
175
90
102
201
116
128
227
142
154
182
97
109
162
77
89
174
89
101
149
64
76
170
85
97
