P3
# Created by GIMP version 2.10.36 PNM plug-in
16 16
255
171
135
148
175
139
152
161
125
138
161
125
138
178
142
155
199
163
176
157
121
134
176
140
153
170
134
147
187
151
164
157
121
134
176
140
153
158
122
135
145
109
122
181
145
158
206
170
183
178
142
155
185
149
162
186
150
163
168
132
145
176
140
153
181
145
158
186
150
163
154
118
131
159
123
136
210
174
187
152
116
129
147
111
124
255
219
232
244
208
221
174
138
151
168
132
145
176
140
153
217
181
194
178
142
155
221
185
198
151
115
128
155
119
132
181
145
158
200
164
177
200
164
177
156
120
133
178
142
155
217
181
194
176
140
153
186
150
163
151
115
128
177
141
154
162
126
139
172
136
149
146
110
123
176
140
153
175
139
152
178
142
155
168
132
145
159
123
136
161
125
138
223
187
200
155
119
132
179
143
156
161
125
138
187
151
164
179
143
156
177
141
154
147
111
124
155
119
132
217
181
194
174
138
151
194
158
171
174
138
151
158
122
135
225
189
202
230
194
255
172
136
149
182
146
159
173
137
150
203
167
180
174
138
151
155
119
132
153
117
130
242
206
219
211
175
188
147
111
124
181
145
158
152
116
129
194
158
171
220
184
197
177
141
154
181
145
158
173
137
150
174
138
151
181
145
158
155
119
132
154
118
131
217
181
194
214
178
191
172
136
149
147
111
124
181
145
158
148
112
125
212
176
189
177
141
154
182
146
159
181
145
158
203
167
180
200
164
177
155
119
132
149
113
126
215
179
192
216
180
193
170
134
147
175
139
152
181
145
158
175
139
152
179
143
156
158
122
135
200
164
177
178
142
155
180
144
157
163
127
140
158
122
135
153
117
130
186
150
163
168
132
145
162
126
139
154
118
131
185
149
162
201
165
178
155
119
132
173
137
150
214
178
191
181
145
158
151
115
128
162
126
139
148
112
125
220
184
197
222
186
199
192
156
169
176
140
153
155
119
132
186
150
163
174
138
151
175
139
152
151
115
128
221
185
198
175
139
152
157
121
134
154
118
131
211
175
188
226
190
203
216
180
193
161
125
138
181
145
158
177
141
154
220
184
197
178
142
155
156
120
133
190
154
167
177
141
154
201
165
178
185
149
162
183
147
160
197
161
174
210
174
187
170
134
147
176
140
153
197
161
174
172
136
149
157
121
134
162
126
139
183
147
160
147
111
124
179
143
156
161
125
138
214
178
191
174
138
151
157
121
134
230
194
255
172
136
149
180
144
157
162
126
139
181
145
158
153
117
130
215
179
192
177
141
154
169
133
146
174
138
151
183
147
160
213
177
190
201
165
178
163
127
140
174
138
151
221
185
198
145
109
122
214
178
191
202
166
179
184
148
161
181
145
158
177
141
154
204
168
181
199
163
176
202
166
179
177
141
154
170
134
147
177
141
154
180
144
157
210
174
187
154
118
131
226
190
203
178
142
155
145
109
122
180
144
157
180
144
157
181
145
158
174
138
151
157
121
134
162
126
139
182
146
159
159
123
136
186
150
163
168
132
145
149
113
126
169
133
146
138
102
115
179
143
156
174
138
151
172
136
149
166
130
143
153
117
130
149
113
126
137
101
114
222
186
199
242
206
219
177
141
154
154
118
131
156
120
133
212
176
189
226
190
203
158
122
135
219
183
196
191
155
168
197
161
174
155
119
132
226
190
203
225
189
202
153
117
130
220
184
197
182
146
159
175
139
152
201
165
178
227
191
204
182
146
159
162
126
139
174
138
151
149
113
126
170
134
147
