P3
# Created by GIMP version 2.10.36 PNM plug-in
16 16
255
171
97
124
175
101
128
161
87
114
161
87
114
178
104
131
199
125
152
157
83
110
176
102
129
170
96
123
187
113
140
157
83
110
176
102
129
158
84
111
145
71
98
181
107
134
206
132
159
178
104
131
185
111
138
186
112
139
168
94
121
176
102
129
181
107
134
186
112
139
154
80
107
159
85
112
210
136
163
152
78
105
147
73
100
255
181
208
244
170
197
174
100
127
168
94
121
176
102
129
217
143
170
178
104
131
221
147
174
151
77
104
155
81
108
181
107
134
200
126
153
200
126
153
156
82
109
178
104
131
217
143
170
176
102
129
186
112
139
151
77
104
177
103
130
162
88
115
172
98
125
146
72
99
176
102
129
175
101
128
178
104
131
168
94
121
159
85
112
161
87
114
223
149
176
155
81
108
179
105
132
161
87
114
187
113
140
179
105
132
177
103
130
147
73
100
155
81
108
217
143
170
174
100
127
194
120
147
174
100
127
158
84
111
225
151
178
230
156
183
172
98
125
182
108
135
173
99
126
203
129
156
174
100
127
155
81
108
153
79
106
242
168
195
211
137
164
147
73
100
181
107
134
152
78
105
194
120
147
220
146
173
177
103
130
181
107
134
173
99
126
174
100
127
181
107
134
155
81
108
154
80
107
217
143
170
214
140
167
172
98
125
147
73
100
181
107
134
148
74
101
212
138
165
177
103
130
182
108
135
181
107
134
203
129
156
200
126
153
155
81
108
149
75
102
215
141
168
216
142
169
170
96
123
175
101
128
181
107
134
175
101
128
179
105
132
158
84
111
200
126
153
178
104
131
180
106
133
163
89
116
158
84
111
153
79
106
186
112
139
168
94
121
162
88
115
154
80
107
185
111
138
201
127
154
155
81
108
173
99
126
214
140
167
181
107
134
151
77
104
162
88
115
148
74
101
220
146
173
222
148
175
192
118
145
176
102
129
155
81
108
186
112
139
174
100
127
175
101
128
151
77
104
221
147
174
175
101
128
157
83
110
154
80
107
211
137
164
226
152
179
216
142
169
161
87
114
181
107
134
177
103
130
220
146
173
178
104
131
156
82
109
190
116
143
177
103
130
201
127
154
185
111
138
183
109
136
197
123
150
210
136
163
170
96
123
176
102
129
197
123
150
172
98
125
157
83
110
162
88
115
183
109
136
147
73
100
179
105
132
161
87
114
214
140
167
174
100
127
157
83
110
230
156
183
172
98
125
180
106
133
162
88
115
181
107
134
153
79
106
215
141
168
177
103
130
169
95
122
174
100
127
183
109
136
213
139
166
201
127
154
163
89
116
174
100
127
221
147
174
145
71
98
214
140
167
202
128
155
184
110
137
181
107
134
177
103
130
204
130
157
199
125
152
202
128
155
177
103
130
170
96
123
177
103
130
180
106
133
210
136
163
154
80
107
226
152
179
178
104
131
145
71
98
180
106
133
180
106
133
181
107
134
174
100
127
157
83
110
162
88
115
182
108
135
159
85
112
186
112
139
168
94
121
149
75
102
169
95
122
138
64
91
179
105
132
174
100
127
172
98
125
166
92
119
153
79
106
149
75
102
137
63
90
222
148
175
242
168
195
177
103
130
154
80
107
156
82
109
212
138
165
226
152
179
158
84
111
219
145
172
191
117
144
197
123
150
155
81
108
226
152
179
225
151
178
153
79
106
220
146
173
182
108
135
175
101
128
201
127
154
227
153
180
182
108
135
162
88
115
174
100
127
149
75
102
170
96
123
