P3
# Created by GIMP version 2.10.36 PNM plug-in
16 16
255
171
77
88
175
81
92
161
67
78
161
67
78
178
84
95
199
105
116
157
63
74
176
82
93
170
76
87
187
93
104
157
63
74
176
82
93
158
64
75
145
51
62
181
87
98
206
112
123
178
84
95
185
91
102
186
92
103
168
74
85
176
82
93
181
87
98
186
92
103
154
60
71
159
65
76
210
116
127
152
58
69
147
53
64
255
161
172
244
150
161
174
80
91
168
74
85
176
82
93
217
123
134
178
84
95
221
127
138
151
57
68
155
61
72
181
87
98
200
106
117
200
106
117
156
62
73
178
84
95
217
123
134
176
82
93
186
92
103
151
57
68
177
83
94
162
68
79
172
78
89
146
52
63
176
82
93
175
81
92
178
84
95
168
74
85
159
65
76
161
67
78
223
129
140
155
61
72
179
85
96
161
67
78
187
93
104
179
85
96
177
83
94
147
53
64
155
61
72
217
123
134
174
80
91
194
100
111
174
80
91
158
64
75
225
131
142
230
136
147
172
78
89
182
88
99
173
79
90
203
109
120
174
80
91
155
61
72
153
59
70
242
148
159
211
117
128
147
53
64
181
87
98
152
58
69
194
100
111
220
126
137
177
83
94
181
87
98
173
79
90
174
80
91
181
87
98
155
61
72
154
60
71
217
123
134
214
120
131
172
78
89
147
53
64
181
87
98
148
54
65
212
118
129
177
83
94
182
88
99
181
87
98
203
109
120
200
106
117
155
61
72
149
55
66
215
121
132
216
122
133
170
76
87
175
81
92
181
87
98
175
81
92
179
85
96
158
64
75
200
106
117
178
84
95
180
86
97
163
69
80
158
64
75
153
59
70
186
92
103
168
74
85
162
68
79
154
60
71
185
91
102
201
107
118
155
61
72
173
79
90
214
120
131
181
87
98
151
57
68
162
68
79
148
54
65
220
126
137
222
128
139
192
98
109
176
82
93
155
61
72
186
92
103
174
80
91
175
81
92
151
57
68
221
127
138
175
81
92
157
63
74
154
60
71
211
117
128
226
132
143
216
122
133
161
67
78
181
87
98
177
83
94
220
126
137
178
84
95
156
62
73
190
96
107
177
83
94
201
107
118
185
91
102
183
89
100
197
103
114
210
116
127
170
76
87
176
82
93
197
103
114
172
78
89
157
63
74
162
68
79
183
89
100
147
53
64
179
85
96
161
67
78
214
120
131
174
80
91
157
63
74
230
136
147
172
78
89
180
86
97
162
68
79
181
87
98
153
59
70
215
121
132
177
83
94
169
75
86
174
80
91
183
89
100
213
119
130
201
107
118
163
69
80
174
80
91
221
127
138
145
51
62
214
120
131
202
108
119
184
90
101
181
87
98
177
83
94
204
110
121
199
105
116
202
108
119
177
83
94
170
76
87
177
83
94
180
86
97
210
116
127
154
60
71
226
132
143
178
84
95
145
51
62
180
86
97
180
86
97
181
87
98
174
80
91
157
63
74
162
68
79
182
88
99
159
65
76
186
92
103
168
74
85
149
55
66
169
75
86
138
44
55
179
85
96
174
80
91
172
78
89
166
72
83
153
59
70
149
55
66
137
43
54
222
128
139
242
148
159
177
83
94
154
60
71
156
62
73
212
118
129
226
132
143
158
64
75
219
125
136
191
97
108
197
103
114
155
61
72
226
132
143
225
131
142
153
59
70
220
126
137
182
88
99
175
81
92
201
107
118
227
133
144
182
88
99
162
68
79
174
80
91
149
55
66
170
76
87
