P3
# Created by GIMP version 2.10.36 PNM plug-in
16 16
255
171
117
62
175
121
66
161
107
52
161
107
52
178
124
69
199
145
90
157
103
48
176
122
67
170
116
61
187
133
78
157
103
48
176
122
67
158
104
49
145
91
36
181
127
72
206
152
97
178
124
69
185
131
76
186
132
77
168
114
59
176
122
67
181
127
72
186
132
77
154
100
45
159
105
50
210
156
101
152
98
43
147
93
38
255
201
146
244
190
135
174
120
65
168
114
59
176
122
67
217
163
108
178
124
69
221
167
112
151
97
42
155
101
46
181
127
72
200
146
91
200
146
91
156
102
47
178
124
69
217
163
108
176
122
67
186
132
77
151
97
42
177
123
68
162
108
53
172
118
63
146
92
37
176
122
67
175
121
66
178
124
69
168
114
59
159
105
50
161
107
52
223
169
114
155
101
46
179
125
70
161
107
52
187
133
78
179
125
70
177
123
68
147
93
38
155
101
46
217
163
108
174
120
65
194
140
85
174
120
65
158
104
49
225
171
116
230
176
121
172
118
63
182
128
73
173
119
64
255
149
94
174
120
65
155
101
46
153
99
44
242
188
133
211
157
102
147
93
38
181
127
72
152
98
43
194
140
85
220
166
111
177
123
68
181
127
72
173
119
64
174
120
65
181
127
72
155
101
46
154
100
45
217
163
108
214
160
105
172
118
63
147
93
38
181
127
72
148
94
39
212
158
103
177
123
68
182
128
73
181
127
72
255
149
94
200
146
91
155
101
46
149
95
40
215
161
106
216
162
107
170
116
61
175
121
66
181
127
72
175
121
66
179
125
70
158
104
49
200
146
91
178
124
69
180
126
71
163
109
54
158
104
49
153
99
44
186
132
77
168
114
59
162
108
53
154
100
45
185
131
76
201
147
92
155
101
46
173
119
64
214
160
105
181
127
72
151
97
42
162
108
53
148
94
39
220
166
111
222
168
113
192
138
83
176
122
67
155
101
46
186
132
77
174
120
65
175
121
66
151
97
42
221
167
112
175
121
66
157
103
48
154
100
45
211
157
102
226
172
117
216
162
107
161
107
52
181
127
72
177
123
68
220
166
111
178
124
69
156
102
47
190
136
81
177
123
68
201
147
92
185
131
76
183
129
74
197
143
88
210
156
101
170
116
61
176
122
67
197
143
88
172
118
63
157
103
48
162
108
53
183
129
74
147
93
38
179
125
70
161
107
52
214
160
105
174
120
65
157
103
48
230
176
121
172
118
63
180
126
71
162
108
53
181
127
72
153
99
44
215
161
106
177
123
68
169
115
60
174
120
65
183
129
74
213
159
104
201
147
92
163
109
54
174
120
65
221
167
112
145
91
36
214
160
105
202
148
93
184
130
75
181
127
72
177
123
68
204
150
95
199
145
90
202
148
93
177
123
68
170
116
61
177
123
68
180
126
71
210
156
101
154
100
45
226
172
117
178
124
69
145
91
36
180
126
71
180
126
71
181
127
72
174
120
65
157
103
48
162
108
53
182
128
73
159
105
50
186
132
77
168
114
59
149
95
40
169
115
60
138
84
29
179
125
70
174
120
65
172
118
63
166
112
57
153
99
44
149
95
40
137
83
28
222
168
113
242
188
133
177
123
68
154
100
45
156
102
47
212
158
103
226
172
117
158
104
49
219
165
110
191
137
82
197
143
88
155
101
46
226
172
117
225
171
116
153
99
44
220
166
111
182
128
73
175
121
66
201
147
92
227
173
118
182
128
73
162
108
53
174
120
65
149
95
40
170
116
61
