P3
# Created by GIMP version 2.10.36 PNM plug-in
16 16
255
147
110
171
151
114
175
137
100
161
137
100
161
154
117
178
175
138
199
133
96
157
152
115
176
146
109
170
163
126
187
133
96
157
152
115
176
134
97
158
121
84
145
157
120
181
182
145
206
154
117
178
161
124
185
162
125
186
144
107
168
152
115
176
157
120
181
162
125
186
130
93
154
135
98
159
186
149
210
128
91
152
123
86
147
231
194
255
220
183
244
150
113
174
144
107
168
152
115
176
193
156
217
154
117
178
197
160
221
127
90
151
131
94
155
157
120
181
176
139
200
176
139
200
132
95
156
154
117
178
193
156
217
152
115
176
162
125
186
127
90
151
153
116
177
138
101
162
148
111
172
122
85
146
152
115
176
151
114
175
154
117
178
144
107
168
135
98
159
137
100
161
199
162
223
131
94
155
155
118
179
137
100
161
163
126
187
155
118
179
153
116
177
123
86
147
131
94
155
193
156
217
150
113
174
170
133
194
150
113
174
134
97
158
201
164
225
206
169
230
148
111
172
158
121
182
149
112
173
179
142
203
150
113
174
131
94
155
129
92
153
218
181
242
187
150
211
123
86
147
157
120
181
128
91
152
170
133
194
196
159
220
153
116
177
157
120
181
149
112
173
150
113
174
157
120
181
131
94
155
130
93
154
193
156
217
190
153
214
148
111
172
123
86
147
157
120
181
124
87
148
188
151
212
153
116
177
158
121
182
157
120
181
179
142
203
176
139
200
131
94
155
125
88
149
191
154
215
192
155
216
146
109
170
151
114
175
157
120
181
151
114
175
155
118
179
134
97
158
176
139
200
154
117
178
156
119
180
139
102
163
134
97
158
129
92
153
162
125
186
144
107
168
138
101
162
130
93
154
161
124
185
177
140
201
131
94
155
149
112
173
190
153
214
157
120
181
127
90
151
138
101
162
124
87
148
196
159
220
198
161
222
168
131
192
152
115
176
131
94
155
162
125
186
150
113
174
151
114
175
127
90
151
197
160
221
151
114
175
133
96
157
130
93
154
187
150
211
202
165
226
192
155
216
137
100
161
157
120
181
153
116
177
196
159
220
154
117
178
132
95
156
166
129
190
153
116
177
177
140
201
161
124
185
159
122
183
173
136
197
186
149
210
146
109
170
152
115
176
173
136
197
148
111
172
133
96
157
138
101
162
159
122
183
123
86
147
155
118
179
137
100
161
190
153
214
150
113
174
133
96
157
206
169
230
148
111
172
156
119
180
138
101
162
157
120
181
129
92
153
191
154
215
153
116
177
145
108
169
150
113
174
159
122
183
189
152
213
177
140
201
139
102
163
150
113
174
197
160
221
121
84
145
190
153
214
178
141
202
160
123
184
157
120
181
153
116
177
180
143
204
175
138
199
178
141
202
153
116
177
146
109
170
153
116
177
156
119
180
186
149
210
130
93
154
202
165
226
154
117
178
121
84
145
156
119
180
156
119
180
157
120
181
150
113
174
133
96
157
138
101
162
158
121
182
135
98
159
162
125
186
144
107
168
125
88
149
145
108
169
114
77
138
155
118
179
150
113
174
148
111
172
142
105
166
129
92
153
125
88
149
113
76
137
198
161
222
218
181
242
153
116
177
130
93
154
132
95
156
188
151
212
202
165
226
134
97
158
195
158
219
167
130
191
173
136
197
131
94
155
202
165
226
201
164
225
129
92
153
196
159
220
158
121
182
151
114
175
177
140
201
203
166
227
158
121
182
138
101
162
150
113
174
125
88
149
146
109
170
