P3
# Created by GIMP version 2.10.36 PNM plug-in
16 16
255
171
116
108
175
120
112
161
106
98
161
106
98
178
123
115
199
144
136
157
102
94
176
121
113
170
115
107
187
132
124
157
102
94
176
121
113
158
103
95
145
90
82
181
126
118
206
151
143
178
123
115
185
130
122
186
131
123
168
113
105
176
121
113
181
126
118
186
131
123
154
99
91
159
104
96
210
155
147
152
97
89
147
92
84
255
200
192
244
189
181
174
119
111
168
113
105
176
121
113
217
162
154
178
123
115
221
166
158
151
96
88
155
100
92
181
126
118
200
145
137
200
145
137
156
101
93
178
123
115
217
162
154
176
121
113
186
131
123
151
96
88
177
122
114
162
107
99
172
117
109
146
91
83
176
121
113
175
120
112
178
123
115
168
113
105
159
104
96
161
106
98
223
168
160
155
100
92
179
124
116
161
106
98
187
132
124
179
124
116
177
122
114
147
92
84
155
100
92
217
162
154
174
119
111
194
139
131
174
119
111
158
103
95
225
170
162
230
175
167
172
117
109
182
127
119
173
118
110
203
148
140
174
119
111
155
100
92
153
98
90
242
187
179
211
156
148
147
92
84
181
126
118
152
97
89
194
139
131
220
165
157
177
122
114
181
126
118
173
118
110
174
119
111
181
126
118
155
100
92
154
99
91
217
162
154
214
159
151
172
117
109
147
92
84
181
126
118
148
93
85
212
157
149
177
122
114
182
127
119
181
126
118
203
148
140
200
145
137
155
100
92
149
94
86
215
160
152
216
161
153
170
115
107
175
120
112
181
126
118
175
120
112
179
124
116
158
103
95
200
145
137
178
123
115
180
125
117
163
108
100
158
103
95
153
98
90
186
131
123
168
113
105
162
107
99
154
99
91
185
130
122
201
146
138
155
100
92
173
118
110
214
159
151
181
126
118
151
96
88
162
107
99
148
93
85
220
165
157
222
167
159
192
137
129
176
121
113
155
100
92
186
131
123
174
119
111
175
120
112
151
96
88
221
166
158
175
120
112
157
102
94
154
99
91
211
156
148
226
171
163
216
161
153
161
106
98
181
126
118
177
122
114
220
165
157
178
123
115
156
101
93
190
135
127
177
122
114
201
146
138
185
130
122
183
128
120
197
142
134
210
155
147
170
115
107
176
121
113
197
142
134
172
117
109
157
102
94
162
107
99
183
128
120
147
92
84
179
124
116
161
106
98
214
159
151
174
119
111
157
102
94
230
175
167
172
117
109
180
125
117
162
107
99
181
126
118
153
98
90
215
160
152
177
122
114
169
114
106
174
119
111
183
128
120
213
158
150
201
146
138
163
108
100
174
119
111
221
166
158
145
90
82
214
159
151
202
147
139
184
129
121
181
126
118
177
122
114
204
149
141
199
144
136
202
147
139
177
122
114
170
115
107
177
122
114
180
125
117
210
155
147
154
99
91
226
171
163
178
123
115
145
90
82
180
125
117
180
125
117
181
126
118
174
119
111
157
102
94
162
107
99
182
127
119
159
104
96
186
131
123
168
113
105
149
94
86
169
114
106
138
83
75
179
124
116
174
119
111
172
117
109
166
111
103
153
98
90
149
94
86
137
82
74
222
167
159
242
187
179
177
122
114
154
99
91
156
101
93
212
157
149
226
171
163
158
103
95
219
164
156
191
136
128
197
142
134
155
100
92
226
171
163
225
170
162
153
98
90
220
165
157
182
127
119
175
120
112
201
146
138
227
172
164
182
127
119
162
107
99
174
119
111
149
94
86
170
115
107
