P3
# Created by GIMP version 2.10.36 PNM plug-in
16 16
255
142
47
106
146
51
110
132
37
96
132
37
96
149
54
113
170
75
134
128
33
92
147
52
111
141
46
105
158
63
122
128
33
92
147
52
111
129
34
93
116
21
80
152
57
116
177
82
141
149
54
113
156
61
120
157
62
121
139
44
103
147
52
111
152
57
116
157
62
121
125
30
89
130
35
94
181
86
145
123
28
87
118
23
82
226
131
190
215
120
179
145
50
109
139
44
103
147
52
111
188
93
152
149
54
113
192
97
156
122
27
86
126
31
90
152
57
116
171
76
135
171
76
135
127
32
91
149
54
113
188
93
152
147
52
111
157
62
121
122
27
86
148
53
112
133
38
97
143
48
107
117
22
81
147
52
111
146
51
110
149
54
113
139
44
103
130
35
94
132
37
96
194
99
158
126
31
90
150
55
114
132
37
96
158
63
122
150
55
114
148
53
112
118
23
82
126
31
90
188
93
152
145
50
109
165
70
129
145
50
109
129
34
93
196
101
160
201
106
165
143
48
107
153
58
117
144
49
108
174
79
138
145
50
109
126
31
90
124
29
88
213
118
177
182
87
146
118
23
82
152
57
116
123
28
87
165
70
129
191
96
155
148
53
112
152
57
116
144
49
108
145
50
109
152
57
116
126
31
90
125
30
89
188
93
152
185
90
149
143
48
107
118
23
82
152
57
116
119
24
83
183
88
147
148
53
112
153
58
117
152
57
116
174
79
138
171
76
135
126
31
90
120
25
84
186
91
150
187
92
151
141
46
105
146
51
110
152
57
116
146
51
110
150
55
114
129
34
93
171
76
135
149
54
113
151
56
115
134
39
98
129
34
93
124
29
88
157
62
121
139
44
103
133
38
97
125
30
89
156
61
120
172
77
136
126
31
90
144
49
108
185
90
149
152
57
116
122
27
86
133
38
97
119
24
83
191
96
155
193
98
157
163
68
127
147
52
111
126
31
90
157
62
121
145
50
109
146
51
110
122
27
86
192
97
156
146
51
110
128
33
92
125
30
89
182
87
146
197
102
161
187
92
151
132
37
96
152
57
116
148
53
112
191
96
155
149
54
113
127
32
91
161
66
125
148
53
112
172
77
136
156
61
120
154
59
118
168
73
132
181
86
145
141
46
105
147
52
111
168
73
132
143
48
107
128
33
92
133
38
97
154
59
118
118
23
82
150
55
114
132
37
96
185
90
149
145
50
109
128
33
92
201
106
165
143
48
107
151
56
115
133
38
97
152
57
116
124
29
88
186
91
150
148
53
112
140
45
104
145
50
109
154
59
118
184
89
148
172
77
136
134
39
98
145
50
109
192
97
156
116
21
80
185
90
149
173
78
137
155
60
119
152
57
116
148
53
112
175
80
139
170
75
134
173
78
137
148
53
112
141
46
105
148
53
112
151
56
115
181
86
145
125
30
89
197
102
161
149
54
113
116
21
80
151
56
115
151
56
115
152
57
116
145
50
109
128
33
92
133
38
97
153
58
117
130
35
94
157
62
121
139
44
103
120
25
84
140
45
104
109
14
73
150
55
114
145
50
109
143
48
107
137
42
101
124
29
88
120
25
84
108
13
72
193
98
157
213
118
177
148
53
112
125
30
89
127
32
91
183
88
147
197
102
161
129
34
93
190
95
154
162
67
126
168
73
132
126
31
90
197
102
161
196
101
160
124
29
88
191
96
155
153
58
117
146
51
110
172
77
136
198
103
162
153
58
117
133
38
97
145
50
109
120
25
84
141
46
105
