P3
# Created by GIMP version 2.10.36 PNM plug-in
16 16
255
123
47
169
127
51
173
113
37
159
113
37
159
130
54
176
151
75
197
109
33
155
128
52
174
122
46
168
139
63
185
109
33
155
128
52
174
110
34
156
97
21
143
133
57
179
158
82
204
130
54
176
137
61
183
138
62
184
120
44
166
128
52
174
133
57
179
138
62
184
106
30
152
111
35
157
162
86
208
104
28
150
99
23
145
207
131
253
196
120
242
126
50
172
120
44
166
128
52
174
169
93
215
130
54
176
173
97
219
103
27
149
107
31
153
133
57
179
152
76
198
152
76
198
108
32
154
130
54
176
169
93
215
128
52
174
138
62
184
103
27
149
129
53
175
114
38
160
124
48
170
98
22
144
128
52
174
127
51
173
130
54
176
120
44
166
111
35
157
113
37
159
175
99
221
107
31
153
131
55
177
113
37
159
139
63
185
131
55
177
129
53
175
99
23
145
107
31
153
169
93
215
126
50
172
146
70
192
126
50
172
110
34
156
177
101
223
182
106
228
124
48
170
134
58
180
125
49
171
155
79
201
126
50
172
107
31
153
105
29
151
194
118
240
163
87
209
99
23
145
133
57
179
104
28
150
146
70
192
172
96
218
129
53
175
133
57
179
125
49
171
126
50
172
133
57
179
107
31
153
106
30
152
169
93
215
166
90
212
124
48
170
99
23
145
133
57
179
100
24
146
164
88
210
129
53
175
134
58
180
133
57
179
155
79
201
152
76
198
107
31
153
101
25
147
167
91
213
168
92
214
122
46
168
127
51
173
133
57
179
127
51
173
131
55
177
110
34
156
152
76
198
130
54
176
132
56
178
115
39
161
110
34
156
105
29
151
138
62
184
120
44
166
114
38
160
106
30
152
137
61
183
153
77
199
107
31
153
125
49
171
166
90
212
133
57
179
103
27
149
114
38
160
100
24
146
172
96
218
174
98
220
144
68
190
128
52
174
107
31
153
138
62
184
126
50
172
127
51
173
103
27
149
173
97
219
127
51
173
109
33
155
106
30
152
163
87
209
178
102
224
168
92
214
113
37
159
133
57
179
129
53
175
172
96
218
130
54
176
108
32
154
142
66
188
129
53
175
153
77
199
137
61
183
135
59
181
149
73
195
162
86
208
122
46
168
128
52
174
149
73
195
124
48
170
109
33
155
114
38
160
135
59
181
99
23
145
131
55
177
113
37
159
166
90
212
126
50
172
109
33
155
182
106
228
124
48
170
132
56
178
114
38
160
133
57
179
105
29
151
167
91
213
129
53
175
121
45
167
126
50
172
135
59
181
165
89
211
153
77
199
115
39
161
126
50
172
173
97
219
97
21
143
166
90
212
154
78
200
136
60
182
133
57
179
129
53
175
156
80
202
151
75
197
154
78
200
129
53
175
122
46
168
129
53
175
132
56
178
162
86
208
106
30
152
178
102
224
130
54
176
97
21
143
132
56
178
132
56
178
133
57
179
126
50
172
109
33
155
114
38
160
134
58
180
111
35
157
138
62
184
120
44
166
101
25
147
121
45
167
90
14
136
131
55
177
126
50
172
124
48
170
118
42
164
105
29
151
101
25
147
89
13
135
174
98
220
194
118
240
129
53
175
106
30
152
108
32
154
164
88
210
178
102
224
110
34
156
171
95
217
143
67
189
149
73
195
107
31
153
178
102
224
177
101
223
105
29
151
172
96
218
134
58
180
127
51
173
153
77
199
179
103
225
134
58
180
114
38
160
126
50
172
101
25
147
122
46
168
