P3
# Created by GIMP version 2.10.36 PNM plug-in
16 16
255
161
46
42
165
50
46
151
36
32
151
36
32
168
53
49
189
74
70
147
32
28
166
51
47
160
45
41
177
62
58
147
32
28
166
51
47
148
33
29
135
20
16
171
56
52
196
81
77
168
53
49
175
60
56
176
61
57
158
43
39
166
51
47
171
56
52
176
61
57
144
29
25
149
34
30
200
85
81
142
27
23
137
22
18
245
130
126
234
119
115
164
49
45
158
43
39
166
51
47
207
92
88
168
53
49
211
96
92
141
26
22
145
30
26
171
56
52
190
75
71
190
75
71
146
31
27
168
53
49
207
92
88
166
51
47
176
61
57
141
26
22
167
52
48
152
37
33
162
47
43
136
21
17
166
51
47
165
50
46
168
53
49
158
43
39
149
34
30
151
36
32
213
98
94
145
30
26
169
54
50
151
36
32
177
62
58
169
54
50
167
52
48
137
22
18
145
30
26
207
92
88
164
49
45
184
69
65
164
49
45
148
33
29
215
100
96
220
105
101
162
47
43
172
57
53
163
48
44
193
78
74
164
49
45
145
30
26
143
28
24
232
117
113
201
86
82
137
22
18
171
56
52
142
27
23
184
69
65
210
95
91
167
52
48
171
56
52
163
48
44
164
49
45
171
56
52
145
30
26
144
29
25
207
92
88
204
89
85
162
47
43
137
22
18
171
56
52
138
23
19
202
87
83
167
52
48
172
57
53
171
56
52
193
78
74
190
75
71
145
30
26
139
24
20
205
90
86
206
91
87
160
45
41
165
50
46
171
56
52
165
50
46
169
54
50
148
33
29
190
75
71
168
53
49
170
55
51
153
38
34
148
33
29
143
28
24
176
61
57
158
43
39
152
37
33
144
29
25
175
60
56
191
76
72
145
30
26
163
48
44
204
89
85
171
56
52
141
26
22
152
37
33
138
23
19
210
95
91
212
97
93
182
67
63
166
51
47
145
30
26
176
61
57
164
49
45
165
50
46
141
26
22
211
96
92
165
50
46
147
32
28
144
29
25
201
86
82
216
101
97
206
91
87
151
36
32
171
56
52
167
52
48
210
95
91
168
53
49
146
31
27
180
65
61
167
52
48
191
76
72
175
60
56
173
58
54
187
72
68
200
85
81
160
45
41
166
51
47
187
72
68
162
47
43
147
32
28
152
37
33
173
58
54
137
22
18
169
54
50
151
36
32
204
89
85
164
49
45
147
32
28
220
105
101
162
47
43
170
55
51
152
37
33
171
56
52
143
28
24
205
90
86
167
52
48
159
44
40
164
49
45
173
58
54
203
88
84
191
76
72
153
38
34
164
49
45
211
96
92
135
20
16
204
89
85
192
77
73
174
59
55
171
56
52
167
52
48
194
79
75
189
74
70
192
77
73
167
52
48
160
45
41
167
52
48
170
55
51
200
85
81
144
29
25
216
101
97
168
53
49
135
20
16
170
55
51
170
55
51
171
56
52
164
49
45
147
32
28
152
37
33
172
57
53
149
34
30
176
61
57
158
43
39
139
24
20
159
44
40
128
13
9
169
54
50
164
49
45
162
47
43
156
41
37
143
28
24
139
24
20
127
12
8
212
97
93
232
117
113
167
52
48
144
29
25
146
31
27
202
87
83
216
101
97
148
33
29
209
94
90
181
66
62
187
72
68
145
30
26
216
101
97
215
100
96
143
28
24
210
95
91
172
57
53
165
50
46
191
76
72
217
102
98
172
57
53
152
37
33
164
49
45
139
24
20
160
45
41
