P3
# Created by GIMP version 2.10.36 PNM plug-in
16 16
255
169
171
171
173
175
175
159
161
161
159
161
161
176
178
178
197
199
199
155
157
157
174
176
176
168
170
170
185
187
187
155
157
157
174
176
176
156
158
158
143
145
145
179
181
181
204
206
206
176
178
178
183
185
185
184
186
186
166
168
168
174
176
176
179
181
181
184
186
186
152
154
154
157
159
159
255
210
210
150
152
152
145
147
147
253
255
255
242
244
244
172
174
174
166
168
168
174
176
176
215
217
217
176
178
178
219
221
221
149
151
151
153
155
155
179
181
181
198
200
200
198
200
200
154
156
156
176
178
178
215
217
217
174
176
176
184
186
186
149
151
151
175
177
177
160
162
162
170
172
172
144
146
146
174
176
176
173
175
175
176
178
178
166
168
168
157
159
159
159
161
161
221
223
223
153
155
155
177
179
179
159
161
161
185
187
187
177
179
179
175
177
177
145
147
147
153
155
155
215
217
217
172
174
174
192
194
194
172
174
174
156
158
158
223
225
225
228
230
230
170
172
172
180
182
182
171
173
173
201
203
203
172
174
174
153
155
155
151
153
153
240
242
242
209
211
211
145
147
147
179
181
181
150
152
152
192
194
194
218
220
220
175
177
177
179
181
181
171
173
173
172
174
174
179
181
181
153
155
155
152
154
154
215
217
217
212
214
214
170
172
172
145
147
147
179
181
181
146
148
148
210
212
212
175
177
177
180
182
182
179
181
181
201
203
203
198
200
200
153
155
155
147
149
149
213
215
215
214
216
216
168
170
170
173
175
175
179
181
181
173
175
175
177
179
179
156
158
158
198
200
200
176
178
178
178
180
180
161
163
163
156
158
158
151
153
153
184
186
186
166
168
168
160
162
162
152
154
154
183
185
185
199
201
201
153
155
155
171
173
173
212
214
214
179
181
181
149
151
151
160
162
162
146
148
148
218
220
220
220
222
222
190
192
192
174
176
176
153
155
155
184
186
186
172
174
174
173
175
175
149
151
151
219
221
221
173
175
175
155
157
157
152
154
154
209
211
211
224
226
226
214
216
216
159
161
161
179
181
181
175
177
177
218
220
220
176
178
178
154
156
156
188
190
190
175
177
177
199
201
201
183
185
185
181
183
183
195
197
197
255
210
210
168
170
170
174
176
176
195
197
197
170
172
172
155
157
157
160
162
162
181
183
183
145
147
147
177
179
179
159
161
161
212
214
214
172
174
174
155
157
157
228
230
230
170
172
172
178
180
180
160
162
162
179
181
181
151
153
153
213
215
215
175
177
177
167
169
169
172
174
174
181
183
183
211
213
213
199
201
201
161
163
163
172
174
174
219
221
221
143
145
145
212
214
214
200
202
202
182
184
184
179
181
181
175
177
177
202
204
204
197
199
199
200
202
202
175
177
177
168
170
170
175
177
177
178
180
180
255
210
210
152
154
154
224
226
226
176
178
178
143
145
145
178
180
180
178
180
180
179
181
181
172
174
174
155
157
157
160
162
162
180
182
182
157
159
159
184
186
186
166
168
168
147
149
149
167
169
169
136
138
138
177
179
179
172
174
174
170
172
172
164
166
166
151
153
153
147
149
149
135
137
137
220
222
222
240
242
242
175
177
177
152
154
154
154
156
156
210
212
212
224
226
226
156
158
158
217
219
219
189
191
191
195
197
197
153
155
155
224
226
226
223
225
225
151
153
153
218
220
220
180
182
182
173
175
175
199
201
201
225
227
227
180
182
182
160
162
162
172
174
174
147
149
149
168
170
170
