P3
# Created by GIMP version 2.10.36 PNM plug-in
16 16
255
171
156
87
175
160
91
161
146
77
161
146
77
178
163
94
199
184
115
157
142
73
176
161
92
170
155
86
187
172
103
157
142
73
176
161
92
158
143
74
145
130
61
181
166
97
255
191
122
178
163
94
185
170
101
186
171
102
168
153
84
176
161
92
181
166
97
186
171
102
154
139
70
159
144
75
210
195
126
152
137
68
147
132
63
255
240
171
244
229
160
174
159
90
168
153
84
176
161
92
217
202
133
178
163
94
221
255
137
151
136
67
155
140
71
181
166
97
200
185
116
200
185
116
156
141
72
178
163
94
217
202
133
176
161
92
186
171
102
151
136
67
177
162
93
162
147
78
172
157
88
146
131
62
176
161
92
175
160
91
178
163
94
168
153
84
159
144
75
161
146
77
223
208
139
155
140
71
179
164
95
161
146
77
187
172
103
179
164
95
177
162
93
147
132
63
155
140
71
217
202
133
174
159
90
194
179
110
174
159
90
158
143
74
225
210
141
230
215
146
172
157
88
182
167
98
173
158
89
203
188
119
174
159
90
155
140
71
153
138
69
242
227
158
211
196
127
147
132
63
181
166
97
152
137
68
194
179
110
220
205
136
177
162
93
181
166
97
173
158
89
174
159
90
181
166
97
155
140
71
154
139
70
217
202
133
214
199
130
172
157
88
147
132
63
181
166
97
148
133
64
212
197
128
177
162
93
182
167
98
181
166
97
203
188
119
200
185
116
155
140
71
149
134
65
215
200
131
216
201
132
170
155
86
175
160
91
181
166
97
175
160
91
179
164
95
158
143
74
200
185
116
178
163
94
180
165
96
163
148
79
158
143
74
153
138
69
186
171
102
168
153
84
162
147
78
154
139
70
185
170
101
201
186
117
155
140
71
173
158
89
214
199
130
181
166
97
151
136
67
162
147
78
148
133
64
220
205
136
222
207
138
192
177
108
176
161
92
155
140
71
186
171
102
174
159
90
175
160
91
151
136
67
221
255
137
175
160
91
157
142
73
154
139
70
211
196
127
226
211
142
216
201
132
161
146
77
181
166
97
177
162
93
220
205
136
178
163
94
156
141
72
190
175
106
177
162
93
201
186
117
185
170
101
183
168
99
197
182
113
210
195
126
170
155
86
176
161
92
197
182
113
172
157
88
157
142
73
162
147
78
183
168
99
147
132
63
179
164
95
161
146
77
214
199
130
174
159
90
157
142
73
230
215
146
172
157
88
180
165
96
162
147
78
181
166
97
153
138
69
215
200
131
177
162
93
169
154
85
174
159
90
183
168
99
213
198
129
201
186
117
163
148
79
174
159
90
221
255
137
145
130
61
214
199
130
202
187
118
184
169
100
181
166
97
177
162
93
204
189
120
199
184
115
202
187
118
177
162
93
170
155
86
177
162
93
180
165
96
210
195
126
154
139
70
226
211
142
178
163
94
145
130
61
180
165
96
180
165
96
181
166
97
174
159
90
157
142
73
162
147
78
182
167
98
159
144
75
186
171
102
168
153
84
149
134
65
169
154
85
138
123
54
179
164
95
174
159
90
172
157
88
166
151
82
153
138
69
149
134
65
137
122
53
222
207
138
242
227
158
177
162
93
154
139
70
156
141
72
212
197
128
226
211
142
158
143
74
219
204
135
191
176
107
197
182
113
155
140
71
226
211
142
225
210
141
153
138
69
220
205
136
182
167
98
175
160
91
201
186
117
227
212
143
182
167
98
162
147
78
174
159
90
149
134
65
170
155
86
