P3
# Created by GIMP version 2.10.36 PNM plug-in
16 16
255
171
138
0
175
142
4
161
128
0
161
128
0
178
145
7
199
166
28
157
124
0
176
143
5
170
137
0
187
154
16
157
124
0
176
143
5
158
125
0
145
112
0
181
148
10
206
173
35
178
145
7
185
152
14
186
153
15
168
135
0
176
143
5
181
148
10
186
153
15
154
121
0
159
126
0
210
177
39
152
119
0
147
114
0
255
222
84
244
211
73
174
141
3
168
135
0
176
143
5
217
184
46
178
145
7
221
188
50
151
118
0
155
122
0
181
148
10
200
167
29
200
167
29
156
123
0
178
145
7
217
184
46
176
143
5
186
153
15
151
118
0
177
144
6
162
129
0
172
139
1
146
113
0
176
143
5
175
142
4
178
145
7
168
135
0
159
126
0
161
128
0
223
190
52
155
122
0
179
146
8
161
128
0
187
154
16
179
146
8
177
144
6
147
114
0
155
122
0
217
184
46
174
141
3
194
161
23
174
141
3
158
125
0
225
192
54
230
197
59
172
139
1
182
149
11
173
140
2
203
170
32
174
141
3
155
122
0
153
120
0
242
209
71
211
178
40
147
114
0
181
148
10
152
119
0
194
161
23
220
187
49
177
144
6
181
148
10
173
140
2
174
141
3
181
148
10
155
122
0
154
121
0
217
184
46
214
181
43
172
139
1
147
114
0
181
148
10
148
115
0
212
179
41
177
144
6
182
149
11
181
148
10
203
170
32
200
167
29
155
122
0
149
116
0
215
182
44
216
183
45
170
137
0
175
142
4
181
148
10
175
142
4
179
146
8
158
125
0
200
167
29
178
145
7
180
147
9
163
130
0
158
125
0
153
120
0
186
153
15
168
135
0
162
129
0
154
121
0
185
152
14
201
168
30
155
122
0
173
140
2
214
181
43
181
148
10
151
118
0
162
129
0
148
115
0
220
187
49
222
189
51
192
159
21
176
143
5
155
122
0
186
153
15
174
141
3
175
142
4
151
118
0
221
188
50
175
142
4
157
124
0
154
121
0
211
178
40
226
193
55
216
183
45
161
128
0
181
148
10
177
144
6
220
187
49
178
145
7
156
123
0
190
157
19
177
144
6
201
168
30
185
152
14
183
150
12
197
164
26
210
177
39
170
137
0
176
143
5
197
164
26
172
139
1
157
124
0
162
129
0
183
150
12
147
114
0
179
146
8
161
128
0
214
181
43
174
141
3
157
124
0
230
197
59
172
139
1
180
147
9
162
129
0
181
148
10
153
120
0
215
182
44
177
144
6
169
136
0
174
141
3
183
150
12
213
180
42
201
168
30
163
130
0
174
141
3
221
188
50
145
112
0
214
181
43
255
169
31
184
151
13
181
148
10
177
144
6
204
171
33
199
166
28
255
169
31
177
144
6
170
137
0
177
144
6
180
147
9
210
177
39
154
121
0
226
193
55
178
145
7
145
112
0
180
147
9
180
147
9
181
148
10
174
141
3
157
124
0
162
129
0
182
149
11
159
126
0
186
153
15
168
135
0
149
116
0
169
136
0
138
105
0
179
146
8
174
141
3
172
139
1
166
133
0
153
120
0
149
116
0
137
104
0
222
189
51
242
209
71
177
144
6
154
121
0
156
123
0
212
179
41
226
193
55
158
125
0
219
186
48
191
158
20
197
164
26
155
122
0
226
193
55
225
192
54
153
120
0
220
187
49
182
149
11
175
142
4
201
168
30
227
194
56
182
149
11
162
129
0
174
141
3
149
116
0
170
137
0
