P3
# Created by GIMP version 2.10.36 PNM plug-in
16 16
255
97
97
97
97
97
97
97
97
97
97
97
97
97
97
97
97
97
97
97
97
97
97
97
97
97
97
97
97
97
97
97
97
97
97
97
97
97
97
97
97
97
97
97
97
97
97
97
97
97
97
97
97
97
97
97
97
97
97
97
97
97
97
97
97
97
97
97
97
97
97
97
97
97
97
97
97
97
97
97
97
97
97
97
97
147
147
147
97
97
97
97
97
97
97
97
97
97
97
97
97
97
97
97
97
97
97
97
97
97
97
97
126
126
126
97
97
97
97
97
97
97
97
97
97
97
97
97
97
97
147
147
147
85
85
85
126
126
126
97
97
97
97
97
97
97
97
97
97
97
97
97
97
97
97
97
97
126
126
126
85
85
85
126
126
126
97
97
97
126
126
126
97
97
97
97
97
97
71
71
71
108
108
108
58
58
58
97
97
97
97
97
97
97
97
97
97
97
97
97
97
97
97
97
97
85
85
85
126
126
126
71
71
71
85
85
85
71
71
71
85
85
85
97
97
97
147
147
147
58
58
58
126
126
126
97
97
97
97
97
97
97
97
97
97
97
97
97
97
97
97
97
97
126
126
126
58
58
58
108
108
108
58
58
58
85
85
85
58
58
58
97
97
97
71
71
71
108
108
108
58
58
58
97
97
97
97
97
97
97
97
97
147
147
147
71
71
71
126
126
126
85
85
85
108
108
108
58
58
58
71
71
71
58
58
58
71
71
71
97
97
97
126
126
126
58
58
58
108
108
108
97
97
97
97
97
97
97
97
97
71
71
71
85
85
85
58
58
58
108
108
108
58
58
58
71
71
71
58
58
58
85
85
85
58
58
58
97
97
97
58
58
58
71
71
71
58
58
58
97
97
97
97
97
97
97
97
97
147
147
147
58
58
58
108
108
108
58
58
58
108
108
108
97
97
97
58
58
58
97
97
97
147
147
147
97
97
97
108
108
108
58
58
58
108
108
108
97
97
97
97
97
97
97
97
97
71
71
71
85
85
85
58
58
58
71
71
71
97
97
97
147
147
147
97
97
97
126
126
126
85
85
85
108
108
108
58
58
58
71
71
71
58
58
58
97
97
97
97
97
97
97
97
97
108
108
108
58
58
58
85
85
85
97
97
97
147
147
147
126
126
126
147
147
147
58
58
58
108
108
108
58
58
58
97
97
97
58
58
58
97
97
97
97
97
97
97
97
97
97
97
97
58
58
58
71
71
71
58
58
58
97
97
97
85
85
85
108
108
108
85
85
85
85
85
85
58
58
58
97
97
97
97
97
97
97
97
97
97
97
97
97
97
97
97
97
97
97
97
97
97
97
97
58
58
58
97
97
97
97
97
97
126
126
126
85
85
85
126
126
126
58
58
58
97
97
97
58
58
58
97
97
97
97
97
97
97
97
97
97
97
97
97
97
97
97
97
97
97
97
97
97
97
97
97
97
97
97
97
97
97
97
97
108
108
108
97
97
97
97
97
97
58
58
58
97
97
97
97
97
97
97
97
97
97
97
97
97
97
97
97
97
97
97
97
97
97
97
97
97
97
97
97
97
97
97
97
97
97
97
97
97
97
97
97
97
97
97
97
97
97
97
97
97
97
97
97
97
97
97
97
97
97
97
97
97
97
97
97
97
97
97
97
97
97
97
97
97
97
97
97
97
97
97
97
97
97
97
97
97
97
97
97
97
97
97
97
97
97
97
97
97
97
97
97
97
97
97
97
97
97
97
97
97
97
97
97
97
97
