P3
# Created by GIMP version 2.10.36 PNM plug-in
16 16
255
167
167
167
142
142
142
156
156
156
155
155
155
128
128
128
174
174
174
159
159
159
152
152
152
177
177
177
156
156
156
171
171
171
152
152
152
121
121
121
164
164
164
149
149
149
138
138
138
144
144
144
163
163
163
181
181
181
142
142
142
193
193
193
180
180
180
158
158
158
153
153
153
138
138
138
161
161
161
179
179
179
138
138
138
186
186
186
172
172
172
152
152
152
140
140
140
143
143
143
187
187
187
148
148
148
153
153
153
184
184
184
149
149
149
147
147
147
148
148
148
142
142
142
187
187
187
148
148
148
153
153
153
184
184
184
149
149
149
147
147
147
142
142
142
151
151
151
153
153
153
126
126
126
160
160
160
138
138
138
135
135
135
144
144
144
122
122
122
158
158
158
155
155
155
129
129
129
157
157
157
134
134
134
128
128
128
138
138
138
109
109
109
164
164
164
135
135
135
167
167
167
161
161
161
142
142
142
164
164
164
156
156
156
124
124
124
172
172
172
125
125
125
159
159
159
152
152
152
135
135
135
154
154
154
147
147
147
108
108
108
134
134
134
156
156
156
170
170
170
138
138
138
149
149
149
151
151
151
122
122
122
145
145
145
134
134
134
156
156
156
170
170
170
138
138
138
149
149
149
152
152
152
123
123
123
138
138
138
124
124
124
167
167
167
131
131
131
131
131
131
142
142
142
123
123
123
124
124
124
169
169
169
129
129
129
170
170
170
129
129
129
127
127
127
139
139
139
121
121
121
117
117
117
156
156
156
169
169
169
173
173
173
138
138
138
153
153
153
132
132
132
118
118
118
164
164
164
178
178
178
168
168
168
162
162
162
130
130
130
147
147
147
130
130
130
115
115
115
161
161
161
168
168
168
179
179
179
157
157
157
170
170
170
163
163
163
133
133
133
174
174
174
159
159
159
153
153
153
178
178
178
157
157
157
170
170
170
164
164
164
132
132
132
173
173
173
160
160
160
146
146
146
124
124
124
152
152
152
168
168
168
128
128
128
179
179
179
166
166
166
145
145
145
137
137
137
128
128
128
154
154
154
166
166
166
125
125
125
169
169
169
156
156
156
142
142
142
127
127
127
144
144
144
199
199
199
161
161
161
167
167
167
196
196
196
161
161
161
159
159
159
155
155
155
148
148
148
194
194
194
154
154
154
153
153
153
184
184
184
149
149
149
147
147
147
141
141
141
167
167
167
161
161
161
136
136
136
170
170
170
149
149
149
144
144
144
154
154
154
129
129
129
164
164
164
161
161
161
136
136
136
170
170
170
148
148
148
144
144
144
154
154
154
119
119
119
151
151
151
115
115
115
149
149
149
142
142
142
125
125
125
144
144
144
142
142
142
109
109
109
158
158
158
119
119
119
144
144
144
138
138
138
121
121
121
138
138
138
135
135
135
95
95
95
136
136
136
169
169
169
179
179
179
147
147
147
161
161
161
164
164
164
135
135
135
155
155
155
142
142
142
155
155
155
170
170
170
138
138
138
149
149
149
152
152
152
123
123
123
134
134
134
137
137
137
177
177
177
142
142
142
140
140
140
152
152
152
135
135
135
131
131
131
175
175
175
136
136
136
177
177
177
142
142
142
140
140
140
152
152
152
135
135
135
131
131
131
164
164
164
158
158
158
153
153
153
120
120
120
136
136
136
118
118
118
103
103
103
149
149
149
163
163
163
160
160
160
156
156
156
123
123
123
139
139
139
113
113
113
99
99
99
145
145
145
154
154
154
