P3
# Created by GIMP version 2.10.30 PNM plug-in
16 16
255
47
49
54
64
66
71
51
53
58
46
48
53
61
63
68
70
72
77
49
51
56
52
54
59
56
58
63
65
67
72
65
67
72
46
48
53
44
46
51
52
54
59
52
54
59
40
42
47
63
65
70
40
42
47
40
42
47
41
43
48
36
38
43
25
27
32
37
39
44
40
42
47
43
45
50
47
49
54
43
45
50
22
24
29
39
41
46
47
49
54
36
38
43
11
13
18
59
61
66
33
35
40
46
48
53
36
38
43
27
29
34
23
25
30
38
40
45
38
40
45
46
48
53
40
42
47
33
35
40
30
32
37
36
38
43
47
49
54
33
35
40
14
16
21
52
54
59
33
35
40
47
49
54
51
53
58
33
35
40
26
28
33
36
38
43
38
40
45
49
51
56
40
42
47
33
35
40
45
47
52
39
41
46
50
52
57
31
33
38
7
9
14
52
54
59
42
44
49
41
43
48
38
40
45
33
35
40
42
44
49
38
40
45
39
41
46
42
44
49
33
35
40
48
50
55
51
53
58
46
48
53
37
39
44
27
29
34
19
21
26
58
60
65
40
42
47
42
44
49
27
29
34
41
43
48
42
44
49
40
42
47
30
32
37
33
35
40
42
44
49
47
49
54
49
51
56
40
42
47
23
25
30
34
36
41
19
21
26
59
61
66
37
39
44
38
40
45
43
45
50
47
49
54
47
49
54
47
49
54
33
35
40
23
25
30
54
56
61
52
54
59
47
49
54
33
35
40
23
25
30
33
35
40
14
16
21
48
50
55
10
12
17
10
12
17
45
47
52
33
35
40
25
27
32
15
17
22
0
2
7
17
19
24
28
30
35
31
33
38
19
21
26
11
13
18
7
9
14
25
27
32
26
28
33
56
58
63
52
54
59
65
67
72
68
70
75
64
66
71
64
66
71
46
48
53
52
54
59
56
58
63
65
67
72
65
67
72
61
63
68
68
70
75
61
63
68
64
66
71
33
35
40
46
48
53
41
43
48
47
49
54
42
44
49
45
47
52
39
41
46
37
39
44
50
52
57
40
42
47
38
40
45
23
25
30
42
44
49
43
45
50
42
44
49
30
32
37
0
2
7
40
42
47
47
49
54
47
49
54
35
37
42
33
35
40
28
30
35
36
38
43
51
53
58
41
43
48
38
40
45
24
26
31
28
30
35
42
44
49
35
37
42
19
21
26
20
22
27
50
52
57
35
37
42
45
47
52
47
49
54
31
33
38
43
45
50
37
39
44
46
48
53
47
49
54
34
36
41
42
44
49
50
52
57
47
49
54
23
25
30
25
27
32
24
26
31
55
57
62
30
32
37
46
48
53
36
38
43
40
42
47
40
42
47
36
38
43
46
48
53
43
45
50
36
38
43
43
45
50
47
49
54
31
33
38
19
21
26
44
46
51
15
17
22
54
56
61
31
33
38
29
31
36
36
38
43
53
55
60
35
37
42
28
30
35
38
40
45
33
35
40
46
48
53
47
49
54
45
47
52
33
35
40
35
37
42
28
30
35
17
19
24
60
62
67
30
32
37
24
26
31
51
53
58
49
51
56
30
32
37
20
22
27
41
43
48
36
38
43
43
45
50
44
46
51
38
40
45
28
30
35
33
35
40
33
35
40
14
16
21
46
48
53
3
5
10
15
17
22
28
30
35
25
27
32
25
27
32
14
16
21
24
26
31
14
16
21
19
21
26
12
14
19
0
2
7
16
18
23
14
16
21
11
13
18
0
2
7
