P3
# Created by GIMP version 2.10.30 PNM plug-in
16 16
255
80
83
177
97
100
194
84
87
181
79
82
176
94
97
191
103
106
200
82
85
179
85
88
182
89
92
186
98
101
195
98
101
195
79
82
176
77
80
174
85
88
182
85
88
182
73
76
170
96
99
193
73
76
170
73
76
170
74
77
171
69
72
166
58
61
155
70
73
167
73
76
170
76
79
173
80
83
177
76
79
173
55
58
152
72
75
169
80
83
177
69
72
166
44
47
141
92
95
189
66
69
163
79
82
176
69
72
166
60
63
157
56
59
153
71
74
168
71
74
168
79
82
176
73
76
170
66
69
163
63
66
160
69
72
166
80
83
177
66
69
163
47
50
144
85
88
182
66
69
163
80
83
177
84
87
181
66
69
163
59
62
156
69
72
166
71
74
168
82
85
179
73
76
170
66
69
163
78
81
175
72
75
169
83
86
180
64
67
161
40
43
137
85
88
182
75
78
172
74
77
171
71
74
168
66
69
163
75
78
172
71
74
168
72
75
169
75
78
172
66
69
163
81
84
178
84
87
181
79
82
176
70
73
167
60
63
157
52
55
149
91
94
188
73
76
170
75
78
172
60
63
157
74
77
171
75
78
172
73
76
170
63
66
160
66
69
163
75
78
172
80
83
177
82
85
179
73
76
170
56
59
153
67
70
164
52
55
149
92
95
189
70
73
167
71
74
168
76
79
173
80
83
177
80
83
177
80
83
177
66
69
163
56
59
153
87
90
184
85
88
182
80
83
177
66
69
163
56
59
153
66
69
163
47
50
144
81
84
178
43
46
140
43
46
140
78
81
175
66
69
163
58
61
155
48
51
145
33
36
130
50
53
147
61
64
158
64
67
161
52
55
149
44
47
141
40
43
137
58
61
155
59
62
156
89
92
186
85
88
182
98
101
195
101
104
198
97
100
194
97
100
194
79
82
176
85
88
182
89
92
186
98
101
195
98
101
195
94
97
191
101
104
198
94
97
191
97
100
194
66
69
163
79
82
176
74
77
171
80
83
177
75
78
172
78
81
175
72
75
169
70
73
167
83
86
180
73
76
170
71
74
168
56
59
153
75
78
172
76
79
173
75
78
172
63
66
160
33
36
130
73
76
170
80
83
177
80
83
177
68
71
165
66
69
163
61
64
158
69
72
166
84
87
181
74
77
171
71
74
168
57
60
154
61
64
158
75
78
172
68
71
165
52
55
149
53
56
150
83
86
180
68
71
165
78
81
175
80
83
177
64
67
161
76
79
173
70
73
167
79
82
176
80
83
177
67
70
164
75
78
172
83
86
180
80
83
177
56
59
153
58
61
155
57
60
154
88
91
185
63
66
160
79
82
176
69
72
166
73
76
170
73
76
170
69
72
166
79
82
176
76
79
173
69
72
166
76
79
173
80
83
177
64
67
161
52
55
149
77
80
174
48
51
145
87
90
184
64
67
161
62
65
159
69
72
166
86
89
183
68
71
165
61
64
158
71
74
168
66
69
163
79
82
176
80
83
177
78
81
175
66
69
163
68
71
165
61
64
158
50
53
147
93
96
190
63
66
160
57
60
154
84
87
181
82
85
179
63
66
160
53
56
150
74
77
171
69
72
166
76
79
173
77
80
174
71
74
168
61
64
158
66
69
163
66
69
163
47
50
144
79
82
176
36
39
133
48
51
145
61
64
158
58
61
155
58
61
155
47
50
144
57
60
154
47
50
144
52
55
149
45
48
142
33
36
130
49
52
146
47
50
144
44
47
141
33
36
130
