P3
# Created by GIMP version 2.10.30 PNM plug-in
16 16
255
136
95
63
153
112
80
140
99
67
135
94
62
150
109
77
159
118
86
138
97
65
141
100
68
145
104
72
154
113
81
154
113
81
135
94
62
133
92
60
141
100
68
141
100
68
129
88
56
152
111
79
129
88
56
129
88
56
130
89
57
125
84
52
114
73
41
126
85
53
129
88
56
132
91
59
136
95
63
132
91
59
111
70
38
128
87
55
136
95
63
125
84
52
100
59
27
148
107
75
122
81
49
135
94
62
125
84
52
116
75
43
112
71
39
127
86
54
127
86
54
135
94
62
129
88
56
122
81
49
119
78
46
125
84
52
136
95
63
122
81
49
103
62
30
141
100
68
122
81
49
136
95
63
140
99
67
122
81
49
115
74
42
125
84
52
127
86
54
138
97
65
129
88
56
122
81
49
134
93
61
128
87
55
139
98
66
120
79
47
96
55
23
141
100
68
131
90
58
130
89
57
127
86
54
122
81
49
131
90
58
127
86
54
128
87
55
131
90
58
122
81
49
137
96
64
140
99
67
135
94
62
126
85
53
116
75
43
108
67
35
147
106
74
129
88
56
131
90
58
116
75
43
130
89
57
131
90
58
129
88
56
119
78
46
122
81
49
131
90
58
136
95
63
138
97
65
129
88
56
112
71
39
123
82
50
108
67
35
148
107
75
126
85
53
127
86
54
132
91
59
136
95
63
136
95
63
136
95
63
122
81
49
112
71
39
143
102
70
141
100
68
136
95
63
122
81
49
112
71
39
122
81
49
103
62
30
137
96
64
99
58
26
99
58
26
134
93
61
122
81
49
114
73
41
104
63
31
89
48
16
106
65
33
117
76
44
120
79
47
108
67
35
100
59
27
96
55
23
114
73
41
115
74
42
145
104
72
141
100
68
154
113
81
157
116
84
153
112
80
153
112
80
135
94
62
141
100
68
145
104
72
154
113
81
154
113
81
150
109
77
157
116
84
150
109
77
153
112
80
122
81
49
135
94
62
130
89
57
136
95
63
131
90
58
134
93
61
128
87
55
126
85
53
139
98
66
129
88
56
127
86
54
112
71
39
131
90
58
132
91
59
131
90
58
119
78
46
89
48
16
129
88
56
136
95
63
136
95
63
124
83
51
122
81
49
117
76
44
125
84
52
140
99
67
130
89
57
127
86
54
113
72
40
117
76
44
131
90
58
124
83
51
108
67
35
109
68
36
139
98
66
124
83
51
134
93
61
136
95
63
120
79
47
132
91
59
126
85
53
135
94
62
136
95
63
123
82
50
131
90
58
139
98
66
136
95
63
112
71
39
114
73
41
113
72
40
144
103
71
119
78
46
135
94
62
125
84
52
129
88
56
129
88
56
125
84
52
135
94
62
132
91
59
125
84
52
132
91
59
136
95
63
120
79
47
108
67
35
133
92
60
104
63
31
143
102
70
120
79
47
118
77
45
125
84
52
142
101
69
124
83
51
117
76
44
127
86
54
122
81
49
135
94
62
136
95
63
134
93
61
122
81
49
124
83
51
117
76
44
106
65
33
149
108
76
119
78
46
113
72
40
140
99
67
138
97
65
119
78
46
109
68
36
130
89
57
125
84
52
132
91
59
133
92
60
127
86
54
117
76
44
122
81
49
122
81
49
103
62
30
135
94
62
92
51
19
104
63
31
117
76
44
114
73
41
114
73
41
103
62
30
113
72
40
103
62
30
108
67
35
101
60
28
89
48
16
105
64
32
103
62
30
100
59
27
89
48
16
