P3
# Created by GIMP version 2.10.30 PNM plug-in
16 16
255
108
130
53
125
147
70
112
134
57
107
129
52
122
144
67
131
153
76
110
132
55
113
135
58
117
139
62
126
148
71
126
148
71
107
129
52
105
127
50
113
135
58
113
135
58
101
123
46
124
146
69
101
123
46
101
123
46
102
124
47
97
119
42
86
108
31
98
120
43
101
123
46
104
126
49
108
130
53
104
126
49
83
105
28
100
122
45
108
130
53
97
119
42
72
94
17
120
142
65
94
116
39
107
129
52
97
119
42
88
110
33
84
106
29
99
121
44
99
121
44
107
129
52
101
123
46
94
116
39
91
113
36
97
119
42
108
130
53
94
116
39
75
97
20
113
135
58
94
116
39
108
130
53
112
134
57
94
116
39
87
109
32
97
119
42
99
121
44
110
132
55
101
123
46
94
116
39
106
128
51
100
122
45
111
133
56
92
114
37
68
90
13
113
135
58
103
125
48
102
124
47
99
121
44
94
116
39
103
125
48
99
121
44
100
122
45
103
125
48
94
116
39
109
131
54
112
134
57
107
129
52
98
120
43
88
110
33
80
102
25
119
141
64
101
123
46
103
125
48
88
110
33
102
124
47
103
125
48
101
123
46
91
113
36
94
116
39
103
125
48
108
130
53
110
132
55
101
123
46
84
106
29
95
117
40
80
102
25
120
142
65
98
120
43
99
121
44
104
126
49
108
130
53
108
130
53
108
130
53
94
116
39
84
106
29
115
137
60
113
135
58
108
130
53
94
116
39
84
106
29
94
116
39
75
97
20
109
131
54
71
93
16
71
93
16
106
128
51
94
116
39
86
108
31
76
98
21
61
83
6
78
100
23
89
111
34
92
114
37
80
102
25
72
94
17
68
90
13
86
108
31
87
109
32
117
139
62
113
135
58
126
148
71
129
151
74
125
147
70
125
147
70
107
129
52
113
135
58
117
139
62
126
148
71
126
148
71
122
144
67
129
151
74
122
144
67
125
147
70
94
116
39
107
129
52
102
124
47
108
130
53
103
125
48
106
128
51
100
122
45
98
120
43
111
133
56
101
123
46
99
121
44
84
106
29
103
125
48
104
126
49
103
125
48
91
113
36
61
83
6
101
123
46
108
130
53
108
130
53
96
118
41
94
116
39
89
111
34
97
119
42
112
134
57
102
124
47
99
121
44
85
107
30
89
111
34
103
125
48
96
118
41
80
102
25
81
103
26
111
133
56
96
118
41
106
128
51
108
130
53
92
114
37
104
126
49
98
120
43
107
129
52
108
130
53
95
117
40
103
125
48
111
133
56
108
130
53
84
106
29
86
108
31
85
107
30
116
138
61
91
113
36
107
129
52
97
119
42
101
123
46
101
123
46
97
119
42
107
129
52
104
126
49
97
119
42
104
126
49
108
130
53
92
114
37
80
102
25
105
127
50
76
98
21
115
137
60
92
114
37
90
112
35
97
119
42
114
136
59
96
118
41
89
111
34
99
121
44
94
116
39
107
129
52
108
130
53
106
128
51
94
116
39
96
118
41
89
111
34
78
100
23
121
143
66
91
113
36
85
107
30
112
134
57
110
132
55
91
113
36
81
103
26
102
124
47
97
119
42
104
126
49
105
127
50
99
121
44
89
111
34
94
116
39
94
116
39
75
97
20
107
129
52
64
86
9
76
98
21
89
111
34
86
108
31
86
108
31
75
97
20
85
107
30
75
97
20
80
102
25
73
95
18
61
83
6
77
99
22
75
97
20
72
94
17
61
83
6
