P3
# Created by GIMP version 2.10.30 PNM plug-in
16 16
255
179
64
60
196
81
77
183
68
64
178
63
59
193
78
74
202
87
83
181
66
62
184
69
65
188
73
69
197
82
78
197
82
78
178
63
59
176
61
57
184
69
65
184
69
65
172
57
53
195
80
76
172
57
53
172
57
53
173
58
54
168
53
49
157
42
38
169
54
50
172
57
53
175
60
56
179
64
60
175
60
56
154
39
35
171
56
52
179
64
60
168
53
49
143
28
24
191
76
72
165
50
46
178
63
59
168
53
49
159
44
40
155
40
36
170
55
51
170
55
51
178
63
59
172
57
53
165
50
46
162
47
43
168
53
49
179
64
60
165
50
46
146
31
27
184
69
65
165
50
46
179
64
60
183
68
64
165
50
46
158
43
39
168
53
49
170
55
51
181
66
62
172
57
53
165
50
46
177
62
58
171
56
52
182
67
63
163
48
44
139
24
20
184
69
65
174
59
55
173
58
54
170
55
51
165
50
46
174
59
55
170
55
51
171
56
52
174
59
55
165
50
46
180
65
61
183
68
64
178
63
59
169
54
50
159
44
40
151
36
32
190
75
71
172
57
53
174
59
55
159
44
40
173
58
54
174
59
55
172
57
53
162
47
43
165
50
46
174
59
55
179
64
60
181
66
62
172
57
53
155
40
36
166
51
47
151
36
32
191
76
72
169
54
50
170
55
51
175
60
56
179
64
60
179
64
60
179
64
60
165
50
46
155
40
36
186
71
67
184
69
65
179
64
60
165
50
46
155
40
36
165
50
46
146
31
27
180
65
61
142
27
23
142
27
23
177
62
58
165
50
46
157
42
38
147
32
28
132
17
13
149
34
30
160
45
41
163
48
44
151
36
32
143
28
24
139
24
20
157
42
38
158
43
39
188
73
69
184
69
65
197
82
78
200
85
81
196
81
77
196
81
77
178
63
59
184
69
65
188
73
69
197
82
78
197
82
78
193
78
74
200
85
81
193
78
74
196
81
77
165
50
46
178
63
59
173
58
54
179
64
60
174
59
55
177
62
58
171
56
52
169
54
50
182
67
63
172
57
53
170
55
51
155
40
36
174
59
55
175
60
56
174
59
55
162
47
43
132
17
13
172
57
53
179
64
60
179
64
60
167
52
48
165
50
46
160
45
41
168
53
49
183
68
64
173
58
54
170
55
51
156
41
37
160
45
41
174
59
55
167
52
48
151
36
32
152
37
33
182
67
63
167
52
48
177
62
58
179
64
60
163
48
44
175
60
56
169
54
50
178
63
59
179
64
60
166
51
47
174
59
55
182
67
63
179
64
60
155
40
36
157
42
38
156
41
37
187
72
68
162
47
43
178
63
59
168
53
49
172
57
53
172
57
53
168
53
49
178
63
59
175
60
56
168
53
49
175
60
56
179
64
60
163
48
44
151
36
32
176
61
57
147
32
28
186
71
67
163
48
44
161
46
42
168
53
49
185
70
66
167
52
48
160
45
41
170
55
51
165
50
46
178
63
59
179
64
60
177
62
58
165
50
46
167
52
48
160
45
41
149
34
30
192
77
73
162
47
43
156
41
37
183
68
64
181
66
62
162
47
43
152
37
33
173
58
54
168
53
49
175
60
56
176
61
57
170
55
51
160
45
41
165
50
46
165
50
46
146
31
27
178
63
59
135
20
16
147
32
28
160
45
41
157
42
38
157
42
38
146
31
27
156
41
37
146
31
27
151
36
32
144
29
25
132
17
13
148
33
29
146
31
27
143
28
24
132
17
13
