P3
# Created by GIMP version 2.10.30 PNM plug-in
16 16
255
232
199
61
249
216
78
236
203
65
231
198
60
246
213
75
255
222
84
234
201
63
237
204
66
241
208
70
250
217
79
250
217
79
231
198
60
229
196
58
237
204
66
237
204
66
225
192
54
248
215
77
225
192
54
225
192
54
226
193
55
221
188
50
210
177
39
222
189
51
225
192
54
228
195
57
232
199
61
228
195
57
207
174
36
224
191
53
232
199
61
221
188
50
196
163
25
244
211
73
218
185
47
231
198
60
221
188
50
212
179
41
208
175
37
223
190
52
223
190
52
231
198
60
225
192
54
218
185
47
215
182
44
221
188
50
232
199
61
218
185
47
199
166
28
237
204
66
218
185
47
232
199
61
236
203
65
218
185
47
211
178
40
221
188
50
223
190
52
234
201
63
225
192
54
218
185
47
230
197
59
224
191
53
235
202
64
216
183
45
192
159
21
237
204
66
227
194
56
226
193
55
223
190
52
218
185
47
227
194
56
223
190
52
224
191
53
227
194
56
218
185
47
233
200
62
236
203
65
231
198
60
222
189
51
212
179
41
204
171
33
243
210
72
225
192
54
227
194
56
212
179
41
226
193
55
227
194
56
225
192
54
215
182
44
218
185
47
227
194
56
232
199
61
234
201
63
225
192
54
208
175
37
219
186
48
204
171
33
244
211
73
222
189
51
223
190
52
228
195
57
232
199
61
232
199
61
232
199
61
218
185
47
208
175
37
239
206
68
237
204
66
232
199
61
218
185
47
208
175
37
218
185
47
199
166
28
233
200
62
195
162
24
195
162
24
230
197
59
218
185
47
210
177
39
200
167
29
185
152
14
202
169
31
213
180
42
216
183
45
204
171
33
196
163
25
192
159
21
210
177
39
211
178
40
241
208
70
237
204
66
250
217
79
253
220
82
249
216
78
249
216
78
231
198
60
237
204
66
241
208
70
250
217
79
250
217
79
246
213
75
253
220
82
246
213
75
249
216
78
218
185
47
231
198
60
226
193
55
232
199
61
227
194
56
230
197
59
224
191
53
222
189
51
235
202
64
225
192
54
223
190
52
208
175
37
227
194
56
228
195
57
227
194
56
215
182
44
185
152
14
225
192
54
232
199
61
232
199
61
220
187
49
218
185
47
213
180
42
221
188
50
236
203
65
226
193
55
223
190
52
209
176
38
213
180
42
227
194
56
220
187
49
204
171
33
205
172
34
235
202
64
220
187
49
230
197
59
232
199
61
216
183
45
228
195
57
222
189
51
231
198
60
232
199
61
219
186
48
227
194
56
235
202
64
232
199
61
208
175
37
210
177
39
209
176
38
240
207
69
215
182
44
231
198
60
221
188
50
225
192
54
225
192
54
221
188
50
231
198
60
228
195
57
221
188
50
228
195
57
232
199
61
216
183
45
204
171
33
229
196
58
200
167
29
239
206
68
216
183
45
214
181
43
221
188
50
238
205
67
220
187
49
213
180
42
223
190
52
218
185
47
231
198
60
232
199
61
230
197
59
218
185
47
220
187
49
213
180
42
202
169
31
245
212
74
215
182
44
209
176
38
236
203
65
234
201
63
215
182
44
205
172
34
226
193
55
221
188
50
228
195
57
229
196
58
223
190
52
213
180
42
218
185
47
218
185
47
199
166
28
231
198
60
188
155
17
200
167
29
213
180
42
210
177
39
210
177
39
199
166
28
209
176
38
199
166
28
204
171
33
197
164
26
185
152
14
201
168
30
199
166
28
196
163
25
185
152
14
