P3
# Created by GIMP version 2.10.36 PNM plug-in
16 16
255
209
209
209
209
209
209
209
209
209
209
209
209
200
200
200
200
200
200
209
209
209
209
209
209
209
209
209
200
200
200
200
200
200
200
200
200
200
200
200
209
209
209
209
209
209
163
163
163
209
209
209
249
249
249
251
251
251
251
251
251
235
235
235
235
235
235
249
249
249
249
249
249
249
249
249
235
235
235
235
235
235
220
220
220
220
220
220
249
249
249
249
249
249
163
163
163
209
209
209
251
251
251
220
220
220
220
220
220
226
226
226
249
249
249
235
235
235
235
235
235
220
220
220
209
209
209
200
200
200
200
200
200
209
209
209
226
226
226
249
249
249
163
163
163
209
209
209
251
251
251
220
220
220
226
226
226
249
249
249
235
235
235
235
235
235
226
226
226
220
220
220
209
209
209
209
209
209
209
209
209
226
226
226
226
226
226
235
235
235
163
163
163
200
200
200
235
235
235
226
226
226
235
235
235
235
235
235
235
235
235
226
226
226
220
220
220
209
209
209
209
209
209
220
220
220
226
226
226
226
226
226
220
220
220
235
235
235
163
163
163
200
200
200
235
235
235
235
235
235
235
235
235
235
235
235
226
226
226
220
220
220
209
209
209
209
209
209
220
220
220
235
235
235
235
235
235
220
220
220
209
209
209
200
200
200
155
155
155
209
209
209
249
249
249
235
235
235
235
235
235
226
226
226
226
226
226
226
226
226
220
220
220
220
220
220
235
235
235
235
235
235
220
220
220
209
209
209
200
200
200
200
200
200
155
155
155
209
209
209
249
249
249
235
235
235
226
226
226
226
226
226
226
226
226
220
220
220
220
220
220
226
226
226
226
226
226
220
220
220
209
209
209
209
209
209
200
200
200
209
209
209
155
155
155
200
200
200
235
235
235
226
226
226
226
226
226
226
226
226
220
220
220
220
220
220
226
226
226
226
226
226
220
220
220
220
220
220
209
209
209
209
209
209
209
209
209
220
220
220
163
163
163
200
200
200
235
235
235
226
226
226
226
226
226
220
220
220
220
220
220
226
226
226
226
226
226
220
220
220
220
220
220
220
220
220
220
220
220
209
209
209
226
226
226
220
220
220
163
163
163
200
200
200
220
220
220
226
226
226
220
220
220
220
220
220
235
235
235
235
235
235
220
220
220
220
220
220
220
220
220
220
220
220
220
220
220
235
235
235
226
226
226
209
209
209
155
155
155
200
200
200
209
209
209
220
220
220
220
220
220
235
235
235
235
235
235
220
220
220
209
209
209
209
209
209
220
220
220
209
209
209
235
235
235
235
235
235
220
220
220
209
209
209
155
155
155
200
200
200
209
209
209
220
220
220
235
235
235
235
235
235
220
220
220
209
209
209
200
200
200
200
200
200
209
209
209
226
226
226
226
226
226
220
220
220
209
209
209
220
220
220
163
163
163
200
200
200
200
200
200
226
226
226
226
226
226
220
220
220
209
209
209
200
200
200
200
200
200
209
209
209
220
220
220
220
220
220
220
220
220
209
209
209
209
209
209
226
226
226
163
163
163
200
200
200
209
209
209
200
200
200
209
209
209
209
209
209
200
200
200
200
200
200
209
209
209
220
220
220
220
220
220
209
209
209
209
209
209
220
220
220
226
226
226
235
235
235
155
155
155
163
163
163
163
163
163
155
155
155
163
163
163
163
163
163
155
155
155
155
155
155
155
155
155
163
163
163
163
163
163
155
155
155
155
155
155
163
163
163
163
163
163
155
155
155
155
155
155
