P3
# Created by GIMP version 2.10.36 PNM plug-in
16 16
255
147
147
147
167
167
167
151
151
151
145
145
145
165
165
165
172
172
172
148
148
148
152
152
152
157
157
157
166
166
166
167
167
167
145
145
145
144
144
144
152
152
152
154
154
154
160
160
160
164
164
164
161
161
161
161
161
161
162
162
162
157
157
157
146
146
146
158
158
158
161
161
161
164
164
164
167
167
167
164
164
164
143
143
143
160
160
160
169
169
169
157
157
157
151
151
151
159
159
159
154
154
154
166
166
166
157
157
157
148
148
148
144
144
144
159
159
159
159
159
159
166
166
166
161
161
161
154
154
154
152
152
152
157
157
157
169
169
169
154
154
154
154
154
154
154
154
154
154
154
154
168
168
168
172
172
172
154
154
154
148
148
148
157
157
157
159
159
159
170
170
170
161
161
161
154
154
154
166
166
166
160
160
160
171
171
171
152
152
152
148
148
148
154
154
154
163
163
163
162
162
162
159
159
159
154
154
154
163
163
163
158
158
158
160
160
160
163
163
163
154
154
154
169
169
169
172
172
172
166
166
166
158
158
158
148
148
148
159
159
159
160
160
160
161
161
161
163
163
163
148
148
148
162
162
162
163
163
163
161
161
161
152
152
152
154
154
154
163
163
163
168
168
168
170
170
170
161
161
161
144
144
144
155
155
155
158
158
158
159
159
159
158
158
158
159
159
159
164
164
164
166
166
166
168
168
168
168
168
168
154
154
154
144
144
144
175
175
175
172
172
172
168
168
168
154
154
154
144
144
144
154
154
154
154
154
154
166
166
166
151
151
151
152
152
152
181
181
181
171
171
171
165
165
165
155
155
155
143
143
143
157
157
157
167
167
167
171
171
171
158
158
158
152
152
152
149
149
149
163
163
163
164
164
164
156
156
156
154
154
154
166
166
166
172
172
172
167
167
167
167
167
167
145
145
145
152
152
152
157
157
157
168
168
168
168
168
168
164
164
164
168
168
168
161
161
161
165
165
165
149
149
149
145
145
145
162
162
162
169
169
169
163
163
163
167
167
167
160
160
160
158
158
158
171
171
171
161
161
161
159
159
159
144
144
144
163
163
163
164
164
164
163
163
163
149
149
149
141
141
141
138
138
138
169
169
169
168
168
168
157
157
157
154
154
154
149
149
149
157
157
157
172
172
172
161
161
161
158
158
158
145
145
145
149
149
149
163
163
163
156
156
156
140
140
140
159
159
159
150
150
150
154
154
154
165
165
165
168
168
168
152
152
152
164
164
164
158
158
158
167
167
167
169
169
169
155
155
155
163
163
163
171
171
171
168
168
168
144
144
144
147
147
147
164
164
164
154
154
154
151
151
151
166
166
166
157
157
157
161
161
161
161
161
161
157
157
157
166
166
166
164
164
164
157
157
157
164
164
164
168
168
168
152
152
152
139
139
139
164
164
164
156
156
156
155
155
155
152
152
152
150
150
150
157
157
157
174
174
174
157
157
157
149
149
149
158
158
158
154
154
154
167
167
167
169
169
169
166
166
166
154
154
154
156
156
156
149
149
149
157
157
157
160
160
160
151
151
151
145
145
145
172
172
172
170
170
170
151
151
151
141
141
141
162
162
162
157
157
157
164
164
164
165
165
165
159
159
159
149
149
149
154
154
154
154
154
154
154
154
154
164
164
164
144
144
144
156
156
156
167
167
167
165
165
165
164
164
164
154
154
154
164
164
164
154
154
154
159
159
159
154
154
154
139
139
139
157
157
157
154
154
154
150
150
150
143
143
143
