P3
# Created by GIMP version 2.10.30 PNM plug-in
16 16
255
135
135
177
135
135
177
135
135
177
135
135
177
135
135
177
135
135
177
135
135
177
135
135
177
135
135
177
135
135
177
135
135
177
135
135
177
135
135
177
135
135
177
135
135
177
135
135
177
135
135
177
135
135
177
135
135
177
135
135
177
135
135
177
135
135
177
135
135
177
135
135
177
135
135
177
135
135
177
135
135
177
135
135
177
135
135
177
135
135
177
135
135
177
135
135
177
135
135
177
135
135
177
135
135
177
135
135
177
135
135
177
135
135
177
135
135
177
135
135
177
135
135
177
135
135
177
135
135
177
135
135
177
135
135
177
135
135
177
135
135
177
135
135
177
135
135
177
135
135
177
135
135
177
135
135
177
135
135
177
135
135
177
135
135
177
135
135
177
135
135
177
135
135
177
135
135
177
135
135
177
135
135
177
135
135
177
135
135
177
135
135
177
135
135
177
135
135
177
135
135
177
135
135
177
135
135
177
135
135
177
135
135
177
135
135
177
135
135
177
135
135
177
135
135
177
135
135
177
135
135
177
135
135
177
135
135
177
135
135
177
135
135
177
135
135
177
135
135
177
135
135
177
135
135
177
135
135
177
135
135
177
135
135
177
135
135
177
135
135
177
135
135
177
135
135
177
135
135
177
135
135
177
135
135
177
135
135
177
135
135
177
135
135
177
135
135
177
135
135
177
135
135
177
135
135
177
135
135
177
135
135
177
135
135
177
135
135
177
135
135
177
135
135
177
135
135
177
135
135
177
135
135
177
135
135
177
135
135
177
135
135
177
135
135
177
135
135
177
135
135
177
135
135
177
135
135
177
135
135
177
135
135
177
135
135
177
135
135
177
135
135
177
135
135
177
135
135
177
135
135
177
135
135
177
135
135
177
135
135
177
135
135
177
135
135
177
135
135
177
135
135
177
135
135
177
135
135
177
135
135
177
135
135
177
135
135
177
135
135
177
135
135
177
135
135
177
135
135
177
135
135
177
135
135
177
135
135
177
135
135
177
135
135
177
135
135
177
135
135
177
135
135
177
135
135
177
135
135
177
135
135
177
135
135
177
135
135
177
135
135
177
135
135
177
135
135
177
135
135
177
135
135
177
135
135
177
135
135
177
135
135
177
135
135
177
135
135
177
135
135
177
135
135
177
135
135
177
135
135
177
135
135
177
135
135
177
135
135
177
135
135
177
135
135
177
135
135
177
135
135
177
135
135
177
135
135
177
135
135
177
135
135
177
135
135
177
135
135
177
135
135
177
135
135
177
135
135
177
135
135
177
135
135
177
135
135
177
135
135
177
135
135
177
135
135
177
135
135
177
135
135
177
135
135
177
135
135
177
135
135
177
135
135
177
135
135
177
135
135
177
135
135
177
135
135
177
135
135
177
135
135
177
135
135
177
135
135
177
135
135
177
135
135
177
135
135
177
135
135
177
135
135
177
135
135
177
135
135
177
135
135
177
135
135
177
135
135
177
135
135
177
135
135
177
135
135
177
135
135
177
135
135
177
135
135
177
135
135
177
135
135
177
135
135
177
135
135
177
135
135
177
135
135
177
135
135
177
135
135
177
135
135
177
135
135
177
135
135
177
135
135
177
135
135
177
135
135
177
135
135
177
135
135
177
135
135
177
135
135
177
135
135
177
135
135
177
135
135
177
135
135
177
135
135
177
135
135
177
135
135
177
135
135
177
135
135
177
135
135
177
135
135
177
135
135
177
135
135
177
135
135
177
135
135
177
135
135
177
