P3
# Created by GIMP version 2.10.30 PNM plug-in
16 16
255
196
57
150
196
57
150
196
57
150
196
57
150
196
57
150
196
57
150
196
57
150
196
57
150
196
57
150
196
57
150
196
57
150
196
57
150
196
57
150
196
57
150
196
57
150
196
57
150
196
57
150
196
57
150
196
57
150
196
57
150
196
57
150
196
57
150
196
57
150
196
57
150
196
57
150
196
57
150
196
57
150
196
57
150
196
57
150
196
57
150
196
57
150
196
57
150
196
57
150
196
57
150
196
57
150
196
57
150
196
57
150
196
57
150
196
57
150
196
57
150
196
57
150
196
57
150
196
57
150
196
57
150
196
57
150
196
57
150
196
57
150
196
57
150
196
57
150
196
57
150
196
57
150
196
57
150
196
57
150
196
57
150
196
57
150
196
57
150
196
57
150
196
57
150
196
57
150
196
57
150
196
57
150
196
57
150
196
57
150
196
57
150
196
57
150
196
57
150
196
57
150
196
57
150
196
57
150
196
57
150
196
57
150
196
57
150
196
57
150
196
57
150
196
57
150
196
57
150
196
57
150
196
57
150
196
57
150
196
57
150
196
57
150
196
57
150
196
57
150
196
57
150
196
57
150
196
57
150
196
57
150
196
57
150
196
57
150
196
57
150
196
57
150
196
57
150
196
57
150
196
57
150
196
57
150
196
57
150
196
57
150
196
57
150
196
57
150
196
57
150
196
57
150
196
57
150
196
57
150
196
57
150
196
57
150
196
57
150
196
57
150
196
57
150
196
57
150
196
57
150
196
57
150
196
57
150
196
57
150
196
57
150
196
57
150
196
57
150
196
57
150
196
57
150
196
57
150
196
57
150
196
57
150
196
57
150
196
57
150
196
57
150
196
57
150
196
57
150
196
57
150
196
57
150
196
57
150
196
57
150
196
57
150
196
57
150
196
57
150
196
57
150
196
57
150
196
57
150
196
57
150
196
57
150
196
57
150
196
57
150
196
57
150
196
57
150
196
57
150
196
57
150
196
57
150
196
57
150
196
57
150
196
57
150
196
57
150
196
57
150
196
57
150
196
57
150
196
57
150
196
57
150
196
57
150
196
57
150
196
57
150
196
57
150
196
57
150
196
57
150
196
57
150
196
57
150
196
57
150
196
57
150
196
57
150
196
57
150
196
57
150
196
57
150
196
57
150
196
57
150
196
57
150
196
57
150
196
57
150
196
57
150
196
57
150
196
57
150
196
57
150
196
57
150
196
57
150
196
57
150
196
57
150
196
57
150
196
57
150
196
57
150
196
57
150
196
57
150
196
57
150
196
57
150
196
57
150
196
57
150
196
57
150
196
57
150
196
57
150
196
57
150
196
57
150
196
57
150
196
57
150
196
57
150
196
57
150
196
57
150
196
57
150
196
57
150
196
57
150
196
57
150
196
57
150
196
57
150
196
57
150
196
57
150
196
57
150
196
57
150
196
57
150
196
57
150
196
57
150
196
57
150
196
57
150
196
57
150
196
57
150
196
57
150
196
57
150
196
57
150
196
57
150
196
57
150
196
57
150
196
57
150
196
57
150
196
57
150
196
57
150
196
57
150
196
57
150
196
57
150
196
57
150
196
57
150
196
57
150
196
57
150
196
57
150
196
57
150
196
57
150
196
57
150
196
57
150
196
57
150
196
57
150
196
57
150
196
57
150
196
57
150
196
57
150
196
57
150
196
57
150
196
57
150
196
57
150
196
57
150
196
57
150
196
57
150
196
57
150
196
57
150
196
57
150
196
57
150
