P3
# Created by GIMP version 2.10.30 PNM plug-in
16 16
20
170
0
0
170
0
0
170
0
0
170
0
0
170
0
0
170
0
0
170
0
0
170
0
0
170
0
0
170
0
0
170
0
0
170
0
0
170
0
0
170
0
0
170
0
0
170
0
0
170
0
0
170
0
0
170
0
0
170
0
0
170
0
0
170
0
0
170
0
0
170
0
0
170
0
0
170
0
0
170
0
0
170
0
0
170
0
0
170
0
0
170
0
0
170
0
0
170
0
0
170
0
0
170
0
0
170
0
0
170
0
0
170
0
0
170
0
0
170
0
0
170
0
0
170
0
0
170
0
0
170
0
0
170
0
0
170
0
0
170
0
0
170
0
0
170
0
0
170
0
0
170
0
0
170
0
0
170
0
0
170
0
0
170
0
0
170
0
0
170
0
0
170
0
0
170
0
0
170
0
0
170
0
0
170
0
0
170
0
0
170
0
0
170
0
0
170
0
0
170
0
0
170
0
0
170
0
0
170
0
0
170
0
0
170
0
0
170
0
0
170
0
0
170
0
0
170
0
0
170
0
0
170
0
0
170
0
0
170
0
0
170
0
0
170
0
0
170
0
0
170
0
0
170
0
0
170
0
0
170
0
0
170
0
0
170
0
0
170
0
0
170
0
0
170
0
0
170
0
0
170
0
0
170
0
0
170
0
0
170
0
0
170
0
0
170
0
0
170
0
0
170
0
0
170
0
0
170
0
0
170
0
0
170
0
0
170
0
0
170
0
0
170
0
0
170
0
0
170
0
0
170
0
0
170
0
0
170
0
0
170
0
0
170
0
0
170
0
0
170
0
0
170
0
0
170
0
0
170
0
0
170
0
0
170
0
0
170
0
0
170
0
0
170
0
0
170
0
0
170
0
0
170
0
0
170
0
0
170
0
0
170
0
0
170
0
0
170
0
0
170
0
0
170
0
0
170
0
0
170
0
0
170
0
0
170
0
0
170
0
0
170
0
0
170
0
0
170
0
0
170
0
0
170
0
0
170
0
0
170
0
0
170
0
0
170
0
0
170
0
0
170
0
0
170
0
0
170
0
0
170
0
0
170
0
0
170
0
0
170
0
0
170
0
0
170
0
0
170
0
0
170
0
0
170
0
0
170
0
0
170
0
0
170
0
0
170
0
0
170
0
0
170
0
0
170
0
0
170
0
0
170
0
0
170
0
0
170
0
0
170
0
0
170
0
0
170
0
0
170
0
0
170
0
0
170
0
0
170
0
0
170
0
0
170
0
0
170
0
0
170
0
0
170
0
0
170
0
0
170
0
0
170
0
0
170
0
0
170
0
0
170
0
0
170
0
0
170
0
0
170
0
0
170
0
0
170
0
0
170
0
0
170
0
0
170
0
0
170
0
0
170
0
0
170
0
0
170
0
0
170
0
0
170
0
0
170
0
0
170
0
0
170
0
0
170
0
0
170
0
0
170
0
0
170
0
0
170
0
0
170
0
0
170
0
0
170
0
0
170
0
0
170
0
0
170
0
0
170
0
0
170
0
0
170
0
0
170
0
0
170
0
0
170
0
0
170
0
0
170
0
0
170
0
0
170
0
0
170
0
0
170
0
0
170
0
0
170
0
0
170
0
0
170
0
0
170
0
0
170
0
0
170
0
0
170
0
0
170
0
0
170
0
0
170
0
0
170
0
0
170
0
0
170
0
0
170
0
0
170
0
0
170
0
0
170
0
0
170
0
0
170
0
0
170
0
0
170
0
0
170
0
0
170
0
0
170
0
0
