P3
# Created by GIMP version 2.10.36 PNM plug-in
16 16
255
255
255
255
255
255
255
255
255
255
255
255
255
255
255
255
255
255
255
255
255
255
255
255
255
255
255
255
255
255
255
255
255
255
255
255
255
255
255
255
255
255
255
255
255
255
255
255
255
255
255
255
255
255
255
255
255
255
255
255
255
255
255
255
255
255
255
255
255
255
255
255
255
255
255
255
255
255
255
255
255
255
255
255
255
255
255
255
255
255
255
255
255
255
255
255
255
255
255
255
255
255
255
255
255
255
255
255
255
255
255
255
255
255
255
255
255
255
255
255
255
255
255
255
255
255
255
255
255
255
255
255
255
255
255
255
255
255
255
255
255
255
255
255
255
255
255
255
255
255
255
255
255
255
255
255
255
255
255
255
255
255
255
255
255
255
255
255
255
255
255
255
255
255
255
255
255
255
255
255
255
255
255
255
255
255
255
255
255
255
255
255
255
255
255
255
255
255
255
255
255
255
255
255
255
255
255
255
255
255
255
255
255
255
255
255
255
255
255
255
255
255
255
255
255
255
255
255
255
255
255
255
255
255
255
255
255
255
255
255
255
255
255
255
255
255
255
255
255
255
255
255
255
255
255
255
255
255
255
255
255
255
255
255
255
255
255
255
255
255
255
255
255
255
255
255
255
255
255
255
255
255
255
255
255
255
255
255
255
255
255
255
255
255
255
255
255
255
255
255
255
255
255
255
255
255
255
255
255
255
168
168
168
197
197
197
255
255
255
255
255
255
255
255
255
255
255
255
255
255
255
255
255
255
255
255
255
255
255
255
255
255
255
255
255
255
143
143
143
143
143
143
255
255
255
143
143
143
197
197
197
197
197
197
197
197
197
255
255
255
143
143
143
143
143
143
255
255
255
255
255
255
255
255
255
255
255
255
255
255
255
255
255
255
111
111
111
143
143
143
111
111
111
143
143
143
168
168
168
143
143
143
197
197
197
111
111
111
143
143
143
111
111
111
255
255
255
255
255
255
255
255
255
255
255
255
197
197
197
197
197
197
168
168
168
111
111
111
111
111
111
143
143
143
143
143
143
143
143
143
168
168
168
111
111
111
111
111
111
197
197
197
197
197
197
197
197
197
255
255
255
255
255
255
168
168
168
197
197
197
197
197
197
143
143
143
111
111
111
143
143
143
143
143
143
168
168
168
111
111
111
143
143
143
143
143
143
168
168
168
197
197
197
168
168
168
255
255
255
255
255
255
143
143
143
168
168
168
197
197
197
168
168
168
143
143
143
111
111
111
143
143
143
143
143
143
111
111
111
143
143
143
168
168
168
197
197
197
168
168
168
143
143
143
255
255
255
255
255
255
255
255
255
143
143
143
143
143
143
168
168
168
168
168
168
111
111
111
143
143
143
111
111
111
143
143
143
168
168
168
168
168
168
143
143
143
143
143
143
255
255
255
255
255
255
255
255
255
255
255
255
255
255
255
255
255
255
143
143
143
143
143
143
143
143
143
111
111
111
111
111
111
143
143
143
143
143
143
143
143
143
255
255
255
255
255
255
255
255
255
255
255
255
255
255
255
255
255
255
255
255
255
255
255
255
255
255
255
111
111
111
143
143
143
111
111
111
111
111
111
143
143
143
111
111
111
255
255
255
255
255
255
255
255
255
255
255
255
255
255
255
255
255
255
255
255
255
255
255
255
255
255
255
255
255
255
255
255
255
111
111
111
114
114
114
138
138
138
111
111
111
255
255
255
255
255
255
255
255
255
255
255
255
255
255
255
255
255
255
