P3
# Created by GIMP version 2.10.36 PNM plug-in
16 16
255
254
191
150
254
191
150
254
191
150
254
191
150
254
191
150
254
191
150
254
191
150
254
191
150
254
191
150
254
191
150
254
191
150
254
191
150
254
191
150
254
191
150
254
191
150
254
191
150
254
191
150
254
191
150
254
191
150
254
191
150
254
191
150
254
191
150
254
191
150
254
191
150
254
191
150
254
191
150
254
191
150
254
191
150
254
191
150
254
191
150
254
191
150
254
191
150
254
191
150
254
191
150
254
191
150
254
191
150
254
191
150
254
191
150
254
191
150
254
191
150
254
191
150
254
191
150
254
191
150
254
191
150
254
191
150
254
191
150
254
191
150
254
191
150
254
191
150
254
191
150
254
191
150
254
191
150
114
44
20
114
44
20
114
44
20
114
44
20
114
44
20
114
44
20
114
44
20
75
37
12
254
191
150
254
191
150
254
191
150
254
191
150
254
191
150
254
191
150
254
191
150
114
44
20
251
154
112
254
191
150
254
191
150
251
154
112
251
154
112
220
120
81
179
87
60
130
63
47
75
37
12
254
191
150
254
191
150
254
191
150
254
191
150
254
191
150
254
191
150
114
44
20
179
87
60
220
120
81
179
87
60
179
87
60
130
63
47
179
87
60
130
63
47
130
63
47
75
37
12
254
191
150
254
191
150
254
191
150
254
191
150
254
191
150
254
191
150
75
37
12
75
37
12
75
37
12
75
37
12
75
37
12
75
37
12
75
37
12
75
37
12
75
37
12
75
37
12
254
191
150
254
191
150
254
191
150
254
191
150
254
191
150
254
191
150
114
44
20
130
63
47
179
87
60
251
154
112
75
37
12
254
191
150
114
44
20
254
191
150
130
63
47
75
37
12
254
191
150
254
191
150
254
191
150
254
191
150
254
191
150
254
191
150
114
44
20
179
87
60
220
120
81
254
191
150
75
37
12
254
191
150
114
44
20
251
154
112
130
63
47
75
37
12
254
191
150
254
191
150
254
191
150
254
191
150
254
191
150
254
191
150
114
44
20
220
120
81
179
87
60
254
191
150
75
37
12
254
191
150
114
44
20
220
120
81
179
87
60
75
37
12
254
191
150
254
191
150
254
191
150
254
191
150
254
191
150
254
191
150
114
44
20
179
87
60
220
120
81
251
154
112
75
37
12
254
191
150
114
44
20
251
154
112
130
63
47
75
37
12
254
191
150
254
191
150
254
191
150
254
191
150
254
191
150
254
191
150
75
37
12
75
37
12
251
154
112
220
120
81
75
37
12
254
191
150
114
44
20
220
120
81
75
37
12
75
37
12
254
191
150
254
191
150
254
191
150
254
191
150
254
191
150
254
191
150
254
191
150
254
191
150
75
37
12
75
37
12
75
37
12
254
191
150
75
37
12
75
37
12
254
191
150
254
191
150
254
191
150
254
191
150
254
191
150
254
191
150
254
191
150
254
191
150
254
191
150
254
191
150
254
191
150
254
191
150
254
191
150
254
191
150
254
191
150
254
191
150
254
191
150
254
191
150
254
191
150
254
191
150
254
191
150
254
191
150
254
191
150
254
191
150
254
191
150
254
191
150
254
191
150
254
191
150
254
191
150
254
191
150
254
191
150
254
191
150
254
191
150
254
191
150
254
191
150
254
191
150
254
191
150
254
191
150
254
191
150
254
191
150
254
191
150
254
191
150
254
191
150
254
191
150
254
191
150
254
191
150
254
191
150
254
191
150
254
191
150
254
191
150
254
191
150
254
191
150
254
191
150
