P3
# Created by GIMP version 2.10.36 PNM plug-in
16 16
255
49
49
49
49
49
49
49
49
49
49
49
49
49
49
49
49
49
49
49
49
49
49
49
49
49
49
49
49
49
49
49
49
49
49
49
49
49
49
49
49
49
49
49
49
49
49
49
49
49
49
49
49
49
49
49
49
49
49
49
49
49
49
49
49
49
49
49
49
49
49
49
49
49
49
49
49
49
49
49
49
49
49
49
49
49
49
49
49
49
49
49
49
49
49
49
49
49
49
49
49
49
49
49
49
49
72
72
72
72
72
72
49
49
49
49
49
49
49
49
49
49
49
49
49
49
49
49
49
49
72
72
72
72
72
72
49
49
49
49
49
49
49
49
49
49
49
49
49
49
49
72
72
72
72
72
72
72
72
72
72
72
72
49
49
49
49
49
49
49
49
49
49
49
49
72
72
72
72
72
72
72
72
72
72
72
72
49
49
49
49
49
49
49
49
49
49
49
49
50
50
50
72
72
72
72
72
72
72
72
72
72
72
72
50
50
50
72
72
72
50
50
50
72
72
72
72
72
72
72
72
72
50
50
50
49
49
49
49
49
49
49
49
49
49
49
49
72
72
72
50
50
50
72
72
72
50
50
50
72
72
72
50
50
50
50
50
50
25
25
25
50
50
50
72
72
72
50
50
50
72
72
72
49
49
49
49
49
49
49
49
49
72
72
72
72
72
72
30
30
30
72
72
72
50
50
50
50
50
50
50
50
50
25
25
25
72
72
72
50
50
50
72
72
72
30
30
30
72
72
72
72
72
72
49
49
49
50
50
50
72
72
72
72
72
72
72
72
72
30
30
30
50
50
50
50
50
50
50
50
50
25
25
25
50
50
50
50
50
50
30
30
30
72
72
72
72
72
72
72
72
72
50
50
50
72
72
72
50
50
50
72
72
72
50
50
50
50
50
50
25
25
25
50
50
50
38
38
38
25
25
25
38
38
38
25
25
25
50
50
50
50
50
50
72
72
72
50
50
50
72
72
72
72
72
72
72
72
72
30
30
30
25
25
25
50
50
50
25
25
25
38
38
38
25
25
25
38
38
38
50
50
50
25
25
25
50
50
50
25
25
25
30
30
30
72
72
72
72
72
72
72
72
72
50
50
50
50
50
50
50
50
50
25
25
25
25
25
25
38
38
38
25
25
25
38
38
38
50
50
50
25
25
25
25
25
25
50
50
50
50
50
50
50
50
50
72
72
72
50
50
50
50
50
50
50
50
50
50
50
50
50
50
50
25
25
25
38
38
38
17
17
17
38
38
38
38
38
38
25
25
25
50
50
50
50
50
50
50
50
50
50
50
50
50
50
50
49
49
49
30
30
30
25
25
25
50
50
50
38
38
38
38
38
38
25
25
25
38
38
38
38
38
38
25
25
25
38
38
38
38
38
38
50
50
50
25
25
25
30
30
30
49
49
49
49
49
49
50
50
50
50
50
50
25
25
25
38
38
38
38
38
38
25
25
25
38
38
38
38
38
38
25
25
25
38
38
38
38
38
38
25
25
25
50
50
50
50
50
50
49
49
49
49
49
49
49
49
49
49
49
49
38
38
38
25
25
25
38
38
38
38
38
38
17
17
17
17
17
17
38
38
38
38
38
38
25
25
25
38
38
38
49
49
49
49
49
49
49
49
49
49
49
49
49
49
49
49
49
49
49
49
49
38
38
38
17
17
17
38
38
38
17
17
17
17
17
17
38
38
38
17
17
17
38
38
38
49
49
49
49
49
49
49
49
49
49
49
49
