P3
# Created by GIMP version 2.10.36 PNM plug-in
16 16
255
172
172
172
174
174
174
180
180
180
175
175
175
177
177
177
174
174
174
184
184
184
176
176
176
177
177
177
173
173
173
164
164
164
176
176
176
176
176
176
177
177
177
173
173
173
179
179
179
181
181
181
166
166
166
170
170
170
176
176
176
176
176
176
172
172
172
179
179
179
177
177
177
176
176
176
174
174
174
174
174
174
166
166
166
165
165
165
165
165
165
168
168
168
176
176
176
177
177
177
176
176
176
170
170
170
176
176
176
168
168
168
168
168
168
171
171
171
170
170
170
173
173
173
166
166
166
170
170
170
173
173
173
168
168
168
163
163
163
158
158
158
175
175
175
177
177
177
173
173
173
164
164
164
174
174
174
174
174
174
174
174
174
165
165
165
161
161
161
173
173
173
173
173
173
163
163
163
167
167
167
170
170
170
169
169
169
161
161
161
175
175
175
175
175
175
174
174
174
173
173
173
165
165
165
164
164
164
170
170
170
164
164
164
164
164
164
177
177
177
176
176
176
166
166
166
165
165
165
157
157
157
162
162
162
174
174
174
175
175
175
175
175
175
166
166
166
168
168
168
172
172
172
166
166
166
164
164
164
168
168
168
185
185
185
188
188
188
196
196
196
193
193
193
185
185
185
174
174
174
169
169
169
171
171
171
168
168
168
179
179
179
177
177
177
162
162
162
163
163
163
166
166
166
163
163
163
160
160
160
185
185
185
197
197
197
202
202
202
213
213
213
208
208
208
187
187
187
181
181
181
183
183
183
175
175
175
186
186
186
181
181
181
169
169
169
166
166
166
160
160
160
161
161
161
167
167
167
159
159
159
176
176
176
199
199
199
202
202
202
214
214
214
213
213
213
188
188
188
178
178
178
186
186
186
191
191
191
189
189
189
191
191
191
182
182
182
184
184
184
174
174
174
170
170
170
168
168
168
163
163
163
167
167
167
181
181
181
193
193
193
216
216
216
195
195
195
186
186
186
200
200
200
193
193
193
215
215
215
198
198
198
188
188
188
191
191
191
186
186
186
184
184
184
178
178
178
172
172
172
167
167
167
168
168
168
173
173
173
179
179
179
177
177
177
185
185
185
199
199
199
185
185
185
186
186
186
203
203
203
195
195
195
179
179
179
180
180
180
188
188
188
188
188
188
176
176
176
173
173
173
172
172
172
166
166
166
162
162
162
160
160
160
163
163
163
185
185
185
178
178
178
185
185
185
208
208
208
191
191
191
182
182
182
180
180
180
176
176
176
177
177
177
178
178
178
175
175
175
185
185
185
179
179
179
171
171
171
163
163
163
164
164
164
170
170
170
168
168
168
180
180
180
195
195
195
184
184
184
172
172
172
179
179
179
173
173
173
166
166
166
168
168
168
168
168
168
169
169
169
176
176
176
177
177
177
174
174
174
177
177
177
174
174
174
168
168
168
166
166
166
164
164
164
154
154
154
160
160
160
163
163
163
175
175
175
180
180
180
187
187
187
182
182
182
165
165
165
163
163
163
165
165
165
178
178
178
189
189
189
183
183
183
164
164
164
152
152
152
161
161
161
162
162
162
167
167
167
164
164
164
174
174
174
171
171
171
172
172
172
185
185
185
184
184
184
177
177
177
162
162
162
165
165
165
173
173
173
162
162
162
162
162
162
174
174
174
164
164
164
156
156
156
159
159
159
172
172
172
180
180
180
176
176
176
166
166
166
174
174
174
182
182
182
176
176
176
176
176
176
161
161
161
170
170
170
162
162
162
