P3
# Created by GIMP version 2.10.36 PNM plug-in
16 16
255
101
101
101
121
121
121
121
121
121
99
99
99
97
97
97
131
131
131
121
121
121
104
104
104
99
99
99
97
97
97
103
103
103
94
94
94
112
112
112
101
101
101
117
117
117
131
131
131
118
118
118
107
107
107
91
91
91
99
99
99
95
95
95
117
117
117
135
135
135
91
91
91
87
87
87
131
131
131
98
98
98
112
112
112
112
112
112
98
98
98
100
100
100
100
100
100
114
114
114
99
99
99
97
97
97
85
85
85
101
101
101
94
94
94
99
99
99
97
97
97
131
131
131
112
112
112
112
112
112
100
100
100
103
103
103
103
103
103
100
100
100
99
99
99
107
107
107
103
103
103
107
107
107
94
94
94
98
98
98
91
91
91
101
101
101
114
114
114
88
88
88
100
100
100
100
100
100
98
98
98
111
111
111
105
105
105
107
107
107
99
99
99
121
121
121
99
99
99
100
100
100
100
100
100
91
91
91
100
100
100
100
100
100
99
99
99
101
101
101
100
100
100
99
99
99
101
101
101
99
99
99
102
102
102
100
100
100
100
100
100
100
100
100
103
103
103
107
107
107
100
100
100
94
94
94
100
100
100
100
100
100
91
91
91
91
91
91
99
99
99
101
101
101
100
100
100
100
100
100
100
100
100
100
100
100
100
100
100
100
100
100
100
100
100
99
99
99
99
99
99
103
103
103
99
99
99
99
99
99
100
100
100
100
100
100
100
100
100
103
103
103
100
100
100
100
100
100
100
100
100
100
100
100
100
100
100
100
100
100
100
100
100
100
100
100
99
99
99
101
101
101
100
100
100
97
97
97
100
100
100
100
100
100
100
100
100
101
101
101
100
100
100
100
100
100
100
100
100
100
100
100
100
100
100
100
100
100
100
100
100
100
100
100
100
100
100
98
98
98
100
100
100
100
100
100
100
100
100
100
100
100
107
107
107
100
100
100
100
100
100
100
100
100
100
100
100
100
100
100
100
100
100
100
100
100
100
100
100
100
100
100
100
100
100
94
94
94
100
100
100
100
100
100
100
100
100
100
100
100
100
100
100
100
100
100
100
100
100
100
100
100
100
100
100
100
100
100
100
100
100
100
100
100
100
100
100
100
100
100
100
100
100
100
100
100
100
100
100
100
100
100
100
100
100
100
100
100
100
100
100
100
100
100
100
100
100
100
100
100
100
100
100
100
100
100
100
100
100
100
100
100
100
100
100
100
100
100
100
100
100
100
100
100
100
100
100
100
100
100
100
100
100
100
100
100
100
100
100
100
100
100
100
100
100
100
100
100
100
100
100
100
100
100
100
100
100
100
100
100
100
100
100
100
100
100
100
100
100
100
100
100
100
100
100
100
100
100
100
100
100
100
100
100
100
100
100
100
100
100
100
100
100
100
100
100
100
100
100
100
100
100
100
100
100
100
100
100
100
100
100
100
100
100
100
100
100
100
100
100
100
100
100
100
100
100
100
100
100
100
100
100
100
100
100
100
100
100
100
100
100
100
100
100
100
100
100
100
100
100
100
100
100
100
100
100
100
100
100
100
100
100
100
100
100
100
100
100
100
100
100
100
100
100
100
100
100
100
100
100
100
100
100
100
100
100
100
100
100
100
100
100
100
100
100
100
100
100
100
100
100
100
100
100
100
100
100
100
100
100
100
100
100
100
100
100
100
100
100
100
100
100
100
100
100
100
100
100
100
100
100
100
100
100
100
100
100
100
100
100
100
100
100
100
100
100
100
100
100
