P3
# Created by GIMP version 2.10.36 PNM plug-in
16 16
255
55
55
55
64
64
64
79
79
79
55
55
55
101
101
101
101
101
101
101
101
101
82
82
82
79
79
79
64
64
64
55
55
55
64
64
64
55
55
55
64
64
64
79
79
79
64
64
64
64
64
64
55
55
55
64
64
64
55
55
55
55
55
55
79
79
79
82
82
82
101
101
101
101
101
101
64
64
64
82
82
82
64
64
64
101
101
101
64
64
64
64
64
64
55
55
55
64
64
64
79
79
79
64
64
64
64
64
64
79
79
79
101
101
101
101
101
101
79
79
79
79
79
79
101
101
101
82
82
82
101
101
101
79
79
79
79
79
79
64
64
64
79
79
79
64
64
64
64
64
64
79
79
79
64
64
64
55
55
55
64
64
64
55
55
55
79
79
79
101
101
101
82
82
82
101
101
101
82
82
82
101
101
101
79
79
79
79
79
79
101
101
101
101
101
101
82
82
82
79
79
79
79
79
79
79
79
79
64
64
64
64
64
64
64
64
64
101
101
101
79
79
79
101
101
101
79
79
79
101
101
101
79
79
79
79
79
79
79
79
79
82
82
82
101
101
101
79
79
79
101
101
101
64
64
64
79
79
79
55
55
55
79
79
79
79
79
79
79
79
79
101
101
101
79
79
79
79
79
79
79
79
79
101
101
101
82
82
82
101
101
101
82
82
82
101
101
101
64
64
64
64
64
64
79
79
79
64
64
64
82
82
82
101
101
101
101
101
101
64
64
64
79
79
79
55
55
55
79
79
79
82
82
82
79
79
79
55
55
55
82
82
82
101
101
101
55
55
55
79
79
79
79
79
79
82
82
82
101
101
101
82
82
82
79
79
79
82
82
82
64
64
64
55
55
55
64
64
64
79
79
79
101
101
101
55
55
55
101
101
101
64
64
64
64
64
64
64
64
64
79
79
79
79
79
79
82
82
82
101
101
101
101
101
101
64
64
64
55
55
55
64
64
64
55
55
55
64
64
64
82
82
82
79
79
79
64
64
64
55
55
55
79
79
79
64
64
64
79
79
79
82
82
82
101
101
101
82
82
82
55
55
55
82
82
82
79
79
79
64
64
64
79
79
79
64
64
64
79
79
79
101
101
101
64
64
64
82
82
82
64
64
64
101
101
101
55
55
55
79
79
79
64
64
64
101
101
101
82
82
82
79
79
79
79
79
79
64
64
64
101
101
101
79
79
79
79
79
79
79
79
79
101
101
101
82
82
82
101
101
101
55
55
55
55
55
55
64
64
64
55
55
55
64
64
64
79
79
79
79
79
79
79
79
79
82
82
82
82
82
82
82
82
82
101
101
101
101
101
101
82
82
82
101
101
101
82
82
82
101
101
101
64
64
64
64
64
64
79
79
79
79
79
79
79
79
79
79
79
79
101
101
101
82
82
82
101
101
101
79
79
79
79
79
79
101
101
101
79
79
79
101
101
101
79
79
79
101
101
101
55
55
55
101
101
101
64
64
64
64
64
64
79
79
79
79
79
79
79
79
79
82
82
82
79
79
79
101
101
101
79
79
79
79
79
79
79
79
79
101
101
101
79
79
79
79
79
79
64
64
64
64
64
64
101
101
101
79
79
79
64
64
64
79
79
79
55
55
55
101
101
101
64
64
64
79
79
79
79
79
79
55
55
55
79
79
79
64
64
64
79
79
79
55
55
55
82
82
82
101
101
101
82
82
82
101
101
101
79
79
79
64
64
64
55
55
55
64
64
64
79
79
79
64
64
64
79
79
79
