P3
# Created by GIMP version 2.10.36 PNM plug-in
16 16
255
115
115
115
115
115
115
115
115
115
124
124
124
115
115
115
124
124
124
115
115
115
93
93
93
115
115
115
115
115
115
115
115
115
115
115
115
115
115
115
115
115
115
115
115
115
115
115
115
115
115
115
115
115
115
115
115
115
115
115
115
145
145
145
124
124
124
145
145
145
124
124
124
115
115
115
115
115
115
115
115
115
115
115
115
115
115
115
115
115
115
115
115
115
115
115
115
115
115
115
115
115
115
115
115
115
124
124
124
124
124
124
145
145
145
124
124
124
93
93
93
115
115
115
93
93
93
115
115
115
124
124
124
115
115
115
115
115
115
115
115
115
115
115
115
115
115
115
115
115
115
115
115
115
115
115
115
145
145
145
124
124
124
93
93
93
115
115
115
115
115
115
124
124
124
145
145
145
115
115
115
115
115
115
115
115
115
115
115
115
115
115
115
115
115
115
115
115
115
115
115
115
93
93
93
124
124
124
93
93
93
115
115
115
115
115
115
115
115
115
93
93
93
124
124
124
93
93
93
115
115
115
115
115
115
115
115
115
115
115
115
115
115
115
115
115
115
115
115
115
115
115
115
115
115
115
115
115
115
83
83
83
83
83
83
115
115
115
115
115
115
115
115
115
115
115
115
115
115
115
115
115
115
115
115
115
115
115
115
115
115
115
115
115
115
115
115
115
115
115
115
124
124
124
115
115
115
93
93
93
83
83
83
115
115
115
115
115
115
83
83
83
115
115
115
115
115
115
124
124
124
93
93
93
115
115
115
115
115
115
93
93
93
124
124
124
115
115
115
93
93
93
124
124
124
115
115
115
115
115
115
115
115
115
115
115
115
115
115
115
115
115
115
124
124
124
145
145
145
124
124
124
93
93
93
93
93
93
124
124
124
145
145
145
124
124
124
115
115
115
93
93
93
115
115
115
115
115
115
115
115
115
115
115
115
115
115
115
115
115
115
115
115
115
124
124
124
145
145
145
124
124
124
124
124
124
145
145
145
124
124
124
115
115
115
115
115
115
115
115
115
83
83
83
115
115
115
115
115
115
115
115
115
115
115
115
115
115
115
124
124
124
145
145
145
115
115
115
124
124
124
124
124
124
115
115
115
124
124
124
93
93
93
115
115
115
115
115
115
115
115
115
115
115
115
115
115
115
93
93
93
83
83
83
115
115
115
115
115
115
124
124
124
124
124
124
115
115
115
115
115
115
115
115
115
93
93
93
115
115
115
115
115
115
115
115
115
115
115
115
115
115
115
115
115
115
83
83
83
93
93
93
93
93
93
115
115
115
115
115
115
93
93
93
115
115
115
115
115
115
115
115
115
115
115
115
115
115
115
93
93
93
115
115
115
115
115
115
115
115
115
115
115
115
115
115
115
93
93
93
115
115
115
83
83
83
115
115
115
115
115
115
115
115
115
115
115
115
115
115
115
115
115
115
124
124
124
124
124
124
93
93
93
115
115
115
115
115
115
115
115
115
115
115
115
83
83
83
115
115
115
115
115
115
115
115
115
115
115
115
115
115
115
115
115
115
115
115
115
115
115
115
93
93
93
115
115
115
115
115
115
115
115
115
115
115
115
115
115
115
115
115
115
115
115
115
115
115
115
115
115
115
115
115
115
115
115
115
115
115
115
115
115
115
115
115
115
115
115
115
115
115
115
115
115
115
115
115
115
115
115
115
115
115
115
115
115
115
115
115
115
115
115
115
115
115
115
115
115
115
115
115
115
115
115
115
115
115
115
