P3
# Created by GIMP version 2.10.36 PNM plug-in
16 16
255
114
114
114
48
48
48
114
114
114
137
137
137
108
108
108
137
137
137
114
114
114
48
48
48
48
48
48
114
114
114
114
114
114
114
114
114
150
150
150
137
137
137
114
114
114
114
114
114
48
48
48
137
137
137
48
48
48
114
114
114
137
137
137
114
114
114
114
114
114
48
48
48
114
114
114
114
114
114
48
48
48
137
137
137
108
108
108
150
150
150
114
114
114
48
48
48
150
150
150
108
108
108
137
137
137
114
114
114
114
114
114
114
114
114
87
87
87
87
87
87
114
114
114
114
114
114
114
114
114
48
48
48
126
126
126
114
114
114
48
48
48
114
114
114
126
126
126
150
150
150
87
87
87
114
114
114
114
114
114
114
114
114
87
87
87
108
108
108
126
126
126
137
137
137
48
48
48
114
114
114
114
114
114
108
108
108
137
137
137
114
114
114
114
114
114
87
87
87
108
108
108
137
137
137
114
114
114
114
114
114
114
114
114
126
126
126
87
87
87
126
126
126
150
150
150
114
114
114
114
114
114
126
126
126
108
108
108
126
126
126
87
87
87
114
114
114
137
137
137
108
108
108
114
114
114
48
48
48
114
114
114
137
137
137
126
126
126
108
108
108
137
137
137
114
114
114
114
114
114
114
114
114
87
87
87
114
114
114
137
137
137
87
87
87
114
114
114
48
48
48
48
48
48
114
114
114
114
114
114
48
48
48
150
150
150
137
137
137
114
114
114
114
114
114
137
137
137
87
87
87
114
114
114
114
114
114
87
87
87
150
150
150
137
137
137
108
108
108
48
48
48
87
87
87
108
108
108
114
114
114
114
114
114
48
48
48
114
114
114
150
150
150
108
108
108
126
126
126
114
114
114
114
114
114
114
114
114
137
137
137
108
108
108
87
87
87
114
114
114
108
108
108
126
126
126
150
150
150
48
48
48
48
48
48
48
48
48
137
137
137
150
150
150
114
114
114
48
48
48
48
48
48
48
48
48
114
114
114
87
87
87
137
137
137
114
114
114
114
114
114
150
150
150
137
137
137
48
48
48
114
114
114
114
114
114
114
114
114
114
114
114
114
114
114
114
114
114
114
114
114
87
87
87
87
87
87
114
114
114
48
48
48
48
48
48
114
114
114
48
48
48
114
114
114
48
48
48
114
114
114
114
114
114
114
114
114
87
87
87
137
137
137
114
114
114
114
114
114
108
108
108
137
137
137
114
114
114
48
48
48
114
114
114
114
114
114
114
114
114
114
114
114
114
114
114
48
48
48
114
114
114
137
137
137
108
108
108
87
87
87
114
114
114
87
87
87
137
137
137
137
137
137
114
114
114
87
87
87
87
87
87
114
114
114
114
114
114
108
108
108
114
114
114
114
114
114
114
114
114
108
108
108
126
126
126
114
114
114
48
48
48
150
150
150
150
150
150
114
114
114
137
137
137
108
108
108
87
87
87
48
48
48
48
48
48
87
87
87
87
87
87
150
150
150
114
114
114
114
114
114
114
114
114
87
87
87
114
114
114
137
137
137
114
114
114
114
114
114
108
108
108
137
137
137
114
114
114
114
114
114
87
87
87
137
137
137
108
108
108
137
137
137
48
48
48
114
114
114
87
87
87
108
108
108
126
126
126
114
114
114
48
48
48
48
48
48
114
114
114
114
114
114
114
114
114
114
114
114
137
137
137
150
150
150
108
108
108
114
114
114
48
48
48
48
48
48
114
114
114
150
150
150
108
108
108
114
114
114
