P2
# Created by GIMP version 2.10.36 PNM plug-in
16 16
255
162
154
162
157
147
159
115
114
149
151
149
156
144
144
145
97
159
137
138
138
124
109
109
95
149
128
129
122
128
130
126
100
145
124
124
123
109
104
146
95
153
109
107
128
129
104
99
96
103
106
130
109
106
106
148
96
158
123
124
106
109
133
136
97
150
144
105
103
147
147
137
94
150
138
138
101
148
138
118
95
150
122
105
147
128
116
128
95
149
123
117
107
123
123
108
100
130
97
102
144
111
95
96
95
140
118
100
96
143
117
117
99
96
95
95
95
96
95
95
94
94
95
99
99
98
97
97
95
150
115
154
153
158
158
151
97
99
160
156
111
115
158
147
157
128
128
113
96
151
138
106
148
147
123
123
124
96
161
138
107
124
139
119
95
153
107
106
129
130
138
124
124
95
152
107
106
137
130
111
95
159
109
145
103
128
130
130
123
94
117
108
144
137
122
106
95
150
148
130
128
104
124
123
122
96
149
147
130
123
116
108
94
150
137
138
128
138
104
109
117
94
150
137
138
97
145
122
95
139
110
122
116
113
112
98
99
96
140
109
121
94
95
95
95
95
94
96
95
93
95
99
94
99
98
97
96
