P3
# Created by GIMP version 2.10.30 PNM plug-in
16 16
255
65
67
72
84
86
91
65
67
72
31
33
38
31
33
38
74
76
81
74
76
81
74
76
81
84
86
91
74
76
81
53
55
60
25
27
32
53
55
60
84
86
91
84
86
91
84
86
91
84
86
91
84
86
91
84
86
91
0
2
7
31
33
38
31
33
38
84
86
91
74
76
81
74
76
81
53
55
60
25
27
32
53
55
60
25
27
32
74
76
81
74
76
81
53
55
60
84
86
91
84
86
91
84
86
91
8
10
15
53
55
60
31
33
38
84
86
91
84
86
91
53
55
60
25
27
32
53
55
60
57
59
64
53
55
60
74
76
81
53
55
60
84
86
91
57
59
64
57
59
64
84
86
91
53
55
60
31
33
38
25
27
32
84
86
91
53
55
60
53
55
60
53
55
60
57
59
64
53
55
60
74
76
81
53
55
60
25
27
32
25
27
32
31
33
38
25
27
32
57
59
64
53
55
60
0
2
7
31
33
38
74
76
81
84
86
91
12
14
19
57
59
64
31
33
38
74
76
81
31
33
38
53
55
60
84
86
91
65
67
72
31
33
38
25
27
32
57
59
64
57
59
64
53
55
60
31
33
38
31
33
38
74
76
81
8
10
15
31
33
38
0
2
7
31
33
38
53
55
60
74
76
81
74
76
81
65
67
72
31
33
38
31
33
38
0
2
7
84
86
91
31
33
38
84
86
91
31
33
38
8
10
15
31
33
38
0
2
7
31
33
38
74
76
81
57
59
64
57
59
64
84
86
91
65
67
72
57
59
64
57
59
64
31
33
38
0
2
7
31
33
38
31
33
38
53
55
60
31
33
38
31
33
38
31
33
38
74
76
81
57
59
64
25
27
32
25
27
32
25
27
32
65
67
72
84
86
91
84
86
91
57
59
64
57
59
64
31
33
38
0
2
7
53
55
60
53
55
60
31
33
38
31
33
38
25
27
32
12
14
19
25
27
32
25
27
32
25
27
32
25
27
32
84
86
91
84
86
91
57
59
64
57
59
64
0
2
7
25
27
32
53
55
60
0
2
7
31
33
38
8
10
15
8
10
15
74
76
81
74
76
81
65
67
72
12
14
19
25
27
32
84
86
91
57
59
64
25
27
32
0
2
7
25
27
32
84
86
91
74
76
81
8
10
15
84
86
91
8
10
15
0
2
7
57
59
64
74
76
81
65
67
72
25
27
32
65
67
72
57
59
64
57
59
64
0
2
7
53
55
60
25
27
32
84
86
91
74
76
81
25
27
32
84
86
91
57
59
64
0
2
7
31
33
38
57
59
64
74
76
81
65
67
72
65
67
72
84
86
91
53
55
60
53
55
60
53
55
60
53
55
60
74
76
81
25
27
32
84
86
91
84
86
91
84
86
91
57
59
64
25
27
32
31
33
38
57
59
64
74
76
81
65
67
72
84
86
91
53
55
60
84
86
91
84
86
91
74
76
81
53
55
60
53
55
60
74
76
81
65
67
72
74
76
81
57
59
64
57
59
64
31
33
38
25
27
32
57
59
64
65
67
72
53
55
60
84
86
91
84
86
91
74
76
81
74
76
81
65
67
72
65
67
72
53
55
60
84
86
91
84
86
91
74
76
81
57
59
64
31
33
38
74
76
81
57
59
64
65
67
72
65
67
72
65
67
72
65
67
72
65
67
72
65
67
72
65
67
72
25
27
32
65
67
72
65
67
72
65
67
72
65
67
72
57
59
64
57
59
64
84
86
91
65
67
72
65
67
72
