P3
# Created by GIMP version 2.10.30 PNM plug-in
16 16
255
82
85
179
101
104
198
82
85
179
48
51
145
48
51
145
91
94
188
91
94
188
91
94
188
101
104
198
91
94
188
70
73
167
42
45
139
70
73
167
101
104
198
101
104
198
101
104
198
101
104
198
101
104
198
101
104
198
17
20
114
48
51
145
48
51
145
101
104
198
91
94
188
91
94
188
70
73
167
42
45
139
70
73
167
42
45
139
91
94
188
91
94
188
70
73
167
101
104
198
101
104
198
101
104
198
25
28
122
70
73
167
48
51
145
101
104
198
101
104
198
70
73
167
42
45
139
70
73
167
74
77
171
70
73
167
91
94
188
70
73
167
101
104
198
74
77
171
74
77
171
101
104
198
70
73
167
48
51
145
42
45
139
101
104
198
70
73
167
70
73
167
70
73
167
74
77
171
70
73
167
91
94
188
70
73
167
42
45
139
42
45
139
48
51
145
42
45
139
74
77
171
70
73
167
17
20
114
48
51
145
91
94
188
101
104
198
29
32
126
74
77
171
48
51
145
91
94
188
48
51
145
70
73
167
101
104
198
82
85
179
48
51
145
42
45
139
74
77
171
74
77
171
70
73
167
48
51
145
48
51
145
91
94
188
25
28
122
48
51
145
17
20
114
48
51
145
70
73
167
91
94
188
91
94
188
82
85
179
48
51
145
48
51
145
17
20
114
101
104
198
48
51
145
101
104
198
48
51
145
25
28
122
48
51
145
17
20
114
48
51
145
91
94
188
74
77
171
74
77
171
101
104
198
82
85
179
74
77
171
74
77
171
48
51
145
17
20
114
48
51
145
48
51
145
70
73
167
48
51
145
48
51
145
48
51
145
91
94
188
74
77
171
42
45
139
42
45
139
42
45
139
82
85
179
101
104
198
101
104
198
74
77
171
74
77
171
48
51
145
17
20
114
70
73
167
70
73
167
48
51
145
48
51
145
42
45
139
29
32
126
42
45
139
42
45
139
42
45
139
42
45
139
101
104
198
101
104
198
74
77
171
74
77
171
17
20
114
42
45
139
70
73
167
17
20
114
48
51
145
25
28
122
25
28
122
91
94
188
91
94
188
82
85
179
29
32
126
42
45
139
101
104
198
74
77
171
42
45
139
17
20
114
42
45
139
101
104
198
91
94
188
25
28
122
101
104
198
25
28
122
17
20
114
74
77
171
91
94
188
82
85
179
42
45
139
82
85
179
74
77
171
74
77
171
17
20
114
70
73
167
42
45
139
101
104
198
91
94
188
42
45
139
101
104
198
74
77
171
17
20
114
48
51
145
74
77
171
91
94
188
82
85
179
82
85
179
101
104
198
70
73
167
70
73
167
70
73
167
70
73
167
91
94
188
42
45
139
101
104
198
101
104
198
101
104
198
74
77
171
42
45
139
48
51
145
74
77
171
91
94
188
82
85
179
101
104
198
70
73
167
101
104
198
101
104
198
91
94
188
70
73
167
70
73
167
91
94
188
82
85
179
91
94
188
74
77
171
74
77
171
48
51
145
42
45
139
74
77
171
82
85
179
70
73
167
101
104
198
101
104
198
91
94
188
91
94
188
82
85
179
82
85
179
70
73
167
101
104
198
101
104
198
91
94
188
74
77
171
48
51
145
91
94
188
74
77
171
82
85
179
82
85
179
82
85
179
82
85
179
82
85
179
82
85
179
82
85
179
42
45
139
82
85
179
82
85
179
82
85
179
82
85
179
74
77
171
74
77
171
101
104
198
82
85
179
82
85
179
