P3
# Created by GIMP version 2.10.30 PNM plug-in
16 16
255
120
142
65
139
161
84
120
142
65
86
108
31
86
108
31
129
151
74
129
151
74
129
151
74
139
161
84
129
151
74
108
130
53
80
102
25
108
130
53
139
161
84
139
161
84
139
161
84
139
161
84
139
161
84
139
161
84
55
77
0
86
108
31
86
108
31
139
161
84
129
151
74
129
151
74
108
130
53
80
102
25
108
130
53
80
102
25
129
151
74
129
151
74
108
130
53
139
161
84
139
161
84
139
161
84
63
85
8
108
130
53
86
108
31
139
161
84
139
161
84
108
130
53
80
102
25
108
130
53
112
134
57
108
130
53
129
151
74
108
130
53
139
161
84
112
134
57
112
134
57
139
161
84
108
130
53
86
108
31
80
102
25
139
161
84
108
130
53
108
130
53
108
130
53
112
134
57
108
130
53
129
151
74
108
130
53
80
102
25
80
102
25
86
108
31
80
102
25
112
134
57
108
130
53
55
77
0
86
108
31
129
151
74
139
161
84
67
89
12
112
134
57
86
108
31
129
151
74
86
108
31
108
130
53
139
161
84
120
142
65
86
108
31
80
102
25
112
134
57
112
134
57
108
130
53
86
108
31
86
108
31
129
151
74
63
85
8
86
108
31
55
77
0
86
108
31
108
130
53
129
151
74
129
151
74
120
142
65
86
108
31
86
108
31
55
77
0
139
161
84
86
108
31
139
161
84
86
108
31
63
85
8
86
108
31
55
77
0
86
108
31
129
151
74
112
134
57
112
134
57
139
161
84
120
142
65
112
134
57
112
134
57
86
108
31
55
77
0
86
108
31
86
108
31
108
130
53
86
108
31
86
108
31
86
108
31
129
151
74
112
134
57
80
102
25
80
102
25
80
102
25
120
142
65
139
161
84
139
161
84
112
134
57
112
134
57
86
108
31
55
77
0
108
130
53
108
130
53
86
108
31
86
108
31
80
102
25
67
89
12
80
102
25
80
102
25
80
102
25
80
102
25
139
161
84
139
161
84
112
134
57
112
134
57
55
77
0
80
102
25
108
130
53
55
77
0
86
108
31
63
85
8
63
85
8
129
151
74
129
151
74
120
142
65
67
89
12
80
102
25
139
161
84
112
134
57
80
102
25
55
77
0
80
102
25
139
161
84
129
151
74
63
85
8
139
161
84
63
85
8
55
77
0
112
134
57
129
151
74
120
142
65
80
102
25
120
142
65
112
134
57
112
134
57
55
77
0
108
130
53
80
102
25
139
161
84
129
151
74
80
102
25
139
161
84
112
134
57
55
77
0
86
108
31
112
134
57
129
151
74
120
142
65
120
142
65
139
161
84
108
130
53
108
130
53
108
130
53
108
130
53
129
151
74
80
102
25
139
161
84
139
161
84
139
161
84
112
134
57
80
102
25
86
108
31
112
134
57
129
151
74
120
142
65
139
161
84
108
130
53
139
161
84
139
161
84
129
151
74
108
130
53
108
130
53
129
151
74
120
142
65
129
151
74
112
134
57
112
134
57
86
108
31
80
102
25
112
134
57
120
142
65
108
130
53
139
161
84
139
161
84
129
151
74
129
151
74
120
142
65
120
142
65
108
130
53
139
161
84
139
161
84
129
151
74
112
134
57
86
108
31
129
151
74
112
134
57
120
142
65
120
142
65
120
142
65
120
142
65
120
142
65
120
142
65
120
142
65
80
102
25
120
142
65
120
142
65
120
142
65
120
142
65
112
134
57
112
134
57
139
161
84
120
142
65
120
142
65
