P3
# Created by GIMP version 2.10.30 PNM plug-in
16 16
255
187
220
145
206
239
164
187
220
145
153
186
111
153
186
111
196
229
154
196
229
154
196
229
154
206
239
164
196
229
154
175
208
133
147
180
105
175
208
133
206
239
164
206
239
164
206
239
164
206
239
164
206
239
164
206
239
164
122
155
80
153
186
111
153
186
111
206
239
164
196
229
154
196
229
154
175
208
133
147
180
105
175
208
133
147
180
105
196
229
154
196
229
154
175
208
133
206
239
164
206
239
164
206
239
164
130
163
88
175
208
133
153
186
111
206
239
164
206
239
164
175
208
133
147
180
105
175
208
133
179
212
137
175
208
133
196
229
154
175
208
133
206
239
164
179
212
137
179
212
137
206
239
164
175
208
133
153
186
111
147
180
105
206
239
164
175
208
133
175
208
133
175
208
133
179
212
137
175
208
133
196
229
154
175
208
133
147
180
105
147
180
105
153
186
111
147
180
105
179
212
137
175
208
133
122
155
80
153
186
111
196
229
154
206
239
164
134
167
92
179
212
137
153
186
111
196
229
154
153
186
111
175
208
133
206
239
164
187
220
145
153
186
111
147
180
105
179
212
137
179
212
137
175
208
133
153
186
111
153
186
111
196
229
154
130
163
88
153
186
111
122
155
80
153
186
111
175
208
133
196
229
154
196
229
154
187
220
145
153
186
111
153
186
111
122
155
80
206
239
164
153
186
111
206
239
164
153
186
111
130
163
88
153
186
111
122
155
80
153
186
111
196
229
154
179
212
137
179
212
137
206
239
164
187
220
145
179
212
137
179
212
137
153
186
111
122
155
80
153
186
111
153
186
111
175
208
133
153
186
111
153
186
111
153
186
111
196
229
154
179
212
137
147
180
105
147
180
105
147
180
105
187
220
145
206
239
164
206
239
164
179
212
137
179
212
137
153
186
111
122
155
80
175
208
133
175
208
133
153
186
111
153
186
111
147
180
105
134
167
92
147
180
105
147
180
105
147
180
105
147
180
105
206
239
164
206
239
164
179
212
137
179
212
137
122
155
80
147
180
105
175
208
133
122
155
80
153
186
111
130
163
88
130
163
88
196
229
154
196
229
154
187
220
145
134
167
92
147
180
105
206
239
164
179
212
137
147
180
105
122
155
80
147
180
105
206
239
164
196
229
154
130
163
88
206
239
164
130
163
88
122
155
80
179
212
137
196
229
154
187
220
145
147
180
105
187
220
145
179
212
137
179
212
137
122
155
80
175
208
133
147
180
105
206
239
164
196
229
154
147
180
105
206
239
164
179
212
137
122
155
80
153
186
111
179
212
137
196
229
154
187
220
145
187
220
145
206
239
164
175
208
133
175
208
133
175
208
133
175
208
133
196
229
154
147
180
105
206
239
164
206
239
164
206
239
164
179
212
137
147
180
105
153
186
111
179
212
137
196
229
154
187
220
145
206
239
164
175
208
133
206
239
164
206
239
164
196
229
154
175
208
133
175
208
133
196
229
154
187
220
145
196
229
154
179
212
137
179
212
137
153
186
111
147
180
105
179
212
137
187
220
145
175
208
133
206
239
164
206
239
164
196
229
154
196
229
154
187
220
145
187
220
145
175
208
133
206
239
164
206
239
164
196
229
154
179
212
137
153
186
111
196
229
154
179
212
137
187
220
145
187
220
145
187
220
145
187
220
145
187
220
145
187
220
145
187
220
145
147
180
105
187
220
145
187
220
145
187
220
145
187
220
145
179
212
137
179
212
137
206
239
164
187
220
145
187
220
145
