P3
# Created by GIMP version 2.10.30 PNM plug-in
16 16
255
236
190
140
255
209
159
236
190
140
202
156
106
202
156
106
245
199
149
245
199
149
245
199
149
255
209
159
245
199
149
224
178
128
196
150
100
224
178
128
255
209
159
255
209
159
255
209
159
255
209
159
255
209
159
255
209
159
171
125
75
202
156
106
202
156
106
255
209
159
245
199
149
245
199
149
224
178
128
196
150
100
224
178
128
196
150
100
245
199
149
245
199
149
224
178
128
255
209
159
255
209
159
255
209
159
179
133
83
224
178
128
202
156
106
255
209
159
255
209
159
224
178
128
196
150
100
224
178
128
228
182
132
224
178
128
245
199
149
224
178
128
255
209
159
228
182
132
228
182
132
255
209
159
224
178
128
202
156
106
196
150
100
255
209
159
224
178
128
224
178
128
224
178
128
228
182
132
224
178
128
245
199
149
224
178
128
196
150
100
196
150
100
202
156
106
196
150
100
228
182
132
224
178
128
171
125
75
202
156
106
245
199
149
255
209
159
183
137
87
228
182
132
202
156
106
245
199
149
202
156
106
224
178
128
255
209
159
236
190
140
202
156
106
196
150
100
228
182
132
228
182
132
224
178
128
202
156
106
202
156
106
245
199
149
179
133
83
202
156
106
171
125
75
202
156
106
224
178
128
245
199
149
245
199
149
236
190
140
202
156
106
202
156
106
171
125
75
255
209
159
202
156
106
255
209
159
202
156
106
179
133
83
202
156
106
171
125
75
202
156
106
245
199
149
228
182
132
228
182
132
255
209
159
236
190
140
228
182
132
228
182
132
202
156
106
171
125
75
202
156
106
202
156
106
224
178
128
202
156
106
202
156
106
202
156
106
245
199
149
228
182
132
196
150
100
196
150
100
196
150
100
236
190
140
255
209
159
255
209
159
228
182
132
228
182
132
202
156
106
171
125
75
224
178
128
224
178
128
202
156
106
202
156
106
196
150
100
183
137
87
196
150
100
196
150
100
196
150
100
196
150
100
255
209
159
255
209
159
228
182
132
228
182
132
171
125
75
196
150
100
224
178
128
171
125
75
202
156
106
179
133
83
179
133
83
245
199
149
245
199
149
236
190
140
183
137
87
196
150
100
255
209
159
228
182
132
196
150
100
171
125
75
196
150
100
255
209
159
245
199
149
179
133
83
255
209
159
179
133
83
171
125
75
228
182
132
245
199
149
236
190
140
196
150
100
236
190
140
228
182
132
228
182
132
171
125
75
224
178
128
196
150
100
255
209
159
245
199
149
196
150
100
255
209
159
228
182
132
171
125
75
202
156
106
228
182
132
245
199
149
236
190
140
236
190
140
255
209
159
224
178
128
224
178
128
224
178
128
224
178
128
245
199
149
196
150
100
255
209
159
255
209
159
255
209
159
228
182
132
196
150
100
202
156
106
228
182
132
245
199
149
236
190
140
255
209
159
224
178
128
255
209
159
255
209
159
245
199
149
224
178
128
224
178
128
245
199
149
236
190
140
245
199
149
228
182
132
228
182
132
202
156
106
196
150
100
228
182
132
236
190
140
224
178
128
255
209
159
255
209
159
245
199
149
245
199
149
236
190
140
236
190
140
224
178
128
255
209
159
255
209
159
245
199
149
228
182
132
202
156
106
245
199
149
228
182
132
236
190
140
236
190
140
236
190
140
236
190
140
236
190
140
236
190
140
236
190
140
196
150
100
236
190
140
236
190
140
236
190
140
236
190
140
228
182
132
228
182
132
255
209
159
236
190
140
236
190
140
