P3
# Created by GIMP version 2.10.30 PNM plug-in
16 16
255
236
162
189
255
181
208
236
162
189
202
128
155
202
128
155
245
171
198
245
171
198
245
171
198
255
181
208
245
171
198
224
150
177
196
122
149
224
150
177
255
181
208
255
181
208
255
181
208
255
181
208
255
181
208
255
181
208
171
97
124
202
128
155
202
128
155
255
181
208
245
171
198
245
171
198
224
150
177
196
122
149
224
150
177
196
122
149
245
171
198
245
171
198
224
150
177
255
181
208
255
181
208
255
181
208
179
105
132
224
150
177
202
128
155
255
181
208
255
181
208
224
150
177
196
122
149
224
150
177
228
154
181
224
150
177
245
171
198
224
150
177
255
181
208
228
154
181
228
154
181
255
181
208
224
150
177
202
128
155
196
122
149
255
181
208
224
150
177
224
150
177
224
150
177
228
154
181
224
150
177
245
171
198
224
150
177
196
122
149
196
122
149
202
128
155
196
122
149
228
154
181
224
150
177
171
97
124
202
128
155
245
171
198
255
181
208
183
109
136
228
154
181
202
128
155
245
171
198
202
128
155
224
150
177
255
181
208
236
162
189
202
128
155
196
122
149
228
154
181
228
154
181
224
150
177
202
128
155
202
128
155
245
171
198
179
105
132
202
128
155
171
97
124
202
128
155
224
150
177
245
171
198
245
171
198
236
162
189
202
128
155
202
128
155
171
97
124
255
181
208
202
128
155
255
181
208
202
128
155
179
105
132
202
128
155
171
97
124
202
128
155
245
171
198
228
154
181
228
154
181
255
181
208
236
162
189
228
154
181
228
154
181
202
128
155
171
97
124
202
128
155
202
128
155
224
150
177
202
128
155
202
128
155
202
128
155
245
171
198
228
154
181
196
122
149
196
122
149
196
122
149
236
162
189
255
181
208
255
181
208
228
154
181
228
154
181
202
128
155
171
97
124
224
150
177
224
150
177
202
128
155
202
128
155
196
122
149
183
109
136
196
122
149
196
122
149
196
122
149
196
122
149
255
181
208
255
181
208
228
154
181
228
154
181
171
97
124
196
122
149
224
150
177
171
97
124
202
128
155
179
105
132
179
105
132
245
171
198
245
171
198
236
162
189
183
109
136
196
122
149
255
181
208
228
154
181
196
122
149
171
97
124
196
122
149
255
181
208
245
171
198
179
105
132
255
181
208
179
105
132
171
97
124
228
154
181
245
171
198
236
162
189
196
122
149
236
162
189
228
154
181
228
154
181
171
97
124
224
150
177
196
122
149
255
181
208
245
171
198
196
122
149
255
181
208
228
154
181
171
97
124
202
128
155
228
154
181
245
171
198
236
162
189
236
162
189
255
181
208
224
150
177
224
150
177
224
150
177
224
150
177
245
171
198
196
122
149
255
181
208
255
181
208
255
181
208
228
154
181
196
122
149
202
128
155
228
154
181
245
171
198
236
162
189
255
181
208
224
150
177
255
181
208
255
181
208
245
171
198
224
150
177
224
150
177
245
171
198
236
162
189
245
171
198
228
154
181
228
154
181
202
128
155
196
122
149
228
154
181
236
162
189
224
150
177
255
181
208
255
181
208
245
171
198
245
171
198
236
162
189
236
162
189
224
150
177
255
181
208
255
181
208
245
171
198
228
154
181
202
128
155
245
171
198
228
154
181
236
162
189
236
162
189
236
162
189
236
162
189
236
162
189
236
162
189
236
162
189
196
122
149
236
162
189
236
162
189
236
162
189
236
162
189
228
154
181
228
154
181
255
181
208
236
162
189
236
162
189
