P3
# Created by GIMP version 2.10.30 PNM plug-in
16 16
255
143
67
189
162
86
208
143
67
189
109
33
155
109
33
155
152
76
198
152
76
198
152
76
198
162
86
208
152
76
198
131
55
177
103
27
149
131
55
177
162
86
208
162
86
208
162
86
208
162
86
208
162
86
208
162
86
208
78
2
124
109
33
155
109
33
155
162
86
208
152
76
198
152
76
198
131
55
177
103
27
149
131
55
177
103
27
149
152
76
198
152
76
198
131
55
177
162
86
208
162
86
208
162
86
208
86
10
132
131
55
177
109
33
155
162
86
208
162
86
208
131
55
177
103
27
149
131
55
177
135
59
181
131
55
177
152
76
198
131
55
177
162
86
208
135
59
181
135
59
181
162
86
208
131
55
177
109
33
155
103
27
149
162
86
208
131
55
177
131
55
177
131
55
177
135
59
181
131
55
177
152
76
198
131
55
177
103
27
149
103
27
149
109
33
155
103
27
149
135
59
181
131
55
177
78
2
124
109
33
155
152
76
198
162
86
208
90
14
136
135
59
181
109
33
155
152
76
198
109
33
155
131
55
177
162
86
208
143
67
189
109
33
155
103
27
149
135
59
181
135
59
181
131
55
177
109
33
155
109
33
155
152
76
198
86
10
132
109
33
155
78
2
124
109
33
155
131
55
177
152
76
198
152
76
198
143
67
189
109
33
155
109
33
155
78
2
124
162
86
208
109
33
155
162
86
208
109
33
155
86
10
132
109
33
155
78
2
124
109
33
155
152
76
198
135
59
181
135
59
181
162
86
208
143
67
189
135
59
181
135
59
181
109
33
155
78
2
124
109
33
155
109
33
155
131
55
177
109
33
155
109
33
155
109
33
155
152
76
198
135
59
181
103
27
149
103
27
149
103
27
149
143
67
189
162
86
208
162
86
208
135
59
181
135
59
181
109
33
155
78
2
124
131
55
177
131
55
177
109
33
155
109
33
155
103
27
149
90
14
136
103
27
149
103
27
149
103
27
149
103
27
149
162
86
208
162
86
208
135
59
181
135
59
181
78
2
124
103
27
149
131
55
177
78
2
124
109
33
155
86
10
132
86
10
132
152
76
198
152
76
198
143
67
189
90
14
136
103
27
149
162
86
208
135
59
181
103
27
149
78
2
124
103
27
149
162
86
208
152
76
198
86
10
132
162
86
208
86
10
132
78
2
124
135
59
181
152
76
198
143
67
189
103
27
149
143
67
189
135
59
181
135
59
181
78
2
124
131
55
177
103
27
149
162
86
208
152
76
198
103
27
149
162
86
208
135
59
181
78
2
124
109
33
155
135
59
181
152
76
198
143
67
189
143
67
189
162
86
208
131
55
177
131
55
177
131
55
177
131
55
177
152
76
198
103
27
149
162
86
208
162
86
208
162
86
208
135
59
181
103
27
149
109
33
155
135
59
181
152
76
198
143
67
189
162
86
208
131
55
177
162
86
208
162
86
208
152
76
198
131
55
177
131
55
177
152
76
198
143
67
189
152
76
198
135
59
181
135
59
181
109
33
155
103
27
149
135
59
181
143
67
189
131
55
177
162
86
208
162
86
208
152
76
198
152
76
198
143
67
189
143
67
189
131
55
177
162
86
208
162
86
208
152
76
198
135
59
181
109
33
155
152
76
198
135
59
181
143
67
189
143
67
189
143
67
189
143
67
189
143
67
189
143
67
189
143
67
189
103
27
149
143
67
189
143
67
189
143
67
189
143
67
189
135
59
181
135
59
181
162
86
208
143
67
189
143
67
189
