P3
# Created by GIMP version 2.10.30 PNM plug-in
16 16
255
190
153
214
209
172
233
190
153
214
156
119
180
156
119
180
199
162
223
199
162
223
199
162
223
209
172
233
199
162
223
178
141
202
150
113
174
178
141
202
209
172
233
209
172
233
209
172
233
209
172
233
209
172
233
209
172
233
125
88
149
156
119
180
156
119
180
209
172
233
199
162
223
199
162
223
178
141
202
150
113
174
178
141
202
150
113
174
199
162
223
199
162
223
178
141
202
209
172
233
209
172
233
209
172
233
133
96
157
178
141
202
156
119
180
209
172
233
209
172
233
178
141
202
150
113
174
178
141
202
182
145
206
178
141
202
199
162
223
178
141
202
209
172
233
182
145
206
182
145
206
209
172
233
178
141
202
156
119
180
150
113
174
209
172
233
178
141
202
178
141
202
178
141
202
182
145
206
178
141
202
199
162
223
178
141
202
150
113
174
150
113
174
156
119
180
150
113
174
182
145
206
178
141
202
125
88
149
156
119
180
199
162
223
209
172
233
137
100
161
182
145
206
156
119
180
199
162
223
156
119
180
178
141
202
209
172
233
190
153
214
156
119
180
150
113
174
182
145
206
182
145
206
178
141
202
156
119
180
156
119
180
199
162
223
133
96
157
156
119
180
125
88
149
156
119
180
178
141
202
199
162
223
199
162
223
190
153
214
156
119
180
156
119
180
125
88
149
209
172
233
156
119
180
209
172
233
156
119
180
133
96
157
156
119
180
125
88
149
156
119
180
199
162
223
182
145
206
182
145
206
209
172
233
190
153
214
182
145
206
182
145
206
156
119
180
125
88
149
156
119
180
156
119
180
178
141
202
156
119
180
156
119
180
156
119
180
199
162
223
182
145
206
150
113
174
150
113
174
150
113
174
190
153
214
209
172
233
209
172
233
182
145
206
182
145
206
156
119
180
125
88
149
178
141
202
178
141
202
156
119
180
156
119
180
150
113
174
137
100
161
150
113
174
150
113
174
150
113
174
150
113
174
209
172
233
209
172
233
182
145
206
182
145
206
125
88
149
150
113
174
178
141
202
125
88
149
156
119
180
133
96
157
133
96
157
199
162
223
199
162
223
190
153
214
137
100
161
150
113
174
209
172
233
182
145
206
150
113
174
125
88
149
150
113
174
209
172
233
199
162
223
133
96
157
209
172
233
133
96
157
125
88
149
182
145
206
199
162
223
190
153
214
150
113
174
190
153
214
182
145
206
182
145
206
125
88
149
178
141
202
150
113
174
209
172
233
199
162
223
150
113
174
209
172
233
182
145
206
125
88
149
156
119
180
182
145
206
199
162
223
190
153
214
190
153
214
209
172
233
178
141
202
178
141
202
178
141
202
178
141
202
199
162
223
150
113
174
209
172
233
209
172
233
209
172
233
182
145
206
150
113
174
156
119
180
182
145
206
199
162
223
190
153
214
209
172
233
178
141
202
209
172
233
209
172
233
199
162
223
178
141
202
178
141
202
199
162
223
190
153
214
199
162
223
182
145
206
182
145
206
156
119
180
150
113
174
182
145
206
190
153
214
178
141
202
209
172
233
209
172
233
199
162
223
199
162
223
190
153
214
190
153
214
178
141
202
209
172
233
209
172
233
199
162
223
182
145
206
156
119
180
199
162
223
182
145
206
190
153
214
190
153
214
190
153
214
190
153
214
190
153
214
190
153
214
190
153
214
150
113
174
190
153
214
190
153
214
190
153
214
190
153
214
182
145
206
182
145
206
209
172
233
190
153
214
190
153
214
