P3
# Created by GIMP version 2.10.30 PNM plug-in
16 16
255
184
69
65
203
88
84
184
69
65
150
35
31
150
35
31
193
78
74
193
78
74
193
78
74
203
88
84
193
78
74
172
57
53
144
29
25
172
57
53
203
88
84
203
88
84
203
88
84
203
88
84
203
88
84
203
88
84
119
4
0
150
35
31
150
35
31
203
88
84
193
78
74
193
78
74
172
57
53
144
29
25
172
57
53
144
29
25
193
78
74
193
78
74
172
57
53
203
88
84
203
88
84
203
88
84
127
12
8
172
57
53
150
35
31
203
88
84
203
88
84
172
57
53
144
29
25
172
57
53
176
61
57
172
57
53
193
78
74
172
57
53
203
88
84
176
61
57
176
61
57
203
88
84
172
57
53
150
35
31
144
29
25
203
88
84
172
57
53
172
57
53
172
57
53
176
61
57
172
57
53
193
78
74
172
57
53
144
29
25
144
29
25
150
35
31
144
29
25
176
61
57
172
57
53
119
4
0
150
35
31
193
78
74
203
88
84
131
16
12
176
61
57
150
35
31
193
78
74
150
35
31
172
57
53
203
88
84
184
69
65
150
35
31
144
29
25
176
61
57
176
61
57
172
57
53
150
35
31
150
35
31
193
78
74
127
12
8
150
35
31
119
4
0
150
35
31
172
57
53
193
78
74
193
78
74
184
69
65
150
35
31
150
35
31
119
4
0
203
88
84
150
35
31
203
88
84
150
35
31
127
12
8
150
35
31
119
4
0
150
35
31
193
78
74
176
61
57
176
61
57
203
88
84
184
69
65
176
61
57
176
61
57
150
35
31
119
4
0
150
35
31
150
35
31
172
57
53
150
35
31
150
35
31
150
35
31
193
78
74
176
61
57
144
29
25
144
29
25
144
29
25
184
69
65
203
88
84
203
88
84
176
61
57
176
61
57
150
35
31
119
4
0
172
57
53
172
57
53
150
35
31
150
35
31
144
29
25
131
16
12
144
29
25
144
29
25
144
29
25
144
29
25
203
88
84
203
88
84
176
61
57
176
61
57
119
4
0
144
29
25
172
57
53
119
4
0
150
35
31
127
12
8
127
12
8
193
78
74
193
78
74
184
69
65
131
16
12
144
29
25
203
88
84
176
61
57
144
29
25
119
4
0
144
29
25
203
88
84
193
78
74
127
12
8
203
88
84
127
12
8
119
4
0
176
61
57
193
78
74
184
69
65
144
29
25
184
69
65
176
61
57
176
61
57
119
4
0
172
57
53
144
29
25
203
88
84
193
78
74
144
29
25
203
88
84
176
61
57
119
4
0
150
35
31
176
61
57
193
78
74
184
69
65
184
69
65
203
88
84
172
57
53
172
57
53
172
57
53
172
57
53
193
78
74
144
29
25
203
88
84
203
88
84
203
88
84
176
61
57
144
29
25
150
35
31
176
61
57
193
78
74
184
69
65
203
88
84
172
57
53
203
88
84
203
88
84
193
78
74
172
57
53
172
57
53
193
78
74
184
69
65
193
78
74
176
61
57
176
61
57
150
35
31
144
29
25
176
61
57
184
69
65
172
57
53
203
88
84
203
88
84
193
78
74
193
78
74
184
69
65
184
69
65
172
57
53
203
88
84
203
88
84
193
78
74
176
61
57
150
35
31
193
78
74
176
61
57
184
69
65
184
69
65
184
69
65
184
69
65
184
69
65
184
69
65
184
69
65
144
29
25
184
69
65
184
69
65
184
69
65
184
69
65
176
61
57
176
61
57
203
88
84
184
69
65
184
69
65
