P3
# Created by GIMP version 2.10.30 PNM plug-in
16 16
255
234
236
236
253
255
255
234
236
236
200
202
202
200
202
202
243
245
245
243
245
245
243
245
245
253
255
255
243
245
245
222
224
224
194
196
196
222
224
224
253
255
255
253
255
255
253
255
255
253
255
255
253
255
255
253
255
255
169
171
171
200
202
202
200
202
202
253
255
255
243
245
245
243
245
245
222
224
224
194
196
196
222
224
224
194
196
196
243
245
245
243
245
245
222
224
224
253
255
255
253
255
255
253
255
255
177
179
179
222
224
224
200
202
202
253
255
255
253
255
255
222
224
224
194
196
196
222
224
224
226
228
228
222
224
224
243
245
245
222
224
224
253
255
255
226
228
228
226
228
228
253
255
255
222
224
224
200
202
202
194
196
196
253
255
255
222
224
224
222
224
224
222
224
224
226
228
228
222
224
224
243
245
245
222
224
224
194
196
196
194
196
196
200
202
202
194
196
196
226
228
228
222
224
224
169
171
171
200
202
202
243
245
245
253
255
255
181
183
183
226
228
228
200
202
202
243
245
245
200
202
202
222
224
224
253
255
255
234
236
236
200
202
202
194
196
196
226
228
228
226
228
228
222
224
224
200
202
202
200
202
202
243
245
245
177
179
179
200
202
202
169
171
171
200
202
202
222
224
224
243
245
245
243
245
245
234
236
236
200
202
202
200
202
202
169
171
171
253
255
255
200
202
202
253
255
255
200
202
202
177
179
179
200
202
202
169
171
171
200
202
202
243
245
245
226
228
228
226
228
228
253
255
255
234
236
236
226
228
228
226
228
228
200
202
202
169
171
171
200
202
202
200
202
202
222
224
224
200
202
202
200
202
202
200
202
202
243
245
245
226
228
228
194
196
196
194
196
196
194
196
196
234
236
236
253
255
255
253
255
255
226
228
228
226
228
228
200
202
202
169
171
171
222
224
224
222
224
224
200
202
202
200
202
202
194
196
196
181
183
183
194
196
196
194
196
196
194
196
196
194
196
196
253
255
255
253
255
255
226
228
228
226
228
228
169
171
171
194
196
196
222
224
224
169
171
171
200
202
202
177
179
179
177
179
179
243
245
245
243
245
245
234
236
236
181
183
183
194
196
196
253
255
255
226
228
228
194
196
196
169
171
171
194
196
196
253
255
255
243
245
245
177
179
179
253
255
255
177
179
179
169
171
171
226
228
228
243
245
245
234
236
236
194
196
196
234
236
236
226
228
228
226
228
228
169
171
171
222
224
224
194
196
196
253
255
255
243
245
245
194
196
196
253
255
255
226
228
228
169
171
171
200
202
202
226
228
228
243
245
245
234
236
236
234
236
236
253
255
255
222
224
224
222
224
224
222
224
224
222
224
224
243
245
245
194
196
196
253
255
255
253
255
255
253
255
255
226
228
228
194
196
196
200
202
202
226
228
228
243
245
245
234
236
236
253
255
255
222
224
224
253
255
255
253
255
255
243
245
245
222
224
224
222
224
224
243
245
245
234
236
236
243
245
245
226
228
228
226
228
228
200
202
202
194
196
196
226
228
228
234
236
236
222
224
224
253
255
255
253
255
255
243
245
245
243
245
245
234
236
236
234
236
236
222
224
224
253
255
255
253
255
255
243
245
245
226
228
228
200
202
202
243
245
245
226
228
228
234
236
236
234
236
236
234
236
236
234
236
236
234
236
236
234
236
236
234
236
236
194
196
196
234
236
236
234
236
236
234
236
236
234
236
236
226
228
228
226
228
228
253
255
255
234
236
236
234
236
236
