P3
# Created by GIMP version 2.10.30 PNM plug-in
16 16
255
236
203
65
255
222
84
236
203
65
202
169
31
202
169
31
245
212
74
245
212
74
245
212
74
255
222
84
245
212
74
224
191
53
196
163
25
224
191
53
255
222
84
255
222
84
255
222
84
255
222
84
255
222
84
255
222
84
171
138
0
202
169
31
202
169
31
255
222
84
245
212
74
245
212
74
224
191
53
196
163
25
224
191
53
196
163
25
245
212
74
245
212
74
224
191
53
255
222
84
255
222
84
255
222
84
179
146
8
224
191
53
202
169
31
255
222
84
255
222
84
224
191
53
196
163
25
224
191
53
228
195
57
224
191
53
245
212
74
224
191
53
255
222
84
228
195
57
228
195
57
255
222
84
224
191
53
202
169
31
196
163
25
255
222
84
224
191
53
224
191
53
224
191
53
228
195
57
224
191
53
245
212
74
224
191
53
196
163
25
196
163
25
202
169
31
196
163
25
228
195
57
224
191
53
171
138
0
202
169
31
245
212
74
255
222
84
183
150
12
228
195
57
202
169
31
245
212
74
202
169
31
224
191
53
255
222
84
236
203
65
202
169
31
196
163
25
228
195
57
228
195
57
224
191
53
202
169
31
202
169
31
245
212
74
179
146
8
202
169
31
171
138
0
202
169
31
224
191
53
245
212
74
245
212
74
236
203
65
202
169
31
202
169
31
171
138
0
255
222
84
202
169
31
255
222
84
202
169
31
179
146
8
202
169
31
171
138
0
202
169
31
245
212
74
228
195
57
228
195
57
255
222
84
236
203
65
228
195
57
228
195
57
202
169
31
171
138
0
202
169
31
202
169
31
224
191
53
202
169
31
202
169
31
202
169
31
245
212
74
228
195
57
196
163
25
196
163
25
196
163
25
236
203
65
255
222
84
255
222
84
228
195
57
228
195
57
202
169
31
171
138
0
224
191
53
224
191
53
202
169
31
202
169
31
196
163
25
183
150
12
196
163
25
196
163
25
196
163
25
196
163
25
255
222
84
255
222
84
228
195
57
228
195
57
171
138
0
196
163
25
224
191
53
171
138
0
202
169
31
179
146
8
179
146
8
245
212
74
245
212
74
236
203
65
183
150
12
196
163
25
255
222
84
228
195
57
196
163
25
171
138
0
196
163
25
255
222
84
245
212
74
179
146
8
255
222
84
179
146
8
171
138
0
228
195
57
245
212
74
236
203
65
196
163
25
236
203
65
228
195
57
228
195
57
171
138
0
224
191
53
196
163
25
255
222
84
245
212
74
196
163
25
255
222
84
228
195
57
171
138
0
202
169
31
228
195
57
245
212
74
236
203
65
236
203
65
255
222
84
224
191
53
224
191
53
224
191
53
224
191
53
245
212
74
196
163
25
255
222
84
255
222
84
255
222
84
228
195
57
196
163
25
202
169
31
228
195
57
245
212
74
236
203
65
255
222
84
224
191
53
255
222
84
255
222
84
245
212
74
224
191
53
224
191
53
245
212
74
236
203
65
245
212
74
228
195
57
228
195
57
202
169
31
196
163
25
228
195
57
236
203
65
224
191
53
255
222
84
255
222
84
245
212
74
245
212
74
236
203
65
236
203
65
224
191
53
255
222
84
255
222
84
245
212
74
228
195
57
202
169
31
245
212
74
228
195
57
236
203
65
236
203
65
236
203
65
236
203
65
236
203
65
236
203
65
236
203
65
196
163
25
236
203
65
236
203
65
236
203
65
236
203
65
228
195
57
228
195
57
255
222
84
236
203
65
236
203
65
