P3
# Created by GIMP version 2.10.36 PNM plug-in
16 16
255
112
112
112
112
112
112
112
112
112
112
112
112
112
112
112
112
112
112
112
112
112
112
112
112
112
112
112
112
112
112
112
112
112
112
112
112
112
112
112
112
112
112
112
112
112
112
112
112
112
112
112
112
112
112
112
112
112
112
112
112
112
112
112
112
112
112
112
112
112
112
112
112
112
112
112
112
112
112
112
112
112
112
112
112
112
112
112
112
112
112
112
112
112
112
112
112
112
112
112
112
112
112
112
112
112
63
63
63
112
112
112
112
112
112
112
112
112
112
112
112
112
112
112
112
112
112
112
112
112
112
112
112
112
112
112
112
112
112
112
112
112
112
112
112
112
112
112
112
112
112
68
68
68
199
199
199
66
66
66
112
112
112
79
79
79
112
112
112
112
112
112
112
112
112
77
77
77
112
112
112
112
112
112
112
112
112
112
112
112
112
112
112
112
112
112
112
112
112
112
112
112
61
61
61
112
112
112
82
82
82
179
179
179
77
77
77
112
112
112
63
63
63
180
180
180
66
66
66
112
112
112
112
112
112
62
62
62
112
112
112
112
112
112
112
112
112
62
62
62
112
112
112
112
112
112
112
112
112
83
83
83
112
112
112
112
112
112
112
112
112
77
77
77
112
112
112
112
112
112
66
66
66
182
182
182
60
60
60
112
112
112
68
68
68
112
112
112
112
112
112
112
112
112
112
112
112
112
112
112
112
112
112
112
112
112
112
112
112
112
112
112
112
112
112
112
112
112
112
112
112
84
84
84
112
112
112
68
68
68
194
194
194
72
72
72
112
112
112
112
112
112
112
112
112
112
112
112
76
76
76
112
112
112
112
112
112
112
112
112
112
112
112
81
81
81
112
112
112
112
112
112
112
112
112
112
112
112
65
65
65
112
112
112
112
112
112
112
112
112
112
112
112
112
112
112
112
112
112
112
112
112
112
112
112
112
112
112
79
79
79
186
186
186
80
80
80
112
112
112
112
112
112
112
112
112
112
112
112
112
112
112
112
112
112
112
112
112
112
112
112
112
112
112
112
112
112
112
112
112
112
112
112
112
112
112
112
112
112
83
83
83
112
112
112
112
112
112
77
77
77
112
112
112
112
112
112
112
112
112
72
72
72
112
112
112
112
112
112
112
112
112
112
112
112
112
112
112
75
75
75
112
112
112
112
112
112
112
112
112
112
112
112
112
112
112
112
112
112
112
112
112
112
112
112
112
112
112
112
112
112
112
112
112
112
112
112
112
112
112
112
112
112
112
112
112
112
112
112
112
112
112
112
112
112
112
112
112
112
112
112
112
112
112
112
112
112
112
112
112
112
112
112
112
112
112
112
112
112
112
112
112
112
112
112
112
112
112
112
112
112
112
112
112
112
112
112
112
112
112
112
112
112
112
112
112
112
112
112
112
112
112
112
112
112
112
112
112
112
112
112
112
112
112
112
112
112
112
112
112
112
112
112
112
112
112
112
112
112
112
112
112
112
112
112
112
112
112
112
112
112
112
112
112
112
112
112
112
112
112
112
112
112
112
112
112
112
112
112
112
112
112
112
112
112
112
112
112
112
112
112
112
112
112
112
112
112
112
112
112
112
112
112
112
112
112
112
112
112
112
112
112
112
112
112
112
112
112
112
112
112
112
112
112
112
112
112
112
112
112
112
112
112
112
112
112
112
112
112
112
112
112
112
112
112
112
112
112
112
112
112
112
112
112
112
112
112
112
112
112
112
112
112
112
112
112
112
112
112
