P3
# Created by GIMP version 2.10.36 PNM plug-in
16 16
255
232
178
123
232
178
123
232
178
123
232
178
123
232
178
123
232
178
123
232
178
123
232
178
123
232
178
123
232
178
123
232
178
123
232
178
123
232
178
123
232
178
123
232
178
123
232
178
123
232
178
123
232
178
123
232
178
123
232
178
123
232
178
123
232
178
123
232
178
123
232
178
123
232
178
123
232
178
123
232
178
123
232
178
123
232
178
123
232
178
123
232
178
123
232
178
123
232
178
123
232
178
123
232
178
123
232
178
123
232
178
123
232
178
123
232
178
123
232
178
123
232
178
123
232
178
123
232
178
123
232
178
123
232
178
123
232
178
123
232
178
123
232
178
123
232
178
123
232
178
123
232
178
123
232
178
123
232
178
123
232
178
123
232
178
123
232
178
123
232
178
123
232
178
123
232
178
123
232
178
123
232
178
123
232
178
123
232
178
123
232
178
123
232
178
123
232
178
123
232
178
123
232
178
123
232
178
123
232
178
123
232
178
123
232
178
123
232
178
123
232
178
123
232
178
123
232
178
123
232
178
123
232
178
123
232
178
123
232
178
123
232
178
123
232
178
123
232
178
123
232
178
123
232
178
123
232
178
123
232
178
123
232
178
123
232
178
123
232
178
123
232
178
123
232
178
123
232
178
123
232
178
123
232
178
123
232
178
123
232
178
123
232
178
123
232
178
123
232
178
123
232
178
123
232
178
123
232
178
123
232
178
123
232
178
123
232
178
123
232
178
123
232
178
123
232
178
123
232
178
123
232
178
123
232
178
123
232
178
123
232
178
123
232
178
123
232
178
123
232
178
123
232
178
123
232
178
123
232
178
123
232
178
123
232
178
123
232
178
123
232
178
123
232
178
123
232
178
123
232
178
123
232
178
123
232
178
123
232
178
123
232
178
123
232
178
123
232
178
123
232
178
123
232
178
123
232
178
123
232
178
123
232
178
123
232
178
123
232
178
123
232
178
123
232
178
123
232
178
123
232
178
123
232
178
123
232
178
123
232
178
123
232
178
123
232
178
123
232
178
123
232
178
123
232
178
123
232
178
123
232
178
123
232
178
123
232
178
123
232
178
123
232
178
123
232
178
123
232
178
123
232
178
123
232
178
123
232
178
123
232
178
123
232
178
123
232
178
123
232
178
123
232
178
123
232
178
123
232
178
123
232
178
123
232
178
123
232
178
123
232
178
123
232
178
123
232
178
123
232
178
123
232
178
123
232
178
123
232
178
123
232
178
123
232
178
123
232
178
123
232
178
123
232
178
123
232
178
123
232
178
123
232
178
123
232
178
123
232
178
123
232
178
123
232
178
123
232
178
123
232
178
123
232
178
123
232
178
123
232
178
123
232
178
123
232
178
123
232
178
123
232
178
123
232
178
123
232
178
123
232
178
123
232
178
123
232
178
123
232
178
123
232
178
123
232
178
123
232
178
123
232
178
123
232
178
123
232
178
123
232
178
123
232
178
123
232
178
123
232
178
123
232
178
123
232
178
123
232
178
123
232
178
123
232
178
123
232
178
123
232
178
123
232
178
123
232
178
123
232
178
123
232
178
123
232
178
123
232
178
123
232
178
123
232
178
123
232
178
123
232
178
123
232
178
123
232
178
123
232
178
123
232
178
123
232
178
123
232
178
123
232
178
123
232
178
123
232
178
123
232
178
123
232
178
123
232
178
123
232
178
123
232
178
123
232
178
123
232
178
123
232
178
123
232
178
123
232
178
123
232
178
123
232
178
123
232
178
123
