P3
# Created by GIMP version 2.10.36 PNM plug-in
16 16
255
88
101
65
88
101
65
88
101
65
88
101
65
88
101
65
88
101
65
88
101
65
88
101
65
88
101
65
88
101
65
88
101
65
88
101
65
88
101
65
88
101
65
88
101
65
88
101
65
88
101
65
88
101
65
88
101
65
88
101
65
88
101
65
88
101
65
88
101
65
88
101
65
88
101
65
88
101
65
88
101
65
88
101
65
88
101
65
88
101
65
88
101
65
88
101
65
88
101
65
88
101
65
88
101
65
88
101
65
88
101
65
88
101
65
88
101
65
88
101
65
88
101
65
88
101
65
88
101
65
88
101
65
88
101
65
88
101
65
88
101
65
88
101
65
88
101
65
88
101
65
88
101
65
88
101
65
88
101
65
88
101
65
88
101
65
88
101
65
88
101
65
88
101
65
88
101
65
88
101
65
88
101
65
88
101
65
88
101
65
88
101
65
88
101
65
88
101
65
88
101
65
88
101
65
88
101
65
88
101
65
88
101
65
88
101
65
88
101
65
88
101
65
88
101
65
88
101
65
88
101
65
88
101
65
88
101
65
88
101
65
88
101
65
88
101
65
88
101
65
88
101
65
88
101
65
88
101
65
88
101
65
88
101
65
88
101
65
88
101
65
88
101
65
88
101
65
88
101
65
88
101
65
88
101
65
88
101
65
88
101
65
88
101
65
88
101
65
88
101
65
88
101
65
88
101
65
88
101
65
88
101
65
88
101
65
88
101
65
88
101
65
88
101
65
88
101
65
88
101
65
88
101
65
88
101
65
88
101
65
88
101
65
88
101
65
88
101
65
88
101
65
88
101
65
88
101
65
88
101
65
88
101
65
88
101
65
88
101
65
88
101
65
88
101
65
88
101
65
88
101
65
88
101
65
88
101
65
88
101
65
88
101
65
88
101
65
88
101
65
88
101
65
88
101
65
88
101
65
88
101
65
88
101
65
88
101
65
88
101
65
88
101
65
88
101
65
88
101
65
88
101
65
88
101
65
88
101
65
88
101
65
88
101
65
88
101
65
88
101
65
88
101
65
88
101
65
88
101
65
88
101
65
88
101
65
88
101
65
88
101
65
88
101
65
88
101
65
88
101
65
88
101
65
88
101
65
88
101
65
88
101
65
88
101
65
88
101
65
88
101
65
88
101
65
88
101
65
88
101
65
88
101
65
88
101
65
88
101
65
88
101
65
88
101
65
88
101
65
88
101
65
88
101
65
88
101
65
88
101
65
88
101
65
88
101
65
88
101
65
88
101
65
88
101
65
88
101
65
88
101
65
88
101
65
88
101
65
88
101
65
88
101
65
88
101
65
88
101
65
88
101
65
88
101
65
88
101
65
88
101
65
88
101
65
88
101
65
88
101
65
88
101
65
88
101
65
88
101
65
88
101
65
88
101
65
88
101
65
88
101
65
88
101
65
88
101
65
88
101
65
88
101
65
88
101
65
88
101
65
88
101
65
88
101
65
88
101
65
88
101
65
88
101
65
88
101
65
88
101
65
88
101
65
88
101
65
88
101
65
88
101
65
88
101
65
88
101
65
88
101
65
88
101
65
88
101
65
88
101
65
88
101
65
88
101
65
88
101
65
88
101
65
88
101
65
88
101
65
88
101
65
88
101
65
88
101
65
88
101
65
88
101
65
88
101
65
88
101
65
88
101
65
88
101
65
88
101
65
88
101
65
88
101
65
88
101
65
88
101
65
88
101
65
88
101
65
88
101
65
88
101
65
88
101
65
88
101
65
