P3
# Created by GIMP version 2.10.36 PNM plug-in
16 16
255
176
157
141
176
157
141
176
157
141
176
157
141
176
157
141
176
157
141
176
157
141
176
157
141
176
157
141
176
157
141
176
157
141
176
157
141
176
157
141
176
157
141
176
157
141
176
157
141
176
157
141
176
157
141
176
157
141
176
157
141
176
157
141
176
157
141
176
157
141
176
157
141
176
157
141
176
157
141
176
157
141
176
157
141
176
157
141
176
157
141
176
157
141
176
157
141
176
157
141
176
157
141
176
157
141
176
157
141
176
157
141
176
157
141
176
157
141
176
157
141
176
157
141
176
157
141
176
157
141
176
157
141
176
157
141
176
157
141
176
157
141
176
157
141
176
157
141
176
157
141
176
157
141
176
157
141
176
157
141
176
157
141
176
157
141
176
157
141
176
157
141
176
157
141
176
157
141
176
157
141
176
157
141
176
157
141
176
157
141
176
157
141
176
157
141
176
157
141
176
157
141
176
157
141
176
157
141
176
157
141
176
157
141
176
157
141
176
157
141
176
157
141
176
157
141
176
157
141
176
157
141
176
157
141
176
157
141
176
157
141
176
157
141
176
157
141
176
157
141
176
157
141
176
157
141
176
157
141
176
157
141
176
157
141
176
157
141
176
157
141
176
157
141
176
157
141
176
157
141
176
157
141
176
157
141
176
157
141
176
157
141
176
157
141
176
157
141
176
157
141
176
157
141
176
157
141
176
157
141
176
157
141
176
157
141
176
157
141
176
157
141
176
157
141
176
157
141
176
157
141
176
157
141
176
157
141
176
157
141
176
157
141
176
157
141
176
157
141
176
157
141
176
157
141
176
157
141
176
157
141
176
157
141
176
157
141
176
157
141
176
157
141
176
157
141
176
157
141
176
157
141
176
157
141
176
157
141
176
157
141
176
157
141
176
157
141
176
157
141
176
157
141
176
157
141
176
157
141
176
157
141
176
157
141
176
157
141
176
157
141
176
157
141
176
157
141
176
157
141
176
157
141
176
157
141
176
157
141
176
157
141
176
157
141
176
157
141
176
157
141
176
157
141
176
157
141
176
157
141
176
157
141
176
157
141
176
157
141
176
157
141
176
157
141
176
157
141
176
157
141
176
157
141
176
157
141
176
157
141
176
157
141
176
157
141
176
157
141
176
157
141
176
157
141
176
157
141
176
157
141
176
157
141
176
157
141
176
157
141
176
157
141
176
157
141
176
157
141
176
157
141
176
157
141
176
157
141
176
157
141
176
157
141
176
157
141
176
157
141
176
157
141
176
157
141
176
157
141
176
157
141
176
157
141
176
157
141
176
157
141
176
157
141
176
157
141
176
157
141
176
157
141
176
157
141
176
157
141
176
157
141
176
157
141
176
157
141
176
157
141
176
157
141
176
157
141
176
157
141
176
157
141
176
157
141
176
157
141
176
157
141
176
157
141
176
157
141
176
157
141
176
157
141
176
157
141
176
157
141
176
157
141
176
157
141
176
157
141
176
157
141
176
157
141
176
157
141
176
157
141
176
157
141
176
157
141
176
157
141
176
157
141
176
157
141
176
157
141
176
157
141
176
157
141
176
157
141
176
157
141
176
157
141
176
157
141
176
157
141
176
157
141
176
157
141
176
157
141
176
157
141
176
157
141
176
157
141
176
157
141
176
157
141
176
157
141
176
157
141
176
157
141
176
157
141
176
157
141
176
157
141
176
157
141
176
157
141
176
157
141
176
157
141
176
157
141
176
157
141
176
157
141
176
157
141
176
157
141
