P3
# Created by GIMP version 2.10.36 PNM plug-in
16 16
255
160
138
114
160
138
114
160
138
114
160
138
114
160
138
114
160
138
114
160
138
114
160
138
114
160
138
114
160
138
114
160
138
114
160
138
114
160
138
114
160
138
114
160
138
114
160
138
114
160
138
114
160
138
114
160
138
114
160
138
114
160
138
114
160
138
114
160
138
114
160
138
114
160
138
114
160
138
114
160
138
114
160
138
114
160
138
114
160
138
114
160
138
114
160
138
114
160
138
114
160
138
114
160
138
114
160
138
114
160
138
114
160
138
114
160
138
114
160
138
114
160
138
114
160
138
114
160
138
114
160
138
114
160
138
114
160
138
114
160
138
114
160
138
114
160
138
114
160
138
114
160
138
114
160
138
114
160
138
114
160
138
114
160
138
114
160
138
114
160
138
114
160
138
114
160
138
114
160
138
114
160
138
114
160
138
114
160
138
114
160
138
114
160
138
114
160
138
114
160
138
114
160
138
114
160
138
114
160
138
114
160
138
114
160
138
114
160
138
114
160
138
114
160
138
114
160
138
114
160
138
114
160
138
114
160
138
114
160
138
114
160
138
114
160
138
114
160
138
114
160
138
114
160
138
114
160
138
114
160
138
114
160
138
114
160
138
114
160
138
114
160
138
114
160
138
114
160
138
114
160
138
114
160
138
114
160
138
114
160
138
114
160
138
114
160
138
114
160
138
114
160
138
114
160
138
114
160
138
114
160
138
114
160
138
114
160
138
114
160
138
114
160
138
114
160
138
114
160
138
114
160
138
114
160
138
114
160
138
114
160
138
114
160
138
114
160
138
114
160
138
114
160
138
114
160
138
114
160
138
114
160
138
114
160
138
114
160
138
114
160
138
114
160
138
114
160
138
114
160
138
114
160
138
114
160
138
114
160
138
114
160
138
114
160
138
114
160
138
114
160
138
114
160
138
114
160
138
114
160
138
114
160
138
114
160
138
114
160
138
114
160
138
114
160
138
114
160
138
114
160
138
114
160
138
114
160
138
114
160
138
114
160
138
114
160
138
114
160
138
114
160
138
114
160
138
114
160
138
114
160
138
114
160
138
114
160
138
114
160
138
114
160
138
114
160
138
114
160
138
114
160
138
114
160
138
114
160
138
114
160
138
114
160
138
114
160
138
114
160
138
114
160
138
114
160
138
114
160
138
114
160
138
114
160
138
114
160
138
114
160
138
114
160
138
114
160
138
114
160
138
114
160
138
114
160
138
114
160
138
114
160
138
114
160
138
114
160
138
114
160
138
114
160
138
114
160
138
114
160
138
114
160
138
114
160
138
114
160
138
114
160
138
114
160
138
114
160
138
114
160
138
114
160
138
114
160
138
114
160
138
114
160
138
114
160
138
114
160
138
114
160
138
114
160
138
114
160
138
114
160
138
114
160
138
114
160
138
114
160
138
114
160
138
114
160
138
114
160
138
114
160
138
114
160
138
114
160
138
114
160
138
114
160
138
114
160
138
114
160
138
114
160
138
114
160
138
114
160
138
114
160
138
114
160
138
114
160
138
114
160
138
114
160
138
114
160
138
114
160
138
114
160
138
114
160
138
114
160
138
114
160
138
114
160
138
114
160
138
114
160
138
114
160
138
114
160
138
114
160
138
114
160
138
114
160
138
114
160
138
114
160
138
114
160
138
114
160
138
114
160
138
114
160
138
114
160
138
114
160
138
114
160
138
114
160
138
114
160
138
114
160
138
114
160
138
114
160
138
114
160
138
114
160
138
114
160
138
114
