P3
# Created by GIMP version 2.10.36 PNM plug-in
16 16
255
116
89
111
116
89
111
116
89
111
116
89
111
116
89
111
116
89
111
116
89
111
116
89
111
116
89
111
116
89
111
116
89
111
116
89
111
116
89
111
116
89
111
116
89
111
116
89
111
116
89
111
116
89
111
116
89
111
116
89
111
116
89
111
116
89
111
116
89
111
116
89
111
116
89
111
116
89
111
116
89
111
116
89
111
116
89
111
116
89
111
116
89
111
116
89
111
116
89
111
116
89
111
116
89
111
116
89
111
116
89
111
116
89
111
116
89
111
116
89
111
116
89
111
116
89
111
116
89
111
116
89
111
116
89
111
116
89
111
116
89
111
116
89
111
116
89
111
116
89
111
116
89
111
116
89
111
116
89
111
116
89
111
116
89
111
116
89
111
116
89
111
116
89
111
116
89
111
116
89
111
116
89
111
116
89
111
116
89
111
116
89
111
116
89
111
116
89
111
116
89
111
116
89
111
116
89
111
116
89
111
116
89
111
116
89
111
116
89
111
116
89
111
116
89
111
116
89
111
116
89
111
116
89
111
116
89
111
116
89
111
116
89
111
116
89
111
116
89
111
116
89
111
116
89
111
116
89
111
116
89
111
116
89
111
116
89
111
116
89
111
116
89
111
116
89
111
116
89
111
116
89
111
116
89
111
116
89
111
116
89
111
116
89
111
116
89
111
116
89
111
116
89
111
116
89
111
116
89
111
116
89
111
116
89
111
116
89
111
116
89
111
116
89
111
116
89
111
116
89
111
116
89
111
116
89
111
116
89
111
116
89
111
116
89
111
116
89
111
116
89
111
116
89
111
116
89
111
116
89
111
116
89
111
116
89
111
116
89
111
116
89
111
116
89
111
116
89
111
116
89
111
116
89
111
116
89
111
116
89
111
116
89
111
116
89
111
116
89
111
116
89
111
116
89
111
116
89
111
116
89
111
116
89
111
116
89
111
116
89
111
116
89
111
116
89
111
116
89
111
116
89
111
116
89
111
116
89
111
116
89
111
116
89
111
116
89
111
116
89
111
116
89
111
116
89
111
116
89
111
116
89
111
116
89
111
116
89
111
116
89
111
116
89
111
116
89
111
116
89
111
116
89
111
116
89
111
116
89
111
116
89
111
116
89
111
116
89
111
116
89
111
116
89
111
116
89
111
116
89
111
116
89
111
116
89
111
116
89
111
116
89
111
116
89
111
116
89
111
116
89
111
116
89
111
116
89
111
116
89
111
116
89
111
116
89
111
116
89
111
116
89
111
116
89
111
116
89
111
116
89
111
116
89
111
116
89
111
116
89
111
116
89
111
116
89
111
116
89
111
116
89
111
116
89
111
116
89
111
116
89
111
116
89
111
116
89
111
116
89
111
116
89
111
116
89
111
116
89
111
116
89
111
116
89
111
116
89
111
116
89
111
116
89
111
116
89
111
116
89
111
116
89
111
116
89
111
116
89
111
116
89
111
116
89
111
116
89
111
116
89
111
116
89
111
116
89
111
116
89
111
116
89
111
116
89
111
116
89
111
116
89
111
116
89
111
116
89
111
116
89
111
116
89
111
116
89
111
116
89
111
116
89
111
116
89
111
116
89
111
116
89
111
116
89
111
116
89
111
116
89
111
116
89
111
116
89
111
116
89
111
116
89
111
116
89
111
116
89
111
116
89
111
116
89
111
116
89
111
116
89
111
116
89
111
116
89
111
116
89
111
116
89
111
116
89
111
116
89
111
116
89
111
116
89
111
116
89
111
