P3
# Created by GIMP version 2.10.36 PNM plug-in
16 16
255
179
121
119
179
121
119
179
121
119
179
121
119
179
121
119
179
121
119
179
121
119
179
121
119
179
121
119
179
121
119
179
121
119
179
121
119
179
121
119
179
121
119
179
121
119
179
121
119
179
121
119
179
121
119
179
121
119
179
121
119
179
121
119
179
121
119
179
121
119
179
121
119
179
121
119
179
121
119
179
121
119
179
121
119
179
121
119
179
121
119
179
121
119
179
121
119
179
121
119
179
121
119
179
121
119
179
121
119
179
121
119
179
121
119
179
121
119
179
121
119
179
121
119
179
121
119
179
121
119
179
121
119
179
121
119
179
121
119
179
121
119
179
121
119
179
121
119
179
121
119
179
121
119
179
121
119
179
121
119
179
121
119
179
121
119
179
121
119
179
121
119
179
121
119
179
121
119
179
121
119
179
121
119
179
121
119
179
121
119
179
121
119
179
121
119
179
121
119
179
121
119
179
121
119
179
121
119
179
121
119
179
121
119
179
121
119
179
121
119
179
121
119
179
121
119
179
121
119
179
121
119
179
121
119
179
121
119
179
121
119
179
121
119
179
121
119
179
121
119
179
121
119
179
121
119
179
121
119
179
121
119
179
121
119
179
121
119
179
121
119
179
121
119
179
121
119
179
121
119
179
121
119
179
121
119
179
121
119
179
121
119
179
121
119
179
121
119
179
121
119
179
121
119
179
121
119
179
121
119
179
121
119
179
121
119
179
121
119
179
121
119
179
121
119
179
121
119
179
121
119
179
121
119
179
121
119
179
121
119
179
121
119
179
121
119
179
121
119
179
121
119
179
121
119
179
121
119
179
121
119
179
121
119
179
121
119
179
121
119
179
121
119
179
121
119
179
121
119
179
121
119
179
121
119
179
121
119
179
121
119
179
121
119
179
121
119
179
121
119
179
121
119
179
121
119
179
121
119
179
121
119
179
121
119
179
121
119
179
121
119
179
121
119
179
121
119
179
121
119
179
121
119
179
121
119
179
121
119
179
121
119
179
121
119
179
121
119
179
121
119
179
121
119
179
121
119
179
121
119
179
121
119
179
121
119
179
121
119
179
121
119
179
121
119
179
121
119
179
121
119
179
121
119
179
121
119
179
121
119
179
121
119
179
121
119
179
121
119
179
121
119
179
121
119
179
121
119
179
121
119
179
121
119
179
121
119
179
121
119
179
121
119
179
121
119
179
121
119
179
121
119
179
121
119
179
121
119
179
121
119
179
121
119
179
121
119
179
121
119
179
121
119
179
121
119
179
121
119
179
121
119
179
121
119
179
121
119
179
121
119
179
121
119
179
121
119
179
121
119
179
121
119
179
121
119
179
121
119
179
121
119
179
121
119
179
121
119
179
121
119
179
121
119
179
121
119
179
121
119
179
121
119
179
121
119
179
121
119
179
121
119
179
121
119
179
121
119
179
121
119
179
121
119
179
121
119
179
121
119
179
121
119
179
121
119
179
121
119
179
121
119
179
121
119
179
121
119
179
121
119
179
121
119
179
121
119
179
121
119
179
121
119
179
121
119
179
121
119
179
121
119
179
121
119
179
121
119
179
121
119
179
121
119
179
121
119
179
121
119
179
121
119
179
121
119
179
121
119
179
121
119
179
121
119
179
121
119
179
121
119
179
121
119
179
121
119
179
121
119
179
121
119
179
121
119
179
121
119
179
121
119
179
121
119
179
121
119
179
121
119
179
121
119
179
121
119
179
121
119
179
121
119
179
121
119
179
121
119
