P3
# Created by GIMP version 2.10.36 PNM plug-in
16 16
255
79
42
106
79
42
106
79
42
106
79
42
106
79
42
106
79
42
106
79
42
106
79
42
106
79
42
106
79
42
106
79
42
106
79
42
106
79
42
106
79
42
106
79
42
106
79
42
106
79
42
106
79
42
106
79
42
106
79
42
106
79
42
106
79
42
106
79
42
106
79
42
106
79
42
106
79
42
106
79
42
106
79
42
106
79
42
106
79
42
106
79
42
106
79
42
106
79
42
106
79
42
106
79
42
106
79
42
106
79
42
106
79
42
106
79
42
106
79
42
106
79
42
106
79
42
106
79
42
106
79
42
106
79
42
106
79
42
106
79
42
106
79
42
106
79
42
106
79
42
106
79
42
106
79
42
106
79
42
106
79
42
106
79
42
106
79
42
106
79
42
106
79
42
106
79
42
106
79
42
106
79
42
106
79
42
106
79
42
106
79
42
106
79
42
106
79
42
106
79
42
106
79
42
106
79
42
106
79
42
106
79
42
106
79
42
106
79
42
106
79
42
106
79
42
106
79
42
106
79
42
106
79
42
106
79
42
106
79
42
106
79
42
106
79
42
106
79
42
106
79
42
106
79
42
106
79
42
106
79
42
106
79
42
106
79
42
106
79
42
106
79
42
106
79
42
106
79
42
106
79
42
106
79
42
106
79
42
106
79
42
106
79
42
106
79
42
106
79
42
106
79
42
106
79
42
106
79
42
106
79
42
106
79
42
106
79
42
106
79
42
106
79
42
106
79
42
106
79
42
106
79
42
106
79
42
106
79
42
106
79
42
106
79
42
106
79
42
106
79
42
106
79
42
106
79
42
106
79
42
106
79
42
106
79
42
106
79
42
106
79
42
106
79
42
106
79
42
106
79
42
106
79
42
106
79
42
106
79
42
106
79
42
106
79
42
106
79
42
106
79
42
106
79
42
106
79
42
106
79
42
106
79
42
106
79
42
106
79
42
106
79
42
106
79
42
106
79
42
106
79
42
106
79
42
106
79
42
106
79
42
106
79
42
106
79
42
106
79
42
106
79
42
106
79
42
106
79
42
106
79
42
106
79
42
106
79
42
106
79
42
106
79
42
106
79
42
106
79
42
106
79
42
106
79
42
106
79
42
106
79
42
106
79
42
106
79
42
106
79
42
106
79
42
106
79
42
106
79
42
106
79
42
106
79
42
106
79
42
106
79
42
106
79
42
106
79
42
106
79
42
106
79
42
106
79
42
106
79
42
106
79
42
106
79
42
106
79
42
106
79
42
106
79
42
106
79
42
106
79
42
106
79
42
106
79
42
106
79
42
106
79
42
106
79
42
106
79
42
106
79
42
106
79
42
106
79
42
106
79
42
106
79
42
106
79
42
106
79
42
106
79
42
106
79
42
106
79
42
106
79
42
106
79
42
106
79
42
106
79
42
106
79
42
106
79
42
106
79
42
106
79
42
106
79
42
106
79
42
106
79
42
106
79
42
106
79
42
106
79
42
106
79
42
106
79
42
106
79
42
106
79
42
106
79
42
106
79
42
106
79
42
106
79
42
106
79
42
106
79
42
106
79
42
106
79
42
106
79
42
106
79
42
106
79
42
106
79
42
106
79
42
106
79
42
106
79
42
106
79
42
106
79
42
106
79
42
106
79
42
106
79
42
106
79
42
106
79
42
106
79
42
106
79
42
106
79
42
106
79
42
106
79
42
106
79
42
106
79
42
106
79
42
106
79
42
106
79
42
106
79
42
106
79
42
106
79
42
106
