P3
# Created by GIMP version 2.10.36 PNM plug-in
16 16
255
107
107
107
144
144
144
144
144
144
126
126
126
107
107
107
107
107
107
107
107
107
92
92
92
80
80
80
80
80
80
107
107
107
126
126
126
107
107
107
126
126
126
126
126
126
107
107
107
126
126
126
144
144
144
144
144
144
144
144
144
126
126
126
107
107
107
126
126
126
107
107
107
107
107
107
92
92
92
80
80
80
80
80
80
92
92
92
92
92
92
126
126
126
144
144
144
80
80
80
80
80
80
107
107
107
126
126
126
144
144
144
144
144
144
126
126
126
126
126
126
92
92
92
92
92
92
92
92
92
80
80
80
126
126
126
126
126
126
92
92
92
92
92
92
107
107
107
126
126
126
126
126
126
144
144
144
107
107
107
126
126
126
126
126
126
126
126
126
126
126
126
107
107
107
80
80
80
107
107
107
126
126
126
126
126
126
126
126
126
107
107
107
92
92
92
92
92
92
107
107
107
126
126
126
126
126
126
80
80
80
92
92
92
92
92
92
107
107
107
107
107
107
92
92
92
92
92
92
107
107
107
107
107
107
126
126
126
126
126
126
107
107
107
126
126
126
144
144
144
126
126
126
107
107
107
92
92
92
92
92
92
107
107
107
126
126
126
126
126
126
92
92
92
126
126
126
144
144
144
126
126
126
144
144
144
107
107
107
126
126
126
144
144
144
144
144
144
92
92
92
92
92
92
107
107
107
107
107
107
126
126
126
126
126
126
92
92
92
107
107
107
107
107
107
126
126
126
126
126
126
126
126
126
92
92
92
80
80
80
107
107
107
144
144
144
126
126
126
126
126
126
126
126
126
92
92
92
126
126
126
107
107
107
107
107
107
107
107
107
144
144
144
144
144
144
107
107
107
107
107
107
80
80
80
92
92
92
126
126
126
144
144
144
144
144
144
107
107
107
107
107
107
126
126
126
126
126
126
126
126
126
107
107
107
126
126
126
144
144
144
144
144
144
144
144
144
126
126
126
80
80
80
126
126
126
144
144
144
144
144
144
144
144
144
126
126
126
92
92
92
80
80
80
80
80
80
80
80
80
92
92
92
107
107
107
107
107
107
126
126
126
107
107
107
80
80
80
80
80
80
92
92
92
107
107
107
144
144
144
144
144
144
126
126
126
144
144
144
126
126
126
107
107
107
80
80
80
80
80
80
126
126
126
144
144
144
144
144
144
126
126
126
107
107
107
107
107
107
107
107
107
126
126
126
126
126
126
107
107
107
107
107
107
92
92
92
92
92
92
92
92
92
107
107
107
92
92
92
92
92
92
107
107
107
107
107
107
126
126
126
126
126
126
92
92
92
144
144
144
126
126
126
144
144
144
144
144
144
126
126
126
126
126
126
107
107
107
107
107
107
126
126
126
92
92
92
126
126
126
126
126
126
126
126
126
144
144
144
144
144
144
126
126
126
80
80
80
80
80
80
126
126
126
144
144
144
144
144
144
144
144
144
144
144
144
126
126
126
80
80
80
80
80
80
80
80
80
92
92
92
126
126
126
126
126
126
107
107
107
107
107
107
107
107
107
92
92
92
92
92
92
126
126
126
126
126
126
107
107
107
107
107
107
92
92
92
126
126
126
107
107
107
92
92
92
107
107
107
107
107
107
92
92
92
92
92
92
92
92
92
107
107
107
107
107
107
126
126
126
144
144
144
126
126
126
144
144
144
144
144
144
107
107
107
107
107
107
92
92
92
92
92
92
92
92
92
92
92
92
107
107
107
126
126
126
126
126
126
