P3
# Created by GIMP version 2.10.36 PNM plug-in
16 16
255
222
222
222
224
224
224
222
222
222
211
211
211
200
200
200
200
200
200
207
207
207
200
200
200
207
207
207
218
218
218
215
215
215
215
215
215
217
217
217
205
205
205
207
207
207
224
224
224
217
217
217
210
210
210
217
217
217
220
220
220
207
207
207
207
207
207
211
211
211
219
219
219
204
204
204
198
198
198
208
208
208
218
218
218
214
214
214
210
210
210
214
214
214
210
210
210
218
218
218
216
216
216
218
218
218
211
211
211
212
212
212
211
211
211
206
206
206
214
214
214
199
199
199
196
196
196
203
203
203
207
207
207
218
218
218
206
206
206
209
209
209
216
216
216
208
208
208
209
209
209
208
208
208
204
204
204
202
202
202
208
208
208
214
214
214
219
219
219
213
213
213
202
202
202
196
196
196
212
212
212
218
218
218
218
218
218
209
209
209
209
209
209
196
196
196
201
201
201
196
196
196
199
199
199
195
195
195
202
202
202
210
210
210
219
219
219
216
216
216
211
211
211
201
201
201
207
207
207
213
213
213
216
216
216
203
203
203
201
201
201
187
187
187
202
202
202
187
187
187
192
192
192
198
198
198
195
195
195
204
204
204
213
213
213
207
207
207
194
194
194
198
198
198
194
194
194
196
196
196
208
208
208
211
211
211
202
202
202
198
198
198
213
213
213
198
198
198
183
183
183
193
193
193
202
202
202
211
211
211
202
202
202
191
191
191
180
180
180
181
181
181
197
197
197
195
195
195
198
198
198
212
212
212
213
213
213
211
211
211
218
218
218
211
211
211
194
194
194
200
200
200
208
208
208
215
215
215
194
194
194
181
181
181
180
180
180
189
189
189
193
193
193
202
202
202
212
212
212
213
213
213
218
218
218
213
213
213
209
209
209
213
213
213
202
202
202
197
197
197
214
214
214
217
217
217
195
195
195
197
197
197
192
192
192
194
194
194
202
202
202
211
211
211
215
215
215
213
213
213
209
209
209
201
201
201
209
209
209
201
201
201
208
208
208
214
214
214
216
216
216
213
213
213
203
203
203
196
196
196
202
202
202
213
213
213
213
213
213
196
196
196
204
204
204
213
213
213
209
209
209
202
202
202
198
198
198
202
202
202
211
211
211
203
203
203
196
196
196
202
202
202
212
212
212
213
213
213
215
215
215
204
204
204
201
201
201
194
194
194
196
196
196
211
211
211
198
198
198
212
212
212
211
211
211
212
212
212
202
202
202
194
194
194
185
185
185
195
195
195
205
205
205
219
219
219
215
215
215
202
202
202
193
193
193
197
197
197
196
196
196
208
208
208
211
211
211
210
210
210
214
214
214
210
210
210
197
197
197
199
199
199
192
192
192
194
194
194
205
205
205
219
219
219
215
215
215
196
196
196
184
184
184
193
193
193
197
197
197
216
216
216
214
214
214
208
208
208
218
218
218
208
208
208
212
212
212
209
209
209
195
195
195
201
201
201
211
211
211
217
217
217
219
219
219
212
212
212
196
196
196
202
202
202
215
215
215
223
223
223
218
218
218
222
222
222
224
224
224
222
222
222
211
211
211
200
200
200
200
200
200
207
207
207
200
200
200
207
207
207
218
218
218
215
215
215
215
215
215
217
217
217
205
205
205
207
207
207
224
224
224
208
208
208
218
218
218
208
208
208
212
212
212
209
209
209
195
195
195
201
201
201
211
211
211
217
217
217
219
219
219
212
212
212
196
196
196
202
202
202
215
215
215
223
223
223
218
218
218
