P3
# Created by GIMP version 2.10.36 PNM plug-in
16 16
255
192
192
192
192
192
192
193
193
193
147
147
147
96
96
96
128
128
128
128
128
128
149
149
149
149
149
149
128
128
128
149
149
149
128
128
128
192
192
192
192
192
192
192
192
192
147
147
147
192
192
192
193
193
193
193
193
193
127
127
127
96
96
96
96
96
96
128
128
128
128
128
128
128
128
128
96
96
96
128
128
128
96
96
96
193
193
193
193
193
193
193
193
193
127
127
127
192
192
192
193
193
193
177
177
177
127
127
127
96
96
96
96
96
96
75
75
75
96
96
96
96
96
96
96
96
96
96
96
96
96
96
96
193
193
193
189
189
189
167
167
167
127
127
127
189
189
189
189
189
189
177
177
177
127
127
127
75
75
75
75
75
75
75
75
75
75
75
75
75
75
75
96
96
96
75
75
75
96
96
96
193
193
193
193
193
193
189
189
189
127
127
127
189
189
189
177
177
177
189
189
189
127
127
127
75
75
75
66
66
66
75
75
75
75
75
75
75
75
75
75
75
75
96
96
96
75
75
75
192
192
192
177
177
177
189
189
189
127
127
127
193
193
193
177
177
177
189
189
189
127
127
127
66
66
66
66
66
66
66
66
66
66
66
66
75
75
75
75
75
75
66
66
66
75
75
75
192
192
192
167
167
167
189
189
189
127
127
127
193
193
193
167
167
167
177
177
177
147
147
147
75
75
75
66
66
66
75
75
75
66
66
66
66
66
66
66
66
66
75
75
75
66
66
66
189
189
189
167
167
167
177
177
177
127
127
127
192
192
192
177
177
177
177
177
177
167
167
167
66
66
66
66
66
66
66
66
66
66
66
66
66
66
66
66
66
66
66
66
66
66
66
66
189
189
189
167
167
167
167
167
167
127
127
127
192
192
192
177
177
177
167
167
167
147
147
147
96
96
96
128
128
128
149
149
149
149
149
149
149
149
149
149
149
149
128
128
128
96
96
96
193
193
193
177
177
177
167
167
167
127
127
127
192
192
192
177
177
177
167
167
167
127
127
127
128
128
128
96
96
96
128
128
128
128
128
128
128
128
128
96
96
96
128
128
128
96
96
96
193
193
193
167
167
167
177
177
177
127
127
127
192
192
192
167
167
167
177
177
177
127
127
127
75
75
75
96
96
96
96
96
96
96
96
96
96
96
96
96
96
96
96
96
96
75
75
75
192
192
192
167
167
167
177
177
177
127
127
127
189
189
189
167
167
167
177
177
177
127
127
127
96
96
96
96
96
96
96
96
96
75
75
75
75
75
75
96
96
96
75
75
75
75
75
75
193
193
193
167
167
167
177
177
177
127
127
127
189
189
189
167
167
167
167
167
167
127
127
127
96
96
96
75
75
75
66
66
66
75
75
75
75
75
75
75
75
75
75
75
75
66
66
66
193
193
193
177
177
177
177
177
177
127
127
127
193
193
193
177
177
177
167
167
167
127
127
127
66
66
66
75
75
75
75
75
75
75
75
75
75
75
75
75
75
75
66
66
66
96
96
96
177
177
177
167
167
167
193
193
193
147
147
147
167
167
167
177
177
177
177
177
177
127
127
127
66
66
66
66
66
66
66
66
66
75
75
75
75
75
75
96
96
96
66
66
66
66
66
66
177
177
177
167
167
167
167
167
167
127
127
127
127
127
127
127
127
127
127
127
127
127
127
127
66
66
66
66
66
66
66
66
66
66
66
66
66
66
66
66
66
66
66
66
66
66
66
66
127
127
127
127
127
127
127
127
127
127
127
127
