P3
# Created by GIMP version 2.10.36 PNM plug-in
16 16
255
192
192
192
192
192
192
193
193
193
147
147
147
177
177
177
177
177
177
177
177
177
177
177
177
177
177
177
177
177
177
177
177
177
177
177
177
192
192
192
192
192
192
192
192
192
147
147
147
192
192
192
193
193
193
193
193
193
127
127
127
177
177
177
177
177
177
177
177
177
177
177
177
177
177
177
177
177
177
177
177
177
177
177
177
193
193
193
193
193
193
193
193
193
127
127
127
192
192
192
193
193
193
177
177
177
127
127
127
177
177
177
177
177
177
177
177
177
177
177
177
177
177
177
177
177
177
177
177
177
177
177
177
193
193
193
189
189
189
167
167
167
127
127
127
189
189
189
189
189
189
177
177
177
127
127
127
177
177
177
177
177
177
177
177
177
177
177
177
177
177
177
177
177
177
177
177
177
177
177
177
193
193
193
193
193
193
189
189
189
127
127
127
189
189
189
177
177
177
189
189
189
127
127
127
177
177
177
177
177
177
177
177
177
177
177
177
177
177
177
177
177
177
177
177
177
177
177
177
192
192
192
177
177
177
189
189
189
127
127
127
193
193
193
177
177
177
189
189
189
127
127
127
177
177
177
177
177
177
177
177
177
177
177
177
177
177
177
177
177
177
177
177
177
177
177
177
192
192
192
167
167
167
189
189
189
127
127
127
193
193
193
167
167
167
177
177
177
147
147
147
177
177
177
177
177
177
177
177
177
177
177
177
177
177
177
177
177
177
177
177
177
177
177
177
189
189
189
167
167
167
177
177
177
127
127
127
192
192
192
177
177
177
177
177
177
167
167
167
177
177
177
177
177
177
177
177
177
177
177
177
177
177
177
177
177
177
177
177
177
177
177
177
189
189
189
167
167
167
167
167
167
127
127
127
192
192
192
177
177
177
167
167
167
147
147
147
177
177
177
177
177
177
177
177
177
177
177
177
177
177
177
177
177
177
177
177
177
177
177
177
193
193
193
177
177
177
167
167
167
127
127
127
192
192
192
177
177
177
167
167
167
127
127
127
177
177
177
177
177
177
177
177
177
177
177
177
177
177
177
177
177
177
177
177
177
177
177
177
193
193
193
167
167
167
177
177
177
127
127
127
192
192
192
167
167
167
177
177
177
127
127
127
177
177
177
177
177
177
177
177
177
177
177
177
177
177
177
177
177
177
177
177
177
177
177
177
192
192
192
167
167
167
177
177
177
127
127
127
189
189
189
167
167
167
177
177
177
127
127
127
177
177
177
177
177
177
177
177
177
177
177
177
177
177
177
177
177
177
177
177
177
177
177
177
193
193
193
167
167
167
177
177
177
127
127
127
189
189
189
167
167
167
167
167
167
127
127
127
177
177
177
177
177
177
177
177
177
177
177
177
177
177
177
177
177
177
177
177
177
177
177
177
193
193
193
177
177
177
177
177
177
127
127
127
193
193
193
177
177
177
167
167
167
127
127
127
177
177
177
177
177
177
177
177
177
177
177
177
177
177
177
177
177
177
177
177
177
177
177
177
177
177
177
167
167
167
193
193
193
147
147
147
167
167
167
177
177
177
177
177
177
127
127
127
177
177
177
177
177
177
177
177
177
177
177
177
177
177
177
177
177
177
177
177
177
177
177
177
177
177
177
167
167
167
167
167
167
127
127
127
127
127
127
127
127
127
127
127
127
127
127
127
177
177
177
177
177
177
177
177
177
177
177
177
177
177
177
177
177
177
177
177
177
177
177
177
127
127
127
127
127
127
127
127
127
127
127
127
