P3
# Created by GIMP version 2.10.36 PNM plug-in
16 16
255
110
110
110
96
96
96
110
110
110
110
110
110
110
110
110
96
96
96
96
96
96
96
96
96
110
110
110
96
96
96
96
96
96
110
110
110
96
96
96
96
96
96
110
110
110
93
93
93
110
110
110
96
96
96
121
121
121
96
96
96
96
96
96
121
121
121
110
110
110
96
96
96
110
110
110
110
110
110
136
136
136
110
110
110
96
96
96
96
96
96
110
110
110
93
93
93
110
110
110
93
93
93
121
121
121
96
96
96
93
93
93
136
136
136
136
136
136
121
121
121
136
136
136
136
136
136
136
136
136
96
96
96
96
96
96
110
110
110
136
136
136
96
96
96
121
121
121
93
93
93
110
110
110
96
96
96
93
93
93
121
121
121
121
121
121
110
110
110
136
136
136
136
136
136
121
121
121
93
93
93
96
96
96
110
110
110
121
121
121
96
96
96
121
121
121
96
96
96
110
110
110
96
96
96
96
96
96
121
121
121
121
121
121
110
110
110
121
121
121
110
110
110
121
121
121
93
93
93
110
110
110
96
96
96
96
96
96
110
110
110
121
121
121
110
110
110
96
96
96
110
110
110
96
96
96
96
96
96
121
121
121
96
96
96
121
121
121
110
110
110
110
110
110
93
93
93
110
110
110
96
96
96
110
110
110
110
110
110
96
96
96
110
110
110
96
96
96
110
110
110
96
96
96
96
96
96
96
96
96
110
110
110
121
121
121
110
110
110
121
121
121
96
96
96
110
110
110
96
96
96
110
110
110
110
110
110
96
96
96
96
96
96
96
96
96
110
110
110
96
96
96
110
110
110
96
96
96
121
121
121
110
110
110
96
96
96
121
121
121
96
96
96
110
110
110
110
110
110
96
96
96
96
96
96
110
110
110
110
110
110
121
121
121
136
136
136
96
96
96
110
110
110
96
96
96
110
110
110
96
96
96
96
96
96
110
110
110
96
96
96
110
110
110
96
96
96
121
121
121
110
110
110
136
136
136
136
136
136
121
121
121
136
136
136
93
93
93
110
110
110
96
96
96
110
110
110
96
96
96
96
96
96
110
110
110
96
96
96
96
96
96
93
93
93
136
136
136
121
121
121
121
121
121
121
121
121
110
110
110
121
121
121
93
93
93
96
96
96
110
110
110
96
96
96
96
96
96
96
96
96
96
96
96
96
96
96
93
93
93
93
93
93
121
121
121
110
110
110
121
121
121
110
110
110
110
110
110
121
121
121
96
96
96
96
96
96
110
110
110
93
93
93
121
121
121
110
110
110
110
110
110
110
110
110
136
136
136
110
110
110
121
121
121
96
96
96
110
110
110
121
121
121
96
96
96
110
110
110
110
110
110
96
96
96
121
121
121
93
93
93
136
136
136
136
136
136
136
136
136
121
121
121
136
136
136
96
96
96
121
121
121
96
96
96
110
110
110
110
110
110
96
96
96
110
110
110
121
121
121
110
110
110
110
110
110
96
96
96
121
121
121
121
121
121
110
110
110
121
121
121
121
121
121
96
96
96
110
110
110
96
96
96
121
121
121
110
110
110
96
96
96
121
121
121
110
110
110
110
110
110
121
121
121
93
93
93
96
96
96
110
110
110
121
121
121
110
110
110
110
110
110
93
93
93
110
110
110
96
96
96
121
121
121
110
110
110
96
96
96
121
121
121
110
110
110
96
96
96
121
121
121
96
96
96
110
110
110
96
96
96
110
110
110
110
110
110
110
110
110
96
96
96
110
110
110
93
93
93
