P3
# Created by GIMP version 2.10.36 PNM plug-in
16 16
255
110
110
110
96
96
96
110
110
110
110
110
110
110
110
110
96
96
96
96
96
96
96
96
96
110
110
110
96
96
96
96
96
96
110
110
110
96
96
96
96
96
96
110
110
110
93
93
93
110
110
110
96
96
96
121
121
121
96
96
96
96
96
96
121
121
121
110
110
110
96
96
96
110
110
110
110
110
110
136
136
136
110
110
110
96
96
96
96
96
96
110
110
110
93
93
93
110
110
110
93
93
93
121
121
121
96
96
96
93
93
93
136
136
136
136
136
136
121
121
121
96
96
96
96
96
96
96
96
96
96
96
96
96
96
96
110
110
110
136
136
136
96
96
96
121
121
121
93
93
93
110
110
110
96
96
96
93
93
93
93
93
93
93
93
93
110
110
110
96
96
96
93
93
93
93
93
93
93
93
93
96
96
96
110
110
110
121
121
121
96
96
96
121
121
121
96
96
96
110
110
110
96
96
96
93
93
93
134
134
134
155
155
155
155
155
155
155
155
155
143
143
143
125
125
125
93
93
93
110
110
110
96
96
96
96
96
96
110
110
110
121
121
121
110
110
110
96
96
96
110
110
110
134
134
134
143
143
143
134
134
134
143
143
143
143
143
143
134
134
134
155
155
155
134
134
134
110
110
110
96
96
96
110
110
110
110
110
110
96
96
96
110
110
110
96
96
96
110
110
110
143
143
143
125
125
125
171
171
171
171
171
171
171
171
171
171
171
171
134
134
134
155
155
155
110
110
110
96
96
96
110
110
110
110
110
110
96
96
96
96
96
96
96
96
96
110
110
110
155
155
155
134
134
134
171
171
171
143
143
143
143
143
143
155
155
155
143
143
143
155
155
155
110
110
110
110
110
110
96
96
96
96
96
96
110
110
110
110
110
110
121
121
121
136
136
136
155
155
155
134
134
134
155
155
155
143
143
143
134
134
134
155
155
155
134
134
134
155
155
155
110
110
110
96
96
96
121
121
121
110
110
110
136
136
136
136
136
136
121
121
121
136
136
136
143
143
143
134
134
134
155
155
155
155
155
155
155
155
155
171
171
171
143
143
143
143
143
143
96
96
96
93
93
93
136
136
136
121
121
121
121
121
121
121
121
121
110
110
110
121
121
121
125
125
125
155
155
155
134
134
134
125
125
125
134
134
134
143
143
143
155
155
155
125
125
125
93
93
93
93
93
93
121
121
121
110
110
110
121
121
121
110
110
110
110
110
110
121
121
121
136
136
136
134
134
134
155
155
155
171
171
171
171
171
171
171
171
171
134
134
134
136
136
136
136
136
136
110
110
110
121
121
121
96
96
96
110
110
110
121
121
121
96
96
96
110
110
110
110
110
110
136
136
136
136
136
136
93
93
93
136
136
136
136
136
136
136
136
136
136
136
136
136
136
136
96
96
96
121
121
121
96
96
96
110
110
110
110
110
110
96
96
96
110
110
110
121
121
121
110
110
110
110
110
110
96
96
96
121
121
121
121
121
121
110
110
110
121
121
121
121
121
121
96
96
96
110
110
110
96
96
96
121
121
121
110
110
110
96
96
96
121
121
121
110
110
110
110
110
110
121
121
121
93
93
93
96
96
96
110
110
110
121
121
121
110
110
110
110
110
110
93
93
93
110
110
110
96
96
96
121
121
121
110
110
110
96
96
96
121
121
121
110
110
110
96
96
96
121
121
121
96
96
96
110
110
110
96
96
96
110
110
110
110
110
110
110
110
110
96
96
96
110
110
110
93
93
93
