P3
# Created by GIMP version 2.10.36 PNM plug-in
16 16
255
140
104
82
139
102
80
138
101
78
137
99
76
136
97
75
135
96
73
134
94
72
133
93
71
132
92
70
132
91
69
131
90
69
130
90
69
130
90
69
129
90
69
129
90
69
128
90
70
140
104
81
139
102
79
138
100
77
137
98
75
136
97
74
135
95
72
135
94
71
134
92
70
133
91
69
132
91
68
131
90
68
131
90
68
130
89
68
129
89
68
129
89
68
128
89
69
139
103
80
139
101
78
138
99
76
137
98
75
136
96
73
136
95
72
135
93
70
134
92
69
134
91
68
133
90
68
132
90
67
131
89
67
130
89
67
129
89
67
129
89
67
128
89
68
139
102
79
138
100
77
138
99
75
137
97
74
137
96
72
136
94
71
135
93
69
135
92
68
134
91
68
133
90
67
132
89
67
131
89
66
131
88
66
130
88
66
129
88
67
128
88
67
139
101
78
138
99
76
138
98
75
137
96
73
137
95
71
136
94
70
136
93
69
135
91
68
134
91
67
134
90
66
133
89
66
132
88
66
131
88
66
130
88
66
129
88
66
128
87
66
138
100
77
138
99
75
138
97
74
137
96
72
137
95
71
137
93
69
136
92
68
136
91
67
135
90
66
134
89
66
133
89
65
132
88
65
131
88
65
130
87
65
129
87
65
127
87
65
138
99
76
138
98
75
138
97
73
137
95
72
137
94
70
137
93
69
137
92
68
136
91
67
135
90
66
134
89
65
133
89
65
132
88
65
131
88
65
130
87
64
129
87
65
127
86
65
137
99
76
137
98
74
137
96
73
137
95
71
137
94
70
137
93
69
137
92
67
136
91
66
136
90
66
135
89
65
134
89
65
133
88
64
132
87
64
130
87
64
129
87
64
127
86
64
137
98
75
137
97
74
137
96
72
137
95
71
137
94
70
137
93
68
137
92
67
137
91
66
136
90
66
135
89
65
134
89
65
133
88
64
132
87
64
130
87
64
129
86
64
127
86
64
137
98
75
137
97
73
137
96
72
137
95
71
138
94
69
138
93
68
137
92
67
137
91
66
136
90
66
136
89
65
135
89
65
133
88
64
132
88
64
131
87
64
129
86
64
128
86
64
136
97
74
137
96
73
137
95
72
137
94
70
138
94
69
138
93
68
138
92
67
137
91
66
137
90
66
136
90
65
135
89
65
134
88
64
132
88
64
131
87
64
129
87
64
128
86
64
136
97
74
136
96
73
137
95
72
137
94
70
138
94
69
138
93
68
138
92
68
138
91
67
137
91
66
136
90
66
135
89
65
134
89
65
133
88
64
131
87
64
130
87
64
128
86
64
135
96
74
136
96
73
137
95
72
137
94
71
138
94
70
138
93
69
138
92
68
138
92
67
137
91
66
137
90
66
136
90
65
134
89
65
133
88
65
132
88
65
130
87
64
128
86
64
135
96
73
136
95
72
137
95
72
137
94
71
138
94
70
138
93
69
138
93
68
138
92
68
138
91
67
137
91
66
136
90
66
135
89
66
133
89
65
132
88
65
130
87
65
128
87
65
135
96
73
136
95
72
136
95
72
137
94
71
138
94
70
138
93
69
139
93
69
138
92
68
138
92
68
137
91
67
136
90
67
135
90
66
134
89
66
132
88
65
130
88
65
129
87
65
134
95
73
135
95
72
136
95
72
137
94
71
138
94
70
138
94
70
139
93
69
139
93
69
138
92
68
138
92
68
137
91
67
135
90
67
134
90
66
132
89
66
131
88
66
129
87
65
