P3
# Created by GIMP version 2.10.36 PNM plug-in
16 16
255
56
56
56
56
56
56
56
56
56
56
56
56
56
56
56
57
57
57
57
57
57
65
65
65
65
65
65
65
65
65
73
73
73
73
73
73
65
65
65
57
57
57
56
56
56
56
56
56
63
63
63
56
56
56
56
56
56
57
57
57
48
48
48
48
48
48
48
48
48
48
48
48
57
57
57
48
48
48
57
57
57
65
65
65
65
65
65
65
65
65
65
65
65
65
65
65
65
65
65
65
65
65
65
65
65
73
73
73
73
73
73
48
48
48
57
57
57
65
65
65
73
73
73
73
73
73
80
80
80
80
80
80
73
73
73
73
73
73
65
65
65
65
65
65
57
57
57
57
57
57
65
65
65
57
57
57
48
48
48
65
65
65
73
73
73
72
72
72
72
72
72
72
72
72
73
73
73
65
65
65
57
57
57
57
57
57
57
57
57
65
65
65
65
65
65
65
65
65
65
65
65
65
65
65
57
57
57
57
57
57
57
57
57
57
57
57
63
63
63
63
63
63
56
56
56
56
56
56
56
56
56
63
63
63
63
63
63
65
65
65
65
65
65
73
73
73
80
80
80
80
80
80
73
73
73
65
65
65
57
57
57
48
48
48
48
48
48
57
57
57
57
57
57
63
63
63
63
63
63
63
63
63
56
56
56
57
57
57
57
57
57
48
48
48
57
57
57
48
48
48
49
49
49
49
49
49
48
48
48
57
57
57
57
57
57
63
63
63
63
63
63
65
65
65
65
65
65
56
56
56
56
56
56
56
56
56
56
56
56
56
56
56
56
56
56
57
57
57
57
57
57
56
56
56
49
49
49
48
48
48
57
57
57
57
57
57
65
65
65
65
65
65
57
57
57
57
57
57
57
57
57
56
56
56
65
65
65
65
65
65
56
56
56
56
56
56
65
65
65
63
63
63
63
63
63
63
63
63
65
65
65
65
65
65
65
65
65
48
48
48
48
48
48
48
48
48
57
57
57
65
65
65
48
48
48
57
57
57
57
57
57
57
57
57
57
57
57
65
65
65
73
73
73
80
80
80
80
80
80
73
73
73
65
65
65
65
65
65
57
57
57
57
57
57
48
48
48
48
48
48
57
57
57
57
57
57
65
65
65
73
73
73
73
73
73
73
73
73
80
80
80
80
80
80
73
73
73
63
63
63
63
63
63
65
65
65
65
65
65
49
49
49
49
49
49
57
57
57
56
56
56
63
63
63
65
65
65
65
65
65
57
57
57
56
56
56
56
56
56
63
63
63
63
63
63
63
63
63
57
57
57
56
56
56
56
56
56
56
56
56
56
56
56
56
56
56
57
57
57
57
57
57
57
57
57
65
65
65
65
65
65
65
65
65
65
65
65
65
65
65
57
57
57
57
57
57
48
48
48
48
48
48
49
49
49
49
49
49
56
56
56
57
57
57
80
80
80
80
80
80
73
73
73
63
63
63
63
63
63
57
57
57
57
57
57
48
48
48
48
48
48
48
48
48
48
48
48
57
57
57
65
65
65
65
65
65
73
73
73
73
73
73
65
65
65
63
63
63
63
63
63
63
63
63
63
63
63
63
63
63
72
72
72
73
73
73
73
73
73
72
72
72
65
65
65
57
57
57
57
57
57
57
57
57
57
57
57
65
65
65
56
56
56
56
56
56
56
56
56
63
63
63
57
57
57
57
57
57
57
57
57
48
48
48
57
57
57
65
65
65
72
72
72
72
72
72
73
73
73
65
65
65
65
65
65
56
56
56
