P3
# Created by GIMP version 2.10.36 PNM plug-in
16 16
255
175
143
108
173
142
107
172
141
106
171
140
105
169
139
104
168
138
103
166
137
102
165
136
101
164
135
100
162
134
99
161
132
98
160
131
97
158
129
96
157
128
95
155
127
93
154
125
92
175
143
108
174
143
107
173
142
106
171
141
105
170
140
104
169
139
103
168
138
102
166
137
102
165
136
101
164
135
100
162
133
99
161
132
98
159
130
96
158
129
95
156
127
94
155
126
93
175
143
108
174
143
107
173
142
106
172
141
106
171
140
105
170
140
104
169
139
103
168
138
102
167
137
101
165
135
100
164
134
99
162
133
98
160
131
97
159
129
96
157
128
95
155
126
93
175
143
108
175
143
107
174
142
107
173
142
106
172
141
105
171
140
105
170
139
104
169
138
103
168
137
102
167
136
101
165
135
100
163
133
99
162
132
98
160
130
97
158
128
95
156
126
94
175
143
108
175
143
108
174
143
107
174
142
106
173
141
106
172
141
105
171
140
104
170
139
104
169
138
103
168
137
102
166
136
101
165
134
100
163
132
98
161
131
97
159
129
96
157
127
95
176
143
108
175
143
108
175
143
107
174
142
107
174
142
106
173
141
106
172
141
105
171
140
104
170
139
104
169
138
103
167
136
102
166
135
100
164
133
99
162
131
98
160
129
96
157
127
95
176
143
108
176
143
108
175
143
107
175
143
107
175
142
107
174
142
106
173
141
106
172
141
105
171
140
104
170
139
103
169
137
102
167
135
101
165
134
100
163
132
98
160
130
97
158
128
95
176
143
108
176
143
108
176
143
108
176
143
107
175
143
107
175
142
107
174
142
106
173
141
105
172
140
105
171
139
104
170
138
103
168
136
102
166
134
100
163
132
99
161
130
97
159
128
96
176
143
108
176
143
108
176
144
108
176
143
108
176
143
107
176
143
107
175
142
106
174
142
106
173
141
105
172
140
104
170
138
103
169
137
102
166
135
101
164
133
99
162
131
98
159
128
96
176
143
108
177
144
108
177
144
108
177
144
108
177
144
108
176
143
107
176
143
107
175
142
106
174
142
106
173
140
105
171
139
104
169
137
102
167
135
101
165
133
99
162
131
98
160
129
96
177
143
108
177
144
108
177
144
108
177
144
108
177
144
108
177
144
108
177
143
107
176
143
107
175
142
106
174
141
105
172
139
104
170
138
103
168
136
101
166
134
100
163
131
98
161
129
97
177
143
108
177
144
108
178
144
108
178
144
108
178
144
108
178
144
108
177
144
107
177
143
107
176
143
106
175
141
105
173
140
104
171
138
103
169
136
102
166
134
100
164
132
98
161
129
97
177
143
108
178
144
108
178
144
108
178
144
108
178
145
108
178
144
108
178
144
108
177
144
107
177
143
107
175
142
106
174
140
105
172
139
103
169
137
102
167
134
100
164
132
99
162
130
97
177
143
108
178
144
108
178
144
108
179
145
108
179
145
108
179
145
108
179
145
108
178
144
107
177
143
107
176
142
106
174
141
105
172
139
104
170
137
102
168
135
100
165
132
99
162
130
97
178
143
108
178
144
108
179
144
108
179
145
108
179
145
108
179
145
108
179
145
108
179
144
108
178
144
107
177
143
106
175
141
105
173
139
104
171
137
102
168
135
101
166
133
99
163
130
97
178
143
108
178
144
108
179
145
108
179
145
108
180
145
108
180
145
108
180
145
108
179
145
108
178
144
107
177
143
106
175
141
105
174
140
104
171
138
102
169
135
101
166
133
99
164
131
97
