P3
# Created by GIMP version 2.10.36 PNM plug-in
16 16
255
186
62
69
185
59
67
185
56
66
185
53
64
184
50
63
184
47
61
183
44
60
183
42
58
183
39
57
183
37
56
182
36
56
182
34
55
182
33
54
182
32
54
181
31
53
181
31
53
185
58
67
185
55
65
185
52
64
184
49
62
184
47
61
183
44
59
183
41
58
183
39
57
182
36
56
182
34
55
182
32
54
182
31
54
181
30
53
181
29
53
181
28
52
181
28
52
185
54
65
185
51
63
184
49
62
184
46
61
183
43
59
183
40
58
183
38
57
182
36
56
182
33
55
182
31
54
182
30
53
181
28
53
181
27
52
181
26
52
180
25
51
180
25
51
185
50
63
184
47
62
184
45
60
184
42
59
183
40
58
183
37
57
182
35
56
182
33
55
182
31
54
182
29
53
181
27
52
181
26
52
181
25
51
180
24
51
180
23
51
180
23
50
184
46
61
184
43
60
184
41
59
183
39
58
183
37
57
183
34
56
182
32
55
182
30
54
182
28
53
182
27
52
181
25
52
181
24
51
181
23
51
180
22
50
180
21
50
180
21
50
184
42
60
184
40
59
184
38
58
184
35
57
183
33
56
183
32
55
183
30
54
182
28
53
182
26
53
182
25
52
181
23
51
181
22
51
181
21
50
180
20
50
180
20
50
180
19
49
185
38
58
184
36
57
184
34
56
184
32
56
183
30
55
183
29
54
183
27
53
182
25
53
182
24
52
182
22
52
182
21
51
181
20
51
181
19
50
181
19
50
180
18
49
180
18
49
185
33
57
185
32
56
184
30
55
184
29
55
184
27
54
183
26
53
183
24
53
183
23
52
183
21
52
182
20
51
182
19
51
182
18
50
181
17
50
181
17
49
181
16
49
180
16
49
185
29
55
185
28
55
185
26
54
185
25
54
184
24
53
184
23
53
184
21
52
183
20
52
183
19
51
183
18
51
183
17
50
182
16
50
182
15
50
182
14
49
181
14
49
181
14
49
186
25
54
186
24
54
185
23
53
185
22
53
185
21
53
185
20
52
185
19
52
184
18
51
184
17
51
184
16
51
184
15
50
183
14
50
183
13
50
182
13
49
182
12
49
182
12
49
186
22
54
186
20
53
186
20
53
186
19
53
186
18
52
186
17
52
186
17
52
185
16
52
185
15
51
185
14
51
185
13
51
184
13
50
184
12
50
184
12
50
183
11
49
183
11
49
187
19
53
187
18
53
187
17
53
187
16
53
187
16
52
187
16
52
187
16
52
187
15
52
187
14
52
186
13
51
186
13
51
186
12
51
185
12
50
185
11
50
185
11
50
184
11
50
188
16
53
189
15
53
189
15
53
189
15
53
189
15
53
188
15
53
188
15
52
188
15
52
188
14
52
188
13
52
188
13
52
187
13
51
187
12
51
187
12
51
186
12
51
186
11
50
190
14
53
190
14
53
190
14
53
190
14
53
190
14
53
190
15
53
190
15
53
190
15
53
190
14
53
189
14
53
189
14
52
189
13
52
189
13
52
188
13
52
188
13
51
187
12
51
191
13
54
191
13
54
191
13
54
191
14
54
191
15
54
191
15
54
191
16
54
191
16
54
191
15
54
191
15
53
191
15
53
191
15
53
190
14
53
190
14
53
190
14
52
189
14
52
192
12
54
192
13
54
193
13
54
193
14
54
193
15
54
193
16
54
193
17
55
193
17
55
193
17
54
193
17
54
193
16
54
192
16
54
192
16
54
192
16
54
191
16
53
191
16
53
