P3
# Created by GIMP version 2.10.36 PNM plug-in
16 16
255
59
59
59
59
59
59
59
59
59
59
59
59
59
59
59
59
59
59
59
59
59
63
63
63
63
63
63
63
63
63
67
67
67
67
67
67
63
63
63
59
59
59
59
59
59
59
59
59
62
62
62
59
59
59
59
59
59
59
59
59
55
55
55
55
55
55
55
55
55
55
55
55
59
59
59
55
55
55
59
59
59
63
63
63
63
63
63
63
63
63
63
63
63
63
63
63
63
63
63
63
63
63
63
63
63
67
67
67
67
67
67
55
55
55
59
59
59
63
63
63
67
67
67
67
67
67
71
71
71
71
71
71
67
67
67
67
67
67
63
63
63
63
63
63
59
59
59
59
59
59
63
63
63
59
59
59
55
55
55
63
63
63
67
67
67
67
67
67
67
67
67
67
67
67
67
67
67
63
63
63
59
59
59
59
59
59
59
59
59
63
63
63
63
63
63
63
63
63
63
63
63
63
63
63
59
59
59
59
59
59
59
59
59
59
59
59
62
62
62
62
62
62
59
59
59
59
59
59
59
59
59
62
62
62
62
62
62
63
63
63
63
63
63
67
67
67
71
71
71
71
71
71
67
67
67
63
63
63
59
59
59
55
55
55
55
55
55
59
59
59
59
59
59
62
62
62
62
62
62
62
62
62
59
59
59
59
59
59
59
59
59
55
55
55
59
59
59
55
55
55
55
55
55
55
55
55
55
55
55
59
59
59
59
59
59
62
62
62
62
62
62
63
63
63
63
63
63
59
59
59
59
59
59
59
59
59
59
59
59
59
59
59
59
59
59
59
59
59
59
59
59
59
59
59
55
55
55
55
55
55
59
59
59
59
59
59
63
63
63
63
63
63
59
59
59
59
59
59
59
59
59
59
59
59
63
63
63
63
63
63
59
59
59
59
59
59
63
63
63
62
62
62
62
62
62
62
62
62
63
63
63
63
63
63
63
63
63
55
55
55
55
55
55
55
55
55
59
59
59
63
63
63
55
55
55
59
59
59
59
59
59
59
59
59
59
59
59
63
63
63
67
67
67
71
71
71
71
71
71
67
67
67
63
63
63
63
63
63
59
59
59
59
59
59
55
55
55
55
55
55
59
59
59
59
59
59
63
63
63
67
67
67
67
67
67
67
67
67
71
71
71
71
71
71
67
67
67
62
62
62
62
62
62
63
63
63
63
63
63
55
55
55
55
55
55
59
59
59
59
59
59
62
62
62
63
63
63
63
63
63
59
59
59
59
59
59
59
59
59
62
62
62
62
62
62
62
62
62
59
59
59
59
59
59
59
59
59
59
59
59
59
59
59
59
59
59
59
59
59
59
59
59
59
59
59
63
63
63
63
63
63
63
63
63
63
63
63
63
63
63
59
59
59
59
59
59
55
55
55
55
55
55
55
55
55
55
55
55
59
59
59
59
59
59
71
71
71
71
71
71
67
67
67
62
62
62
62
62
62
59
59
59
59
59
59
55
55
55
55
55
55
55
55
55
55
55
55
59
59
59
63
63
63
63
63
63
67
67
67
67
67
67
63
63
63
62
62
62
62
62
62
62
62
62
62
62
62
62
62
62
67
67
67
67
67
67
67
67
67
67
67
67
63
63
63
59
59
59
59
59
59
59
59
59
59
59
59
63
63
63
59
59
59
59
59
59
59
59
59
62
62
62
59
59
59
59
59
59
59
59
59
55
55
55
59
59
59
63
63
63
67
67
67
67
67
67
67
67
67
63
63
63
63
63
63
59
59
59
