P3
# Created by GIMP version 2.10.36 PNM plug-in
16 16
255
129
129
129
125
125
125
129
129
129
129
129
129
130
130
130
131
131
131
129
129
129
132
132
132
116
116
116
143
143
143
145
145
145
130
130
130
128
128
128
134
134
134
126
126
126
117
117
117
135
135
135
132
132
132
133
133
133
131
131
131
129
129
129
133
133
133
135
135
135
128
128
128
131
131
131
150
150
150
131
131
131
127
127
127
155
155
155
152
152
152
133
133
133
128
128
128
136
136
136
155
155
155
145
145
145
132
132
132
113
113
113
116
116
116
132
132
132
144
144
144
144
144
144
129
129
129
130
130
130
129
129
129
129
129
129
135
135
135
113
113
113
142
142
142
128
128
128
126
126
126
127
127
127
135
135
135
134
134
134
136
136
136
124
124
124
131
131
131
133
133
133
133
133
133
133
133
133
131
131
131
119
119
119
136
136
136
131
131
131
131
131
131
124
124
124
133
133
133
129
129
129
127
127
127
140
140
140
146
146
146
132
132
132
129
129
129
134
134
134
123
123
123
133
133
133
147
147
147
146
146
146
128
128
128
126
126
126
150
150
150
129
129
129
125
125
125
127
127
127
132
132
132
131
131
131
115
115
115
131
131
131
129
129
129
132
132
132
127
127
127
128
128
128
132
132
132
125
125
125
124
124
124
129
129
129
128
128
128
115
115
115
110
110
110
132
132
132
134
134
134
132
132
132
135
135
135
139
139
139
137
137
137
151
151
151
144
144
144
133
133
133
129
129
129
128
128
128
129
129
129
125
125
125
115
115
115
134
134
134
128
128
128
131
131
131
135
135
135
144
144
144
130
130
130
132
132
132
128
128
128
134
134
134
129
129
129
133
133
133
124
124
124
120
120
120
115
115
115
131
131
131
139
139
139
133
133
133
142
142
142
152
152
152
132
132
132
130
130
130
131
131
131
117
117
117
131
131
131
133
133
133
139
139
139
149
149
149
133
133
133
140
140
140
134
134
134
134
134
134
129
129
129
145
145
145
129
129
129
130
130
130
129
129
129
126
126
126
134
134
134
128
128
128
130
130
130
132
132
132
129
129
129
131
131
131
130
130
130
129
129
129
137
137
137
144
144
144
116
116
116
124
124
124
145
145
145
117
117
117
125
125
125
125
125
125
129
129
129
142
142
142
146
146
146
117
117
117
116
116
116
129
129
129
110
110
110
131
131
131
130
130
130
127
127
127
124
124
124
116
116
116
144
144
144
132
132
132
131
131
131
120
120
120
132
132
132
131
131
131
128
128
128
129
129
129
124
124
124
128
128
128
133
133
133
152
152
152
142
142
142
128
128
128
145
145
145
129
129
129
118
118
118
152
152
152
145
145
145
134
134
134
132
132
132
150
150
150
146
146
146
143
143
143
145
145
145
129
129
129
125
125
125
129
129
129
131
131
131
154
154
154
133
133
133
139
139
139
130
130
130
125
125
125
136
136
136
137
137
137
137
137
137
128
128
128
130
130
130
131
131
131
133
133
133
118
118
118
135
135
135
143
143
143
128
128
128
124
124
124
141
141
141
129
129
129
128
128
128
126
126
126
142
142
142
131
131
131
112
112
112
115
115
115
132
132
132
145
145
145
141
141
141
128
128
128
134
134
134
127
127
127
134
134
134
136
136
136
124
124
124
144
144
144
130
130
130
131
131
131
117
117
117
131
131
131
133
133
133
139
139
139
149
149
149
133
133
133
124
124
124
128
128
128
134
134
134
129
129
129
133
133
133
124
124
124
120
120
120
