P3
# Created by GIMP version 2.10.36 PNM plug-in
16 16
255
162
162
162
194
194
194
162
162
162
162
162
162
194
194
194
162
162
162
162
162
162
162
162
162
162
162
162
198
198
198
162
162
162
162
162
162
162
162
162
188
188
188
162
162
162
162
162
162
195
195
195
162
162
162
193
193
193
162
162
162
162
162
162
192
192
192
162
162
162
162
162
162
200
200
200
149
149
149
113
113
113
162
162
162
162
162
162
116
116
116
162
162
162
162
162
162
162
162
162
109
109
109
162
162
162
193
193
193
126
126
126
162
162
162
162
162
162
162
162
162
162
162
162
192
192
192
162
162
162
162
162
162
193
193
193
164
164
164
194
194
194
162
162
162
120
120
120
192
192
192
155
155
155
162
162
162
158
158
158
162
162
162
198
198
198
162
162
162
112
112
112
155
155
155
192
192
192
162
162
162
162
162
162
115
115
115
162
162
162
162
162
162
162
162
162
117
117
117
162
162
162
162
162
162
117
117
117
162
162
162
152
152
152
188
188
188
162
162
162
115
115
115
162
162
162
162
162
162
109
109
109
156
156
156
162
162
162
162
162
162
194
194
194
162
162
162
118
118
118
162
162
162
162
162
162
162
162
162
117
117
117
162
162
162
162
162
162
162
162
162
189
189
189
188
188
188
162
162
162
112
112
112
162
162
162
162
162
162
162
162
162
115
115
115
162
162
162
162
162
162
162
162
162
196
196
196
157
157
157
116
116
116
162
162
162
162
162
162
162
162
162
118
118
118
162
162
162
162
162
162
162
162
162
162
162
162
162
162
162
162
162
162
162
162
162
162
162
162
162
162
162
162
162
162
123
123
123
162
162
162
162
162
162
162
162
162
195
195
195
155
155
155
114
114
114
162
162
162
162
162
162
162
162
162
162
162
162
162
162
162
162
162
162
162
162
162
162
162
162
162
162
162
162
162
162
162
162
162
162
162
162
162
162
162
162
162
162
116
116
116
162
162
162
162
162
162
162
162
162
162
162
162
162
162
162
162
162
162
162
162
162
162
162
162
162
162
162
162
162
162
162
162
162
162
162
162
162
162
162
162
162
162
162
162
162
162
162
162
162
162
162
162
162
162
162
162
162
162
162
162
162
162
162
162
162
162
162
162
162
162
162
162
162
162
162
162
162
162
162
162
162
162
162
162
162
162
162
162
162
162
162
162
162
162
162
162
162
162
162
162
162
162
195
195
195
162
162
162
162
162
162
162
162
162
162
162
162
162
162
162
162
162
162
162
162
162
162
162
162
162
162
162
162
162
162
162
162
162
162
162
162
162
162
162
162
162
162
162
162
162
162
162
162
192
192
192
162
162
162
162
162
162
162
162
162
162
162
162
162
162
162
162
162
162
162
162
162
162
162
162
162
162
162
162
162
162
162
162
162
162
162
162
162
162
162
162
162
162
115
115
115
162
162
162
162
162
162
162
162
162
162
162
162
162
162
162
162
162
162
162
162
162
162
162
162
162
162
162
162
162
162
162
162
162
162
162
162
162
162
162
162
162
162
162
162
162
162
162
162
162
162
162
162
162
162
162
162
162
162
162
162
162
162
162
162
162
162
162
162
162
162
162
162
162
162
162
162
162
162
162
162
162
162
162
162
162
162
162
162
162
162
162
162
162
162
162
162
162
162
162
162
162
162
162
162
162
162
162
162
162
162
162
162
162
162
162
162
162
162
162
162
162
162
162
162
162
162
162
162
162
162
162
162
162
162
162
162
162
162
162
162
162
162
162
162
162
162
162
