P3
# Created by GIMP version 2.10.36 PNM plug-in
16 16
255
17
17
17
28
28
28
35
35
35
35
35
35
44
44
44
40
40
40
35
35
35
28
28
28
35
35
35
28
28
28
28
28
28
28
28
28
28
28
28
17
17
17
45
45
45
28
28
28
45
45
45
28
28
28
24
24
24
17
17
17
17
17
17
17
17
17
17
17
17
17
17
17
17
17
17
17
17
17
17
17
17
17
17
17
17
17
17
17
17
17
24
24
24
28
28
28
40
40
40
24
24
24
24
24
24
35
35
35
54
54
54
77
77
77
89
89
89
77
77
77
78
78
78
89
89
89
77
77
77
54
54
54
35
35
35
24
24
24
24
24
24
28
28
28
40
40
40
17
17
17
40
40
40
64
64
64
77
77
77
141
141
141
117
117
117
117
117
117
138
138
138
117
117
117
141
141
141
77
77
77
64
64
64
40
40
40
17
17
17
40
40
40
28
28
28
64
64
64
71
71
71
40
40
40
45
45
45
3
3
3
64
64
64
125
125
125
127
127
127
64
64
64
3
3
3
45
45
45
40
40
40
71
71
71
64
64
64
45
45
45
35
35
35
54
54
54
24
24
24
56
56
56
3
3
3
205
205
205
71
71
71
25
25
25
30
30
30
71
71
71
205
205
205
3
3
3
56
56
56
24
24
24
54
54
54
35
35
35
31
31
31
54
54
54
67
67
67
54
54
54
82
82
82
64
64
64
13
13
13
40
40
40
48
48
48
13
13
13
64
64
64
82
82
82
54
54
54
67
67
67
54
54
54
13
13
13
17
17
17
45
45
45
17
17
17
13
13
13
3
3
3
40
40
40
77
77
77
125
125
125
105
105
105
77
77
77
40
40
40
3
3
3
13
13
13
17
17
17
45
45
45
13
13
13
25
25
25
17
17
17
13
13
13
13
13
13
13
13
13
13
13
13
77
77
77
3
3
3
0
0
0
77
77
77
13
13
13
13
13
13
13
13
13
13
13
13
17
17
17
54
54
54
28
28
28
13
13
13
13
13
13
13
13
13
116
116
116
24
24
24
3
3
3
3
3
3
0
0
0
3
3
3
24
24
24
116
116
116
25
25
25
13
13
13
13
13
13
45
45
45
40
40
40
24
24
24
24
24
24
24
24
24
72
72
72
110
110
110
71
71
71
110
110
110
79
79
79
71
71
71
110
110
110
71
71
71
24
24
24
64
64
64
17
17
17
54
54
54
25
25
25
17
17
17
17
17
17
28
28
28
24
24
24
24
24
24
25
25
25
28
28
28
13
13
13
25
25
25
28
28
28
24
24
24
13
13
13
25
25
25
24
24
24
35
35
35
28
28
28
13
13
13
13
13
13
17
17
17
35
35
35
40
40
40
40
40
40
35
35
35
28
28
28
35
35
35
28
28
28
24
24
24
17
17
17
28
28
28
35
35
35
40
40
40
17
17
17
13
13
13
17
17
17
13
13
13
13
13
13
13
13
13
24
24
24
13
13
13
13
13
13
13
13
13
17
17
17
13
13
13
13
13
13
13
13
13
17
17
17
13
13
13
35
35
35
45
45
45
56
56
56
56
56
56
40
40
40
45
45
45
45
45
45
17
17
17
56
56
56
40
40
40
45
45
45
40
40
40
45
45
45
45
45
45
54
54
54
45
45
45
40
40
40
35
35
35
40
40
40
45
45
45
35
35
35
28
28
28
25
25
25
25
25
25
40
40
40
28
28
28
31
31
31
35
35
35
24
24
24
40
40
40
35
35
35
35
35
35
