P3
# Created by GIMP version 2.10.36 PNM plug-in
16 16
255
113
113
113
143
143
143
161
161
161
205
205
205
218
218
218
209
209
209
203
203
203
218
218
218
207
207
207
205
205
205
220
220
220
213
213
213
193
193
193
167
167
167
119
119
119
114
114
114
140
140
140
148
148
148
185
185
185
201
201
201
203
203
203
210
210
210
195
195
195
214
214
214
221
221
221
202
202
202
210
210
210
213
213
213
195
195
195
168
168
168
122
122
122
119
119
119
117
117
117
143
143
143
167
167
167
183
183
183
208
208
208
213
213
213
197
197
197
224
224
224
217
217
217
204
204
204
207
207
207
197
197
197
186
186
186
164
164
164
148
148
148
109
109
109
119
119
119
147
147
147
120
120
120
185
185
185
203
203
203
203
203
203
215
215
215
209
209
209
199
199
199
186
186
186
195
195
195
214
214
214
186
186
186
156
156
156
147
147
147
107
107
107
121
121
121
116
116
116
171
171
171
209
209
209
208
208
208
208
208
208
212
212
212
228
228
228
216
216
216
198
198
198
196
196
196
203
203
203
191
191
191
165
165
165
157
157
157
116
116
116
118
118
118
146
146
146
164
164
164
213
213
213
200
200
200
211
211
211
218
218
218
227
227
227
221
221
221
213
213
213
199
199
199
192
192
192
168
168
168
165
165
165
152
152
152
113
113
113
147
147
147
149
149
149
171
171
171
174
174
174
195
195
195
206
206
206
220
220
220
218
218
218
209
209
209
193
193
193
195
195
195
202
202
202
173
173
173
148
148
148
147
147
147
111
111
111
117
117
117
117
117
117
155
155
155
185
185
185
202
202
202
215
215
215
222
222
222
225
225
225
220
220
220
206
206
206
218
218
218
218
218
218
205
205
205
198
198
198
155
155
155
145
145
145
120
120
120
148
148
148
162
162
162
195
195
195
213
213
213
220
220
220
214
214
214
225
225
225
219
219
219
214
214
214
224
224
224
200
200
200
188
188
188
172
172
172
151
151
151
110
110
110
119
119
119
149
149
149
169
169
169
197
197
197
213
213
213
214
214
214
211
211
211
228
228
228
219
219
219
217
217
217
224
224
224
202
202
202
156
156
156
167
167
167
149
149
149
114
114
114
111
111
111
140
140
140
148
148
148
197
197
197
178
178
178
194
194
194
208
208
208
213
213
213
204
204
204
200
200
200
213
213
213
207
207
207
188
188
188
186
186
186
152
152
152
117
117
117
111
111
111
146
146
146
150
150
150
179
179
179
196
196
196
194
194
194
186
186
186
190
190
190
197
197
197
205
205
205
212
212
212
207
207
207
176
176
176
160
160
160
142
142
142
117
117
117
146
146
146
148
148
148
165
165
165
204
204
204
219
219
219
209
209
209
203
203
203
212
212
212
214
214
214
203
203
203
229
229
229
207
207
207
195
195
195
164
164
164
151
151
151
122
122
122
117
117
117
151
151
151
166
166
166
195
195
195
214
214
214
212
212
212
213
213
213
229
229
229
215
215
215
213
213
213
222
222
222
213
213
213
191
191
191
172
172
172
153
153
153
119
119
119
142
142
142
147
147
147
175
175
175
203
203
203
211
211
211
212
212
212
209
209
209
221
221
221
197
197
197
198
198
198
217
217
217
194
194
194
151
151
151
164
164
164
139
139
139
135
135
135
114
114
114
153
153
153
178
178
178
175
175
175
210
210
210
220
220
220
205
205
205
219
219
219
200
200
200
211
211
211
217
217
217
210
210
210
172
172
172
138
138
138
140
140
140
130
130
130
