P3
# Created by GIMP version 2.10.36 PNM plug-in
16 16
255
135
135
135
166
166
166
165
165
165
165
165
165
162
162
162
164
164
164
161
161
161
163
163
163
168
168
168
166
166
166
163
163
163
162
162
162
159
159
159
161
161
161
157
157
157
163
163
163
166
166
166
163
163
163
166
166
166
168
168
168
151
151
151
161
161
161
160
160
160
161
161
161
152
152
152
168
168
168
184
184
184
165
165
165
161
161
161
163
163
163
162
162
162
171
171
171
166
166
166
172
172
172
177
177
177
162
162
162
163
163
163
162
162
162
165
165
165
165
165
165
165
165
165
168
168
168
168
168
168
169
169
169
156
156
156
159
159
159
161
161
161
176
176
176
158
158
158
162
162
162
163
163
163
166
166
166
159
159
159
166
166
166
160
160
160
159
159
159
161
161
161
162
162
162
163
163
163
168
168
168
164
164
164
163
163
163
164
164
164
151
151
151
169
169
169
162
162
162
169
169
169
162
162
162
169
169
169
169
169
169
167
167
167
169
169
169
168
168
168
158
158
158
161
161
161
168
168
168
161
161
161
153
153
153
166
166
166
156
156
156
158
158
158
166
166
166
159
159
159
185
185
185
161
161
161
171
171
171
166
166
166
164
164
164
162
162
162
174
174
174
165
165
165
154
154
154
159
159
159
160
160
160
164
164
164
153
153
153
151
151
151
165
165
165
156
156
156
165
165
165
151
151
151
167
167
167
163
163
163
161
161
161
162
162
162
162
162
162
169
169
169
181
181
181
165
165
165
168
168
168
166
166
166
162
162
162
164
164
164
162
162
162
168
168
168
163
163
163
165
165
165
160
160
160
169
169
169
179
179
179
166
166
166
158
158
158
162
162
162
161
161
161
166
166
166
166
166
166
161
161
161
168
168
168
166
166
166
165
165
165
171
171
171
168
168
168
165
165
165
161
161
161
169
169
169
165
165
165
174
174
174
183
183
183
152
152
152
165
165
165
162
162
162
163
163
163
161
161
161
165
165
165
153
153
153
145
145
145
167
167
167
163
163
163
163
163
163
164
164
164
168
168
168
161
161
161
164
164
164
165
165
165
165
165
165
173
173
173
164
164
164
166
166
166
154
154
154
171
171
171
166
166
166
165
165
165
142
142
142
167
167
167
155
155
155
171
171
171
163
163
163
163
163
163
173
173
173
174
174
174
170
170
170
162
162
162
164
164
164
162
162
162
162
162
162
164
164
164
158
158
158
167
167
167
169
169
169
155
155
155
166
166
166
162
162
162
165
165
165
163
163
163
166
166
166
165
165
165
163
163
163
181
181
181
161
161
161
161
161
161
160
160
160
150
150
150
172
172
172
166
166
166
161
161
161
173
173
173
166
166
166
160
160
160
167
167
167
151
151
151
155
155
155
165
165
165
163
163
163
160
160
160
166
166
166
167
167
167
159
159
159
162
162
162
182
182
182
168
168
168
158
158
158
146
146
146
160
160
160
161
161
161
161
161
161
174
174
174
166
166
166
175
175
175
168
168
168
166
166
166
168
168
168
162
162
162
168
168
168
160
160
160
166
166
166
162
162
162
162
162
162
159
159
159
165
165
165
160
160
160
165
165
165
167
167
167
147
147
147
166
166
166
150
150
150
162
162
162
168
168
168
156
156
156
159
159
159
166
166
166
162
162
162
168
168
168
162
162
162
153
153
153
184
184
184
166
166
166
156
156
156
171
171
171
164
164
164
173
173
173
160
160
160
161
161
161
162
162
162
165
165
165
162
162
162
155
155
155
