P3
# Created by GIMP version 2.10.36 PNM plug-in
16 16
255
132
135
151
105
108
123
104
107
122
82
84
99
82
84
99
132
135
151
52
55
70
105
108
123
60
62
77
82
84
99
27
28
42
82
84
99
40
42
57
132
135
151
68
70
85
132
135
151
82
84
99
105
108
123
54
55
69
75
77
92
82
84
99
94
97
112
90
94
109
59
60
74
82
84
99
132
135
151
52
55
70
82
84
99
114
117
133
105
108
123
59
60
74
59
60
74
132
135
151
49
51
66
82
84
99
42
43
57
104
107
123
60
62
77
40
42
57
82
84
99
65
68
84
40
42
57
60
62
77
82
84
99
54
55
69
58
59
73
132
135
151
82
84
99
105
108
123
91
94
109
132
135
151
54
56
71
105
108
123
59
60
74
61
63
78
106
109
125
83
86
101
77
80
95
82
84
99
105
108
123
82
84
99
65
68
84
105
108
123
82
84
99
103
106
121
49
51
66
93
96
111
100
103
119
55
56
70
105
108
123
62
64
79
82
84
99
105
108
123
47
48
62
75
77
92
96
99
114
82
84
99
101
104
119
36
37
51
82
84
99
81
83
98
43
44
58
105
108
123
105
108
123
82
84
99
105
108
123
36
37
51
59
60
74
59
60
74
78
80
95
81
83
98
84
85
99
60
62
77
82
84
99
75
77
92
65
68
84
132
135
151
82
84
99
82
84
99
82
84
99
71
75
90
80
82
97
81
83
98
132
135
151
132
135
151
81
83
98
96
99
115
130
133
149
74
76
91
105
108
123
82
84
99
77
80
95
67
69
84
82
84
99
132
135
151
65
68
84
77
80
95
95
98
113
76
78
93
40
42
57
105
108
123
57
58
72
87
90
105
80
83
98
82
84
99
82
84
99
105
108
123
105
108
123
90
93
108
80
82
97
52
54
69
77
80
95
82
84
99
75
78
93
82
84
99
42
43
57
64
66
81
86
89
104
105
108
123
65
67
82
82
84
99
82
84
99
59
60
74
40
42
57
82
84
99
105
108
123
44
45
59
82
84
99
40
42
57
57
58
72
59
60
74
82
84
99
82
84
99
82
84
99
82
84
99
120
122
137
131
134
150
132
135
151
40
42
57
77
80
95
40
42
57
105
108
123
81
83
98
132
135
151
123
126
142
55
57
72
132
135
151
105
108
123
45
46
60
96
99
115
132
135
151
108
109
123
77
80
95
52
55
70
90
94
109
82
84
99
87
90
105
82
84
99
82
84
99
105
108
123
105
108
123
113
116
132
67
69
84
61
64
79
87
90
105
105
108
123
86
89
104
40
42
57
59
60
74
61
64
79
82
84
99
59
60
74
82
84
99
47
48
62
105
108
123
82
84
99
75
78
93
88
91
106
132
135
151
78
80
95
52
54
69
82
84
99
67
69
84
81
83
98
82
84
99
64
66
81
131
134
150
106
109
125
82
84
99
77
80
95
44
46
61
67
69
84
62
64
79
82
84
99
105
108
123
105
108
123
60
62
77
33
34
48
124
127
143
47
48
62
82
84
99
132
135
151
77
80
95
77
80
95
105
108
123
82
84
99
49
50
64
132
135
151
62
64
79
27
28
42
82
84
99
59
60
74
65
68
84
114
117
133
82
84
99
96
99
114
40
42
57
40
42
57
105
108
123
105
108
123
105
108
123
82
84
99
73
76
92
105
108
123
79
82
97
60
62
77
122
126
141
82
84
99
52
55
70
105
108
123
82
84
99
82
84
99
77
80
95
77
80
95
40
42
57
59
60
74
