P3
# Created by GIMP version 2.10.36 PNM plug-in
16 16
255
145
145
145
117
117
117
117
117
117
93
93
93
93
93
93
145
145
145
117
117
117
117
117
117
93
93
93
93
93
93
68
68
68
93
93
93
93
93
93
145
145
145
93
93
93
145
145
145
93
93
93
117
117
117
68
68
68
93
93
93
93
93
93
117
117
117
135
135
135
68
68
68
93
93
93
145
145
145
117
117
117
93
93
93
145
145
145
117
117
117
68
68
68
68
68
68
145
145
145
93
93
93
93
93
93
68
68
68
145
145
145
93
93
93
93
93
93
93
93
93
145
145
145
93
93
93
93
93
93
93
93
93
68
68
68
68
68
68
145
145
145
93
93
93
117
117
117
108
108
108
145
145
145
93
93
93
117
117
117
68
68
68
93
93
93
145
145
145
117
117
117
117
117
117
93
93
93
117
117
117
93
93
93
145
145
145
117
117
117
93
93
93
117
117
117
93
93
93
117
117
117
145
145
145
68
68
68
117
117
117
93
93
93
93
93
93
117
117
117
68
68
68
93
93
93
108
108
108
93
93
93
117
117
117
68
68
68
93
93
93
93
93
93
68
68
68
117
117
117
117
117
117
93
93
93
117
117
117
68
68
68
68
68
68
68
68
68
93
93
93
93
93
93
68
68
68
93
93
93
93
93
93
93
93
93
145
145
145
145
145
145
93
93
93
93
93
93
93
93
93
135
135
135
93
93
93
93
93
93
145
145
145
145
145
145
93
93
93
145
145
145
145
145
145
93
93
93
117
117
117
93
93
93
117
117
117
93
93
93
93
93
93
145
145
145
145
145
145
117
117
117
117
117
117
93
93
93
93
93
93
117
117
117
68
68
68
117
117
117
117
117
117
93
93
93
93
93
93
117
117
117
117
117
117
117
117
117
93
93
93
93
93
93
117
117
117
93
93
93
117
117
117
93
93
93
68
68
68
93
93
93
117
117
117
117
117
117
93
93
93
93
93
93
93
93
93
68
68
68
93
93
93
93
93
93
117
117
117
68
68
68
93
93
93
93
93
93
68
68
68
68
68
68
93
93
93
93
93
93
93
93
93
93
93
93
93
93
93
145
145
145
145
145
145
93
93
93
117
117
117
93
93
93
117
117
117
93
93
93
145
145
145
145
145
145
93
93
93
145
145
145
117
117
117
68
68
68
145
145
145
145
145
145
68
68
68
117
117
117
117
117
117
135
135
135
93
93
93
117
117
117
93
93
93
93
93
93
117
117
117
117
117
117
145
145
145
93
93
93
117
117
117
108
108
108
117
117
117
117
117
117
93
93
93
68
68
68
117
117
117
93
93
93
68
68
68
93
93
93
68
68
68
117
117
117
93
93
93
117
117
117
117
117
117
145
145
145
93
93
93
93
93
93
93
93
93
93
93
93
93
93
93
93
93
93
93
93
93
145
145
145
145
145
145
93
93
93
117
117
117
93
93
93
93
93
93
94
94
94
93
93
93
117
117
117
117
117
117
93
93
93
68
68
68
145
145
145
68
68
68
93
93
93
145
145
145
117
117
117
117
117
117
117
117
117
93
93
93
68
68
68
145
145
145
93
93
93
68
68
68
93
93
93
68
68
68
145
145
145
145
145
145
93
93
93
117
117
117
93
93
93
93
93
93
117
117
117
117
117
117
117
117
117
93
93
93
145
145
145
117
117
117
117
117
117
93
93
93
135
135
135
93
93
93
117
117
117
117
117
117
93
93
93
93
93
93
117
117
117
117
117
117
93
93
93
68
68
68
