P3
# Created by GIMP version 2.10.36 PNM plug-in
16 16
255
127
127
127
93
93
93
162
162
162
141
141
141
127
127
127
112
112
112
127
127
127
162
162
162
140
140
140
140
140
140
88
88
88
141
141
141
141
141
141
127
127
127
127
127
127
86
86
86
93
93
93
86
86
86
162
162
162
140
140
140
89
89
89
115
115
115
141
141
141
107
107
107
126
126
126
88
88
88
88
88
88
127
127
127
127
127
127
170
170
170
101
101
101
127
127
127
141
141
141
127
127
127
140
140
140
140
140
140
88
88
88
127
127
127
108
108
108
127
127
127
127
127
127
127
127
127
112
112
112
127
127
127
170
170
170
157
157
157
97
97
97
141
141
141
115
115
115
127
127
127
140
140
140
88
88
88
88
88
88
127
127
127
127
127
127
127
127
127
151
151
151
123
123
123
112
112
112
141
141
141
127
127
127
97
97
97
90
90
90
141
141
141
171
171
171
127
127
127
112
112
112
127
127
127
127
127
127
141
141
141
127
127
127
151
151
151
116
116
116
89
89
89
127
127
127
141
141
141
112
112
112
138
138
138
127
127
127
127
127
127
160
160
160
91
91
91
114
114
114
127
127
127
115
115
115
141
141
141
112
112
112
127
127
127
89
89
89
89
89
89
127
127
127
127
127
127
114
114
114
127
127
127
127
127
127
171
171
171
117
117
117
91
91
91
127
127
127
151
151
151
151
151
151
96
96
96
112
112
112
127
127
127
127
127
127
127
127
127
115
115
115
127
127
127
127
127
127
138
138
138
127
127
127
80
80
80
91
91
91
127
127
127
139
139
139
151
151
151
116
116
116
87
87
87
127
127
127
182
182
182
182
182
182
95
95
95
141
141
141
138
138
138
138
138
138
138
138
138
87
87
87
127
127
127
127
127
127
162
162
162
117
117
117
127
127
127
87
87
87
127
127
127
138
138
138
110
110
110
86
86
86
79
79
79
127
127
127
98
98
98
87
87
87
87
87
87
87
87
87
141
141
141
127
127
127
117
117
117
83
83
83
127
127
127
127
127
127
127
127
127
114
114
114
138
138
138
127
127
127
127
127
127
127
127
127
138
138
138
127
127
127
127
127
127
127
127
127
141
141
141
112
112
112
138
138
138
127
127
127
138
138
138
151
151
151
151
151
151
112
112
112
138
138
138
138
138
138
138
138
138
87
87
87
138
138
138
112
112
112
138
138
138
160
160
160
160
160
160
114
114
114
181
181
181
179
179
179
138
138
138
96
96
96
79
79
79
138
138
138
127
127
127
98
98
98
87
87
87
87
87
87
138
138
138
112
112
112
138
138
138
117
117
117
100
100
100
138
138
138
167
167
167
96
96
96
127
127
127
138
138
138
127
127
127
170
170
170
109
109
109
138
138
138
127
127
127
127
127
127
138
138
138
151
151
151
127
127
127
100
100
100
127
127
127
162
162
162
114
114
114
127
127
127
127
127
127
114
114
114
138
138
138
170
170
170
110
110
110
138
138
138
112
112
112
151
151
151
116
116
116
79
79
79
112
112
112
138
138
138
127
127
127
117
117
117
112
112
112
170
170
170
136
136
136
112
112
112
138
138
138
110
110
110
86
86
86
127
127
127
112
112
112
151
151
151
96
96
96
127
127
127
114
114
114
127
127
127
140
140
140
87
87
87
138
138
138
127
127
127
83
83
83
127
127
127
127
127
127
127
127
127
138
138
138
127
127
127
138
138
138
127
127
127
127
127
127
127
127
127
138
138
138
127
127
127
115
115
115
