P3
# Created by GIMP version 2.10.36 PNM plug-in
16 16
255
57
57
57
65
65
65
68
68
68
57
57
57
57
57
57
57
57
57
51
51
51
65
65
65
57
57
57
57
57
57
57
57
57
68
68
68
74
74
74
57
57
57
51
51
51
51
51
51
65
65
65
68
68
68
57
57
57
51
51
51
51
51
51
65
65
65
65
65
65
57
57
57
57
57
57
51
51
51
57
57
57
57
57
57
51
51
51
51
51
51
51
51
51
51
51
51
68
68
68
68
68
68
51
51
51
51
51
51
57
57
57
57
57
57
51
51
51
51
51
51
47
47
47
57
57
57
68
68
68
57
57
57
57
57
57
51
51
51
65
65
65
65
65
65
57
57
57
65
65
65
57
57
57
74
74
74
68
68
68
57
57
57
51
51
51
47
47
47
51
51
51
68
68
68
68
68
68
57
57
57
51
51
51
57
57
57
74
74
74
68
68
68
57
57
57
57
57
57
68
68
68
68
68
68
57
57
57
51
51
51
51
51
51
57
57
57
65
65
65
68
68
68
57
57
57
57
57
57
65
65
65
68
68
68
68
68
68
57
57
57
57
57
57
65
65
65
65
65
65
57
57
57
51
51
51
51
51
51
57
57
57
65
65
65
65
65
65
57
57
57
57
57
57
65
65
65
57
57
57
57
57
57
51
51
51
57
57
57
57
57
57
57
57
57
51
51
51
51
51
51
51
51
51
57
57
57
65
65
65
65
65
65
57
57
57
65
65
65
57
57
57
57
57
57
47
47
47
51
51
51
57
57
57
65
65
65
57
57
57
57
57
57
65
65
65
65
65
65
51
51
51
65
65
65
57
57
57
57
57
57
51
51
51
51
51
51
57
57
57
57
57
57
74
74
74
68
68
68
65
65
65
57
57
57
51
51
51
65
65
65
65
65
65
57
57
57
57
57
57
68
68
68
57
57
57
51
51
51
51
51
51
57
57
57
68
68
68
74
74
74
68
68
68
57
57
57
51
51
51
47
47
47
57
57
57
57
57
57
51
51
51
51
51
51
68
68
68
68
68
68
65
65
65
57
57
57
65
65
65
57
57
57
65
65
65
65
65
65
51
51
51
51
51
51
47
47
47
51
51
51
65
65
65
68
68
68
57
57
57
68
68
68
74
74
74
65
65
65
57
57
57
57
57
57
74
74
74
68
68
68
57
57
57
51
51
51
51
51
51
57
57
57
57
57
57
57
57
57
68
68
68
57
57
57
51
51
51
57
57
57
57
57
57
57
57
57
65
65
65
68
68
68
68
68
68
57
57
57
47
47
47
57
57
57
57
57
57
57
57
57
57
57
57
68
68
68
51
51
51
47
47
47
57
57
57
57
57
57
57
57
57
65
65
65
65
65
65
57
57
57
47
47
47
47
47
47
51
51
51
51
51
51
57
57
57
68
68
68
65
65
65
57
57
57
47
47
47
47
47
47
57
57
57
51
51
51
57
57
57
68
68
68
68
68
68
51
51
51
51
51
51
65
65
65
68
68
68
65
65
65
51
51
51
57
57
57
57
57
57
51
51
51
51
51
51
51
51
51
51
51
51
57
57
57
68
68
68
74
74
74
57
57
57
51
51
51
65
65
65
68
68
68
57
57
57
47
47
47
47
47
47
51
51
51
57
57
57
51
51
51
51
51
51
57
57
57
65
65
65
65
65
65
57
57
57
57
57
57
51
51
51
51
51
51
57
57
57
57
57
57
51
51
51
51
51
51
68
68
68
68
68
68
51
51
51
57
57
57
