P3
# Created by GIMP version 2.10.36 PNM plug-in
16 16
255
77
77
77
121
121
121
128
128
128
142
142
142
142
142
142
142
142
142
128
128
128
121
121
121
77
77
77
121
121
121
128
128
128
142
142
142
142
142
142
142
142
142
128
128
128
121
121
121
86
86
86
128
128
128
121
121
121
128
128
128
128
128
128
121
121
121
121
121
121
121
121
121
86
86
86
128
128
128
121
121
121
128
128
128
121
121
121
121
121
121
121
121
121
111
111
111
101
101
101
121
121
121
142
142
142
128
128
128
121
121
121
111
111
111
128
128
128
121
121
121
101
101
101
121
121
121
121
121
121
128
128
128
128
128
128
121
121
121
111
111
111
121
121
121
101
101
101
121
121
121
128
128
128
121
121
121
128
128
128
121
121
121
121
121
121
111
111
111
101
101
101
121
121
121
111
111
111
121
121
121
121
121
121
128
128
128
121
121
121
121
121
121
101
101
101
121
121
121
121
121
121
111
111
111
121
121
121
121
121
121
111
111
111
111
111
111
101
101
101
121
121
121
121
121
121
121
121
121
128
128
128
111
111
111
121
121
121
111
111
111
101
101
101
111
111
111
111
111
111
121
121
121
111
111
111
101
101
101
111
111
111
101
101
101
86
86
86
111
111
111
111
111
111
128
128
128
121
121
121
121
121
121
111
111
111
101
101
101
86
86
86
101
101
101
101
101
101
101
101
101
101
101
101
101
101
101
101
101
101
86
86
86
77
77
77
101
101
101
101
101
101
101
101
101
101
101
101
101
101
101
101
101
101
101
101
101
77
77
77
77
77
77
77
77
77
86
86
86
77
77
77
86
86
86
86
86
86
77
77
77
77
77
77
77
77
77
86
86
86
86
86
86
77
77
77
77
77
77
86
86
86
77
77
77
142
142
142
142
142
142
128
128
128
111
111
111
77
77
77
121
121
121
128
128
128
142
142
142
142
142
142
142
142
142
128
128
128
121
121
121
86
86
86
121
121
121
128
128
128
142
142
142
128
128
128
121
121
121
111
111
111
121
121
121
86
86
86
128
128
128
121
121
121
128
128
128
128
128
128
128
128
128
128
128
128
121
121
121
101
101
101
128
128
128
128
128
128
121
121
121
121
121
121
128
128
128
128
128
128
121
121
121
101
101
101
121
121
121
121
121
121
121
121
121
128
128
128
121
121
121
111
111
111
121
121
121
101
101
101
121
121
121
142
142
142
128
128
128
128
128
128
128
128
128
121
121
121
111
111
111
101
101
101
128
128
128
111
111
111
121
121
121
128
128
128
142
142
142
128
128
128
121
121
121
101
101
101
121
121
121
128
128
128
111
111
111
121
121
121
111
111
111
121
121
121
111
111
111
101
101
101
121
121
121
121
121
121
128
128
128
121
121
121
121
121
121
121
121
121
121
121
121
101
101
101
121
121
121
121
121
121
121
121
121
121
121
121
121
121
121
111
111
111
101
101
101
86
86
86
101
101
101
111
111
111
121
121
121
111
111
111
121
121
121
121
121
121
111
111
111
86
86
86
111
111
111
111
111
111
128
128
128
101
101
101
101
101
101
101
101
101
101
101
101
77
77
77
86
86
86
101
101
101
101
101
101
101
101
101
101
101
101
101
101
101
101
101
101
77
77
77
101
101
101
101
101
101
101
101
101
77
77
77
77
77
77
86
86
86
86
86
86
77
77
77
86
86
86
86
86
86
77
77
77
77
77
77
77
77
77
86
86
86
86
86
86
77
77
77
77
77
77
86
86
86
77
77
77
