P3
# Created by GIMP version 2.10.36 PNM plug-in
16 16
255
109
109
109
109
109
109
99
99
99
109
109
109
109
109
109
92
92
92
127
127
127
121
121
121
109
109
109
109
109
109
121
121
121
121
121
121
109
109
109
109
109
109
99
99
99
92
92
92
127
127
127
127
127
127
109
109
109
109
109
109
99
99
99
99
99
99
109
109
109
109
109
109
137
137
137
127
127
127
109
109
109
99
99
99
127
127
127
121
121
121
109
109
109
99
99
99
137
137
137
121
121
121
109
109
109
99
99
99
127
127
127
121
121
121
121
121
121
109
109
109
127
127
127
127
127
127
121
121
121
109
109
109
121
121
121
109
109
109
109
109
109
127
127
127
121
121
121
121
121
121
109
109
109
137
137
137
127
127
127
127
127
127
121
121
121
109
109
109
109
109
109
109
109
109
121
121
121
109
109
109
99
99
99
92
92
92
99
99
99
109
109
109
109
109
109
99
99
99
109
109
109
127
127
127
121
121
121
109
109
109
109
109
109
127
127
127
121
121
121
121
121
121
109
109
109
109
109
109
109
109
109
109
109
109
99
99
99
99
99
99
121
121
121
109
109
109
109
109
109
109
109
109
109
109
109
99
99
99
109
109
109
121
121
121
121
121
121
109
109
109
109
109
109
109
109
109
109
109
109
137
137
137
127
127
127
127
127
127
121
121
121
92
92
92
99
99
99
109
109
109
137
137
137
127
127
127
121
121
121
109
109
109
109
109
109
127
127
127
127
127
127
109
109
109
109
109
109
121
121
121
127
127
127
121
121
121
109
109
109
127
127
127
127
127
127
109
109
109
109
109
109
121
121
121
121
121
121
109
109
109
99
99
99
127
127
127
121
121
121
99
99
99
109
109
109
121
121
121
121
121
121
109
109
109
99
99
99
127
127
127
121
121
121
127
127
127
109
109
109
99
99
99
109
109
109
121
121
121
109
109
109
109
109
109
109
109
109
109
109
109
109
109
109
109
109
109
92
92
92
109
109
109
121
121
121
109
109
109
109
109
109
99
99
99
109
109
109
109
109
109
127
127
127
127
127
127
121
121
121
109
109
109
127
127
127
127
127
127
109
109
109
109
109
109
109
109
109
127
127
127
109
109
109
127
127
127
127
127
127
121
121
121
109
109
109
127
127
127
127
127
127
121
121
121
109
109
109
127
127
127
127
127
127
121
121
121
99
99
99
127
127
127
137
137
137
121
121
121
109
109
109
121
121
121
121
121
121
109
109
109
99
99
99
109
109
109
109
109
109
99
99
99
92
92
92
137
137
137
121
121
121
121
121
121
99
99
99
127
127
127
121
121
121
121
121
121
99
99
99
99
99
99
109
109
109
99
99
99
99
99
99
109
109
109
127
127
127
127
127
127
127
127
127
109
109
109
121
121
121
109
109
109
109
109
109
121
121
121
121
121
121
121
121
121
109
109
109
92
92
92
137
137
137
127
127
127
127
127
127
109
109
109
121
121
121
127
127
127
121
121
121
109
109
109
109
109
109
109
109
109
99
99
99
121
121
121
121
121
121
109
109
109
127
127
127
99
99
99
127
127
127
127
127
127
121
121
121
121
121
121
109
109
109
109
109
109
109
109
109
99
99
99
137
137
137
127
127
127
121
121
121
109
109
109
109
109
109
127
127
127
121
121
121
109
109
109
109
109
109
121
121
121
121
121
121
109
109
109
127
127
127
127
127
127
121
121
121
109
109
109
127
127
127
121
121
121
121
121
121
99
99
99
109
109
109
127
127
127
