P3
# Created by GIMP version 2.10.36 PNM plug-in
16 16
255
190
190
190
216
216
216
215
215
215
211
211
211
221
221
221
211
211
211
203
203
203
209
209
209
219
219
219
214
214
214
207
207
207
213
213
213
209
209
209
244
244
244
195
195
195
209
209
209
214
214
214
209
209
209
213
213
213
220
220
220
180
180
180
203
203
203
201
201
201
203
203
203
222
222
222
218
218
218
253
253
253
213
213
213
211
211
211
209
209
209
213
213
213
225
225
225
214
214
214
226
226
226
238
238
238
206
206
206
207
207
207
207
207
207
212
212
212
212
212
212
213
213
213
219
219
219
218
218
218
220
220
220
207
207
207
199
199
199
203
203
203
236
236
236
197
197
197
205
205
205
207
207
207
214
214
214
200
200
200
216
216
216
201
201
201
212
212
212
169
169
169
206
206
206
209
209
209
219
219
219
223
223
223
222
222
222
211
211
211
183
183
183
221
221
221
206
206
206
220
220
220
206
206
206
220
220
220
220
220
220
218
218
218
220
220
220
199
199
199
198
198
198
203
203
203
218
218
218
203
203
203
187
187
187
228
228
228
193
193
193
198
198
198
215
215
215
199
199
199
254
254
254
203
203
203
226
226
226
214
214
214
210
210
210
207
207
207
233
233
233
213
213
213
189
189
189
199
199
199
202
202
202
211
211
211
187
187
187
181
181
181
212
212
212
192
192
192
212
212
212
183
183
183
218
218
218
207
207
207
203
203
203
206
206
206
207
207
207
220
220
220
247
247
247
212
212
212
218
218
218
214
214
214
206
206
206
211
211
211
207
207
207
218
218
218
209
209
209
212
212
212
201
201
201
221
221
221
243
243
243
214
214
214
197
197
197
207
207
207
203
203
203
216
216
216
213
213
213
233
233
233
218
218
218
216
216
216
212
212
212
225
225
225
219
219
219
213
213
213
203
203
203
220
220
220
212
212
212
204
204
204
252
252
252
185
185
185
212
212
212
205
205
205
208
208
208
211
211
211
212
212
212
186
186
186
208
208
208
216
216
216
209
209
209
209
209
209
210
210
210
199
199
199
203
203
203
211
211
211
212
212
212
212
212
212
231
231
231
211
211
211
213
213
213
205
205
205
226
226
226
216
216
216
212
212
212
162
162
162
217
217
217
191
191
191
225
225
225
208
208
208
208
208
208
230
230
230
233
233
233
223
223
223
206
206
206
211
211
211
250
250
250
206
206
206
211
211
211
198
198
198
217
217
217
221
221
221
190
190
190
214
214
214
206
206
206
212
212
212
207
207
207
214
214
214
212
212
212
209
209
209
248
248
248
203
203
203
203
203
203
201
201
201
178
178
178
226
226
226
214
214
214
203
203
203
230
230
230
216
216
216
202
202
202
217
217
217
182
182
182
190
190
190
212
212
212
207
207
207
201
201
201
213
213
213
217
217
217
200
200
200
205
205
205
215
215
215
218
218
218
197
197
197
172
172
172
201
201
201
203
203
203
203
203
203
232
232
232
213
213
213
234
234
234
218
218
218
216
216
216
219
219
219
207
207
207
218
218
218
202
202
202
214
214
214
205
205
205
206
206
206
200
200
200
211
211
211
201
201
201
213
213
213
218
218
218
192
192
192
215
215
215
179
179
179
207
207
207
218
218
218
192
192
192
200
200
200
213
213
213
205
205
205
220
220
220
207
207
207
186
186
186
253
253
253
215
215
215
192
192
192
225
225
225
211
211
211
230
230
230
201
201
201
211
211
211
212
212
212
212
212
212
207
207
207
191
191
191
