P3
# Created by GIMP version 2.10.36 PNM plug-in
64 32
255
102
120
233
104
131
243
104
115
217
103
118
232
112
139
246
100
133
249
104
124
234
107
109
178
103
100
147
105
104
154
104
120
209
116
112
164
122
122
176
124
148
208
123
136
209
123
105
171
123
105
171
123
136
209
124
148
208
122
122
176
116
112
164
104
120
209
105
104
154
103
100
147
107
109
178
104
124
234
100
133
249
112
139
246
103
118
232
104
115
217
104
131
243
102
120
233
102
120
233
104
131
243
104
115
217
103
118
232
112
139
246
100
133
249
104
124
234
107
109
178
103
100
147
105
104
154
104
120
209
116
112
164
122
122
176
124
148
208
123
136
209
123
105
171
123
105
171
123
136
209
124
148
208
122
122
176
116
112
164
104
120
209
105
104
154
103
100
147
107
109
178
104
124
234
100
133
249
112
139
246
103
118
232
104
115
217
104
131
243
102
120
233
100
122
236
103
109
204
106
127
242
112
136
241
112
137
241
104
115
206
105
103
169
108
99
154
112
103
165
112
111
201
116
122
233
125
112
179
123
128
209
128
149
216
127
134
198
122
107
174
122
107
174
127
134
198
128
149
216
123
128
209
125
112
179
116
122
233
112
111
201
112
103
165
108
99
154
105
103
169
104
115
206
112
137
241
112
136
241
106
127
242
103
109
204
100
122
236
100
122
236
103
109
204
106
127
242
112
136
241
112
137
241
104
115
206
105
103
169
108
99
154
112
103
165
112
111
201
116
122
233
125
112
179
123
128
209
128
149
216
127
134
198
122
107
174
122
107
174
127
134
198
128
149
216
123
128
209
125
112
179
116
122
233
112
111
201
112
103
165
108
99
154
105
103
169
104
115
206
112
137
241
112
136
241
106
127
242
103
109
204
100
122
236
99
122
232
107
109
209
109
123
228
98
116
215
92
105
201
101
103
188
105
105
187
112
106
190
117
110
222
118
129
242
119
132
232
126
112
172
125
128
209
133
135
202
144
147
201
140
136
203
140
136
203
144
147
201
133
135
202
125
128
209
126
112
172
119
132
232
118
129
242
117
110
222
112
106
190
105
105
187
101
103
188
92
105
201
98
116
215
109
123
228
107
109
209
99
122
232
99
122
232
107
109
209
109
123
228
98
116
215
92
105
201
101
103
188
105
105
187
112
106
190
117
110
222
118
129
242
119
132
232
126
112
172
125
128
209
133
135
202
144
147
201
140
136
203
140
136
203
144
147
201
133
135
202
125
128
209
126
112
172
119
132
232
118
129
242
117
110
222
112
106
190
105
105
187
101
103
188
92
105
201
98
116
215
109
123
228
107
109
209
99
122
232
100
113
220
103
111
221
107
120
234
92
116
240
89
113
232
98
113
227
114
119
224
117
117
234
121
126
245
123
142
253
122
131
226
131
116
176
128
128
207
126
122
192
141
134
189
141
129
182
141
129
182
141
134
189
126
122
192
128
128
207
131
116
176
122
131
226
123
142
253
121
126
245
117
117
234
114
119
224
98
113
227
89
113
232
92
116
240
107
120
234
103
111
221
100
113
220
100
113
220
103
111
221
107
120
234
92
116
240
89
113
232
98
113
227
114
119
224
117
117
234
121
126
245
123
142
253
122
131
226
131
116
176
128
128
207
126
122
192
141
134
189
141
129
182
141
129
182
141
134
189
126
122
192
128
128
207
131
116
176
122
131
226
123
142
253
121
126
245
117
117
234
114
119
224
98
113
227
89
113
232
92
116
240
107
120
234
103
111
221
100
113
220
100
108
208
100
119
242
91
117
244
99
126
247
105
125
246
105
117
227
114
131
239
123
137
253
123
139
251
123
146
253
123
140
242
136
138
217
123
133
207
126
124
194
137
129
192
144
131
185
144
131
185
137
129
192
126
124
194
123
133
207
136
138
217
123
140
242
123
146
253
123
139
251
123
137
253
114
131
239
105
117
227
105
125
246
99
126
247
91
117
244
100
119
242
100
108
208
100
108
208
100
119
242
91
117
244
99
126
247
105
125
246
105
117
227
114
131
239
123
137
253
123
139
251
123
146
253
123
140
242
136
138
217
123
133
207
126
124
194
137
129
192
144
131
185
144
131
185
137
129
192
126
124
194
123
133
207
136
138
217
123
140
242
123
146
253
123
139
251
123
137
253
114
131
239
105
117
227
105
125
246
99
126
247
91
117
244
100
119
242
100
108
208
105
121
238
98
122
247
103
123
250
114
138
254
110
133
249
109
125
235
123
157
253
129
159
254
129
151
252
125
146
252
125
140
246
131
137
221
132
135
211
139
125
181
135
125
185
144
125
173
144
125
173
135
125
185
139
125
181
132
135
211
131
137
221
125
140
246
125
146
252
129
151
252
129
159
254
123
157
253
109
125
235
110
133
249
114
138
254
103
123
250
98
122
247
105
121
238
105
121
238
98
122
247
103
123
250
114
138
254
110
133
249
109
125
235
123
157
253
129
159
254
129
151
252
125
146
252
125
140
246
131
137
221
132
135
211
139
125
181
135
125
185
144
125
173
144
125
173
135
125
185
139
125
181
132
135
211
131
137
221
125
140
246
125
146
252
129
151
252
129
159
254
123
157
253
109
125
235
110
133
249
114
138
254
103
123
250
98
122
247
105
121
238
109
134
250
107
132
251
107
122
249
114
139
253
113
141
253
106
129
243
120
151
240
126
154
249
133
154
251
125
136
230
120
124
211
123
129
207
127
132
227
139
135
208
139
125
176
142
126
174
142
126
174
139
125
176
139
135
208
127
132
227
123
129
207
120
124
211
125
136
230
133
154
251
126
154
249
120
151
240
106
129
243
113
141
253
114
139
253
107
122
249
107
132
251
109
134
250
109
134
250
107
132
251
107
122
249
114
139
253
113
141
253
106
129
243
120
151
240
126
154
249
133
154
251
125
136
230
120
124
211
123
129
207
127
132
227
139
135
208
139
125
176
142
126
174
142
126
174
139
125
176
139
135
208
127
132
227
123
129
207
120
124
211
125
136
230
133
154
251
126
154
249
120
151
240
106
129
243
113
141
253
114
139
253
107
122
249
107
132
251
109
134
250
107
137
246
110
144
253
108
123
240
108
124
239
100
125
240
100
117
219
116
125
222
126
144
247
129
129
220
122
120
176
113
119
198
122
127
210
137
145
245
139
152
247
137
130
201
143
128
168
143
128
168
137
130
201
139
152
247
137
145
245
122
127
210
113
119
198
122
120
176
129
129
220
126
144
247
116
125
222
100
117
219
100
125
240
108
124
239
108
123
240
110
144
253
107
137
246
107
137
246
110
144
253
108
123
240
108
124
239
100
125
240
100
117
219
116
125
222
126
144
247
129
129
220
122
120
176
113
119
198
122
127
210
137
145
245
139
152
247
137
130
201
143
128
168
143
128
168
137
130
201
139
152
247
137
145
245
122
127
210
113
119
198
122
120
176
129
129
220
126
144
247
116
125
222
100
117
219
100
125
240
108
124
239
108
123
240
110
144
253
107
137
246
102
104
162
102
125
234
106
125
244
112
131
248
109
131
246
115
130
239
121
129
233
126
142
248
131
131
228
130
123
192
113
122
197
118
125
198
133
132
211
136
132
204
137
125
181
141
143
207
141
143
207
137
125
181
136
132
204
133
132
211
118
125
198
113
122
197
130
123
192
131
131
228
126
142
248
121
129
233
115
130
239
109
131
246
112
131
248
106
125
244
102
125
234
102
104
162
102
104
162
102
125
234
106
125
244
112
131
248
109
131
246
115
130
239
121
129
233
126
142
248
131
131
228
130
123
192
113
122
197
118
125
198
133
132
211
136
132
204
137
125
181
141
143
207
141
143
207
137
125
181
136
132
204
133
132
211
118
125
198
113
122
197
130
123
192
131
131
228
126
142
248
121
129
233
115
130
239
109
131
246
112
131
248
106
125
244
102
125
234
102
104
162
109
106
133
110
108
171
109
115
202
105
119
218
108
126
232
112
130
241
120
141
247
126
143
247
127
129
237
132
127
226
121
129
231
120
127
207
127
124
185
144
137
202
145
130
179
146
159
222
146
159
222
145
130
179
144
137
202
127
124
185
120
127
207
121
129
231
132
127
226
127
129
237
126
143
247
120
141
247
112
130
241
108
126
232
105
119
218
109
115
202
110
108
171
109
106
133
109
106
133
110
108
171
109
115
202
105
119
218
108
126
232
112
130
241
120
141
247
126
143
247
127
129
237
132
127
226
121
129
231
120
127
207
127
124
185
144
137
202
145
130
179
146
159
222
146
159
222
145
130
179
144
137
202
127
124
185
120
127
207
121
129
231
132
127
226
127
129
237
126
143
247
120
141
247
112
130
241
108
126
232
105
119
218
109
115
202
110
108
171
109
106
133
105
101
126
112
104
158
116
104
163
111
111
189
102
126
234
112
140
251
115
135
244
119
138
246
129
142
246
124
123
227
124
128
239
135
126
201
132
124
189
138
128
186
148
132
163
133
129
176
133
129
176
148
132
163
138
128
186
132
124
189
135
126
201
124
128
239
124
123
227
129
142
246
119
138
246
115
135
244
112
140
251
102
126
234
111
111
189
116
104
163
112
104
158
105
101
126
105
101
126
112
104
158
116
104
163
111
111
189
102
126
234
112
140
251
115
135
244
119
138
246
129
142
246
124
123
227
124
128
239
135
126
201
132
124
189
138
128
186
148
132
163
133
129
176
133
129
176
148
132
163
138
128
186
132
124
189
135
126
201
124
128
239
124
123
227
129
142
246
119
138
246
115
135
244
112
140
251
102
126
234
111
111
189
116
104
163
112
104
158
105
101
126
107
107
167
111
109
189
114
108
177
113
109
180
107
124
224
109
146
254
114
146
253
115
132
243
120
138
247
120
131
240
125
124
225
143
133
190
136
129
187
138
131
163
130
124
157
134
130
160
134
130
160
130
124
157
138
131
163
136
129
187
143
133
190
125
124
225
120
131
240
120
138
247
115
132
243
114
146
253
109
146
254
107
124
224
113
109
180
114
108
177
111
109
189
107
107
167
107
107
167
111
109
189
114
108
177
113
109
180
107
124
224
109
146
254
114
146
253
115
132
243
120
138
247
120
131
240
125
124
225
143
133
190
136
129
187
138
131
163
130
124
157
134
130
160
134
130
160
130
124
157
138
131
163
136
129
187
143
133
190
125
124
225
120
131
240
120
138
247
115
132
243
114
146
253
109
146
254
107
124
224
113
109
180
114
108
177
111
109
189
107
107
167
109
111
184
109
116
211
110
117
222
111
116
218
112
118
212
116
144
250
118
149
255
123
147
252
122
132
242
109
116
214
113
113
181
130
123
163
132
130
159
136
131
151
136
133
192
148
137
166
148
137
166
136
133
192
136
131
151
132
130
159
130
123
163
113
113
181
109
116
214
122
132
242
123
147
252
118
149
255
116
144
250
112
118
212
111
116
218
110
117
222
109
116
211
109
111
184
109
111
184
109
116
211
110
117
222
111
116
218
112
118
212
116
144
250
118
149
255
123
147
252
122
132
242
109
116
214
113
113
181
130
123
163
132
130
159
136
131
151
136
133
192
148
137
166
148
137
166
136
133
192
136
131
151
132
130
159
130
123
163
113
113
181
109
116
214
122
132
242
123
147
252
118
149
255
116
144
250
112
118
212
111
116
218
110
117
222
109
116
211
109
111
184
101
119
224
101
125
243
111
132
245
113
127
237
112
123
228
117
132
240
118
137
244
119
140
249
118
135
243
120
126
225
118
118
182
123
117
154
130
124
165
141
131
157
143
132
192
142
133
178
142
133
178
143
132
192
141
131
157
130
124
165
123
117
154
118
118
182
120
126
225
118
135
243
119
140
249
118
137
244
117
132
240
112
123
228
113
127
237
111
132
245
101
125
243
101
119
224
101
119
224
101
125
243
111
132
245
113
127
237
112
123
228
117
132
240
118
137
244
119
140
249
118
135
243
120
126
225
118
118
182
123
117
154
130
124
165
141
131
157
143
132
192
142
133
178
142
133
178
143
132
192
141
131
157
130
124
165
123
117
154
118
118
182
120
126
225
118
135
243
119
140
249
118
137
244
117
132
240
112
123
228
113
127
237
111
132
245
101
125
243
101
119
224
101
137
252
107
144
253
109
148
253
110
141
252
105
129
247
115
142
254
116
147
252
119
155
253
121
155
253
120
132
243
122
127
227
134
125
181
140
129
173
142
131
180
140
127
185
137
125
179
137
125
179
140
127
185
142
131
180
140
129
173
134
125
181
122
127
227
120
132
243
121
155
253
119
155
253
116
147
252
115
142
254
105
129
247
110
141
252
109
148
253
107
144
253
101
137
252
101
137
252
107
144
253
109
148
253
110
141
252
105
129
247
115
142
254
116
147
252
119
155
253
121
155
253
120
132
243
122
127
227
134
125
181
140
129
173
142
131
180
140
127
185
137
125
179
137
125
179
140
127
185
142
131
180
140
129
173
134
125
181
122
127
227
120
132
243
121
155
253
119
155
253
116
147
252
115
142
254
105
129
247
110
141
252
109
148
253
107
144
253
101
137
252
106
164
254
102
169
253
101
164
253
106
150
250
112
129
243
120
134
244
122
147
250
124
158
252
126
155
252
122
145
251
125
129
238
134
125
193
137
125
162
141
129
175
143
129
177
139
124
184
139
124
184
143
129
177
141
129
175
137
125
162
134
125
193
125
129
238
122
145
251
126
155
252
124
158
252
122
147
250
120
134
244
112
129
243
106
150
250
101
164
253
102
169
253
106
164
254
106
164
254
102
169
253
101
164
253
106
150
250
112
129
243
120
134
244
122
147
250
124
158
252
126
155
252
122
145
251
125
129
238
134
125
193
137
125
162
141
129
175
143
129
177
139
124
184
139
124
184
143
129
177
141
129
175
137
125
162
134
125
193
125
129
238
122
145
251
126
155
252
124
158
252
122
147
250
120
134
244
112
129
243
106
150
250
101
164
253
102
169
253
106
164
254
106
164
254
102
169
253
101
164
253
106
150
250
112
129
243
120
134
244
122
147
250
124
158
252
126
155
252
122
145
251
125
129
238
134
125
193
137
125
162
141
129
175
143
129
177
139
124
184
139
124
184
143
129
177
141
129
175
137
125
162
134
125
193
125
129
238
122
145
251
126
155
252
124
158
252
122
147
250
120
134
244
112
129
243
106
150
250
101
164
253
102
169
253
106
164
254
106
164
254
102
169
253
101
164
253
106
150
250
112
129
243
120
134
244
122
147
250
124
158
252
126
155
252
122
145
251
125
129
238
134
125
193
137
125
162
141
129
175
143
129
177
139
124
184
139
124
184
143
129
177
141
129
175
137
125
162
134
125
193
125
129
238
122
145
251
126
155
252
124
158
252
122
147
250
120
134
244
112
129
243
106
150
250
101
164
253
102
169
253
106
164
254
101
137
252
107
144
253
109
148
253
110
141
252
105
129
247
115
142
254
116
147
252
119
155
253
121
155
253
120
132
243
122
127
227
134
125
181
140
129
173
142
131
180
140
127
185
137
125
179
137
125
179
140
127
185
142
131
180
140
129
173
134
125
181
122
127
227
120
132
243
121
155
253
119
155
253
116
147
252
115
142
254
105
129
247
110
141
252
109
148
253
107
144
253
101
137
252
101
137
252
107
144
253
109
148
253
110
141
252
105
129
247
115
142
254
116
147
252
119
155
253
121
155
253
120
132
243
122
127
227
134
125
181
140
129
173
142
131
180
140
127
185
137
125
179
137
125
179
140
127
185
142
131
180
140
129
173
134
125
181
122
127
227
120
132
243
121
155
253
119
155
253
116
147
252
115
142
254
105
129
247
110
141
252
109
148
253
107
144
253
101
137
252
101
119
224
101
125
243
111
132
245
113
127
237
112
123
228
117
132
240
118
137
244
119
140
249
118
135
243
120
126
225
118
118
182
123
117
154
130
124
165
141
131
157
143
132
192
142
133
178
142
133
178
143
132
192
141
131
157
130
124
165
123
117
154
118
118
182
120
126
225
118
135
243
119
140
249
118
137
244
117
132
240
112
123
228
113
127
237
111
132
245
101
125
243
101
119
224
101
119
224
101
125
243
111
132
245
113
127
237
112
123
228
117
132
240
118
137
244
119
140
249
118
135
243
120
126
225
118
118
182
123
117
154
130
124
165
141
131
157
143
132
192
142
133
178
142
133
178
143
132
192
141
131
157
130
124
165
123
117
154
118
118
182
120
126
225
118
135
243
119
140
249
118
137
244
117
132
240
112
123
228
113
127
237
111
132
245
101
125
243
101
119
224
109
111
184
109
116
211
110
117
222
111
116
218
112
118
212
116
144
250
118
149
255
123
147
252
122
132
242
109
116
214
113
113
181
130
123
163
132
130
159
136
131
151
136
133
192
148
137
166
148
137
166
136
133
192
136
131
151
132
130
159
130
123
163
113
113
181
109
116
214
122
132
242
123
147
252
118
149
255
116
144
250
112
118
212
111
116
218
110
117
222
109
116
211
109
111
184
109
111
184
109
116
211
110
117
222
111
116
218
112
118
212
116
144
250
118
149
255
123
147
252
122
132
242
109
116
214
113
113
181
130
123
163
132
130
159
136
131
151
136
133
192
148
137
166
148
137
166
136
133
192
136
131
151
132
130
159
130
123
163
113
113
181
109
116
214
122
132
242
123
147
252
118
149
255
116
144
250
112
118
212
111
116
218
110
117
222
109
116
211
109
111
184
107
107
167
111
109
189
114
108
177
113
109
180
107
124
224
109
146
254
114
146
253
115
132
243
120
138
247
120
131
240
125
124
225
143
133
190
136
129
187
138
131
163
130
124
157
134
130
160
134
130
160
130
124
157
138
131
163
136
129
187
143
133
190
125
124
225
120
131
240
120
138
247
115
132
243
114
146
253
109
146
254
107
124
224
113
109
180
114
108
177
111
109
189
107
107
167
107
107
167
111
109
189
114
108
177
113
109
180
107
124
224
109
146
254
114
146
253
115
132
243
120
138
247
120
131
240
125
124
225
143
133
190
136
129
187
138
131
163
130
124
157
134
130
160
134
130
160
130
124
157
138
131
163
136
129
187
143
133
190
125
124
225
120
131
240
120
138
247
115
132
243
114
146
253
109
146
254
107
124
224
113
109
180
114
108
177
111
109
189
107
107
167
105
101
126
112
104
158
116
104
163
111
111
189
102
126
234
112
140
251
115
135
244
119
138
246
129
142
246
124
123
227
124
128
239
135
126
201
132
124
189
138
128
186
148
132
163
133
129
176
133
129
176
148
132
163
138
128
186
132
124
189
135
126
201
124
128
239
124
123
227
129
142
246
119
138
246
115
135
244
112
140
251
102
126
234
111
111
189
116
104
163
112
104
158
105
101
126
105
101
126
112
104
158
116
104
163
111
111
189
102
126
234
112
140
251
115
135
244
119
138
246
129
142
246
124
123
227
124
128
239
135
126
201
132
124
189
138
128
186
148
132
163
133
129
176
133
129
176
148
132
163
138
128
186
132
124
189
135
126
201
124
128
239
124
123
227
129
142
246
119
138
246
115
135
244
112
140
251
102
126
234
111
111
189
116
104
163
112
104
158
105
101
126
109
106
133
110
108
171
109
115
202
105
119
218
108
126
232
112
130
241
120
141
247
126
143
247
127
129
237
132
127
226
121
129
231
120
127
207
127
124
185
144
137
202
145
130
179
146
159
222
146
159
222
145
130
179
144
137
202
127
124
185
120
127
207
121
129
231
132
127
226
127
129
237
126
143
247
120
141
247
112
130
241
108
126
232
105
119
218
109
115
202
110
108
171
109
106
133
109
106
133
110
108
171
109
115
202
105
119
218
108
126
232
112
130
241
120
141
247
126
143
247
127
129
237
132
127
226
121
129
231
120
127
207
127
124
185
144
137
202
145
130
179
146
159
222
146
159
222
145
130
179
144
137
202
127
124
185
120
127
207
121
129
231
132
127
226
127
129
237
126
143
247
120
141
247
112
130
241
108
126
232
105
119
218
109
115
202
110
108
171
109
106
133
102
104
162
102
125
234
106
125
244
112
131
248
109
131
246
115
130
239
121
129
233
126
142
248
131
131
228
130
123
192
113
122
197
118
125
198
133
132
211
136
132
204
137
125
181
141
143
207
141
143
207
137
125
181
136
132
204
133
132
211
118
125
198
113
122
197
130
123
192
131
131
228
126
142
248
121
129
233
115
130
239
109
131
246
112
131
248
106
125
244
102
125
234
102
104
162
102
104
162
102
125
234
106
125
244
112
131
248
109
131
246
115
130
239
121
129
233
126
142
248
131
131
228
130
123
192
113
122
197
118
125
198
133
132
211
136
132
204
137
125
181
141
143
207
141
143
207
137
125
181
136
132
204
133
132
211
118
125
198
113
122
197
130
123
192
131
131
228
126
142
248
121
129
233
115
130
239
109
131
246
112
131
248
106
125
244
102
125
234
102
104
162
107
137
246
110
144
253
108
123
240
108
124
239
100
125
240
100
117
219
116
125
222
126
144
247
129
129
220
122
120
176
113
119
198
122
127
210
137
145
245
139
152
247
137
130
201
143
128
168
143
128
168
137
130
201
139
152
247
137
145
245
122
127
210
113
119
198
122
120
176
129
129
220
126
144
247
116
125
222
100
117
219
100
125
240
108
124
239
108
123
240
110
144
253
107
137
246
107
137
246
110
144
253
108
123
240
108
124
239
100
125
240
100
117
219
116
125
222
126
144
247
129
129
220
122
120
176
113
119
198
122
127
210
137
145
245
139
152
247
137
130
201
143
128
168
143
128
168
137
130
201
139
152
247
137
145
245
122
127
210
113
119
198
122
120
176
129
129
220
126
144
247
116
125
222
100
117
219
100
125
240
108
124
239
108
123
240
110
144
253
107
137
246
109
134
250
107
132
251
107
122
249
114
139
253
113
141
253
106
129
243
120
151
240
126
154
249
133
154
251
125
136
230
120
124
211
123
129
207
127
132
227
139
135
208
139
125
176
142
126
174
142
126
174
139
125
176
139
135
208
127
132
227
123
129
207
120
124
211
125
136
230
133
154
251
126
154
249
120
151
240
106
129
243
113
141
253
114
139
253
107
122
249
107
132
251
109
134
250
109
134
250
107
132
251
107
122
249
114
139
253
113
141
253
106
129
243
120
151
240
126
154
249
133
154
251
125
136
230
120
124
211
123
129
207
127
132
227
139
135
208
139
125
176
142
126
174
142
126
174
139
125
176
139
135
208
127
132
227
123
129
207
120
124
211
125
136
230
133
154
251
126
154
249
120
151
240
106
129
243
113
141
253
114
139
253
107
122
249
107
132
251
109
134
250
105
121
238
98
122
247
103
123
250
114
138
254
110
133
249
109
125
235
123
157
253
129
159
254
129
151
252
125
146
252
125
140
246
131
137
221
132
135
211
139
125
181
135
125
185
144
125
173
144
125
173
135
125
185
139
125
181
132
135
211
131
137
221
125
140
246
125
146
252
129
151
252
129
159
254
123
157
253
109
125
235
110
133
249
114
138
254
103
123
250
98
122
247
105
121
238
105
121
238
98
122
247
103
123
250
114
138
254
110
133
249
109
125
235
123
157
253
129
159
254
129
151
252
125
146
252
125
140
246
131
137
221
132
135
211
139
125
181
135
125
185
144
125
173
144
125
173
135
125
185
139
125
181
132
135
211
131
137
221
125
140
246
125
146
252
129
151
252
129
159
254
123
157
253
109
125
235
110
133
249
114
138
254
103
123
250
98
122
247
105
121
238
100
108
208
100
119
242
91
117
244
99
126
247
105
125
246
105
117
227
114
131
239
123
137
253
123
139
251
123
146
253
123
140
242
136
138
217
123
133
207
126
124
194
137
129
192
144
131
185
144
131
185
137
129
192
126
124
194
123
133
207
136
138
217
123
140
242
123
146
253
123
139
251
123
137
253
114
131
239
105
117
227
105
125
246
99
126
247
91
117
244
100
119
242
100
108
208
100
108
208
100
119
242
91
117
244
99
126
247
105
125
246
105
117
227
114
131
239
123
137
253
123
139
251
123
146
253
123
140
242
136
138
217
123
133
207
126
124
194
137
129
192
144
131
185
144
131
185
137
129
192
126
124
194
123
133
207
136
138
217
123
140
242
123
146
253
123
139
251
123
137
253
114
131
239
105
117
227
105
125
246
99
126
247
91
117
244
100
119
242
100
108
208
100
113
220
103
111
221
107
120
234
92
116
240
89
113
232
98
113
227
114
119
224
117
117
234
121
126
245
123
142
253
122
131
226
131
116
176
128
128
207
126
122
192
141
134
189
141
129
182
141
129
182
141
134
189
126
122
192
128
128
207
131
116
176
122
131
226
123
142
253
121
126
245
117
117
234
114
119
224
98
113
227
89
113
232
92
116
240
107
120
234
103
111
221
100
113
220
100
113
220
103
111
221
107
120
234
92
116
240
89
113
232
98
113
227
114
119
224
117
117
234
121
126
245
123
142
253
122
131
226
131
116
176
128
128
207
126
122
192
141
134
189
141
129
182
141
129
182
141
134
189
126
122
192
128
128
207
131
116
176
122
131
226
123
142
253
121
126
245
117
117
234
114
119
224
98
113
227
89
113
232
92
116
240
107
120
234
103
111
221
100
113
220
99
122
232
107
109
209
109
123
228
98
116
215
92
105
201
101
103
188
105
105
187
112
106
190
117
110
222
118
129
242
119
132
232
126
112
172
125
128
209
133
135
202
144
147
201
140
136
203
140
136
203
144
147
201
133
135
202
125
128
209
126
112
172
119
132
232
118
129
242
117
110
222
112
106
190
105
105
187
101
103
188
92
105
201
98
116
215
109
123
228
107
109
209
99
122
232
99
122
232
107
109
209
109
123
228
98
116
215
92
105
201
101
103
188
105
105
187
112
106
190
117
110
222
118
129
242
119
132
232
126
112
172
125
128
209
133
135
202
144
147
201
140
136
203
140
136
203
144
147
201
133
135
202
125
128
209
126
112
172
119
132
232
118
129
242
117
110
222
112
106
190
105
105
187
101
103
188
92
105
201
98
116
215
109
123
228
107
109
209
99
122
232
100
122
236
103
109
204
106
127
242
112
136
241
112
137
241
104
115
206
105
103
169
108
99
154
112
103
165
112
111
201
116
122
233
125
112
179
123
128
209
128
149
216
127
134
198
122
107
174
122
107
174
127
134
198
128
149
216
123
128
209
125
112
179
116
122
233
112
111
201
112
103
165
108
99
154
105
103
169
104
115
206
112
137
241
112
136
241
106
127
242
103
109
204
100
122
236
100
122
236
103
109
204
106
127
242
112
136
241
112
137
241
104
115
206
105
103
169
108
99
154
112
103
165
112
111
201
116
122
233
125
112
179
123
128
209
128
149
216
127
134
198
122
107
174
122
107
174
127
134
198
128
149
216
123
128
209
125
112
179
116
122
233
112
111
201
112
103
165
108
99
154
105
103
169
104
115
206
112
137
241
112
136
241
106
127
242
103
109
204
100
122
236
102
120
233
104
131
243
104
115
217
103
118
232
112
139
246
100
133
249
104
124
234
107
109
178
103
100
147
105
104
154
104
120
209
116
112
164
122
122
176
124
148
208
123
136
209
123
105
171
123
105
171
123
136
209
124
148
208
122
122
176
116
112
164
104
120
209
105
104
154
103
100
147
107
109
178
104
124
234
100
133
249
112
139
246
103
118
232
104
115
217
104
131
243
102
120
233
102
120
233
104
131
243
104
115
217
103
118
232
112
139
246
100
133
249
104
124
234
107
109
178
103
100
147
105
104
154
104
120
209
116
112
164
122
122
176
124
148
208
123
136
209
123
105
171
123
105
171
123
136
209
124
148
208
122
122
176
116
112
164
104
120
209
105
104
154
103
100
147
107
109
178
104
124
234
100
133
249
112
139
246
103
118
232
104
115
217
104
131
243
102
120
233
