P3
# Created by GIMP version 2.10.36 PNM plug-in
16 16
255
173
173
173
173
173
173
173
173
173
173
173
173
173
173
173
173
173
173
173
173
173
173
173
173
173
173
173
173
173
173
173
173
173
173
173
173
173
173
173
173
173
173
173
173
173
173
173
173
173
173
173
173
173
173
173
173
173
173
173
173
173
173
173
173
173
173
173
173
173
173
173
173
173
173
173
173
173
173
173
173
173
173
173
173
173
173
173
173
173
173
173
173
173
173
173
173
173
173
173
173
173
173
173
173
173
173
173
173
173
173
173
173
173
173
173
173
173
173
173
173
173
173
173
227
227
227
173
173
173
173
173
173
173
173
173
173
173
173
173
173
173
173
173
173
173
173
173
173
173
173
173
173
173
173
173
173
173
173
173
173
173
173
173
173
173
173
173
173
227
227
227
227
227
227
227
227
227
173
173
173
173
173
173
173
173
173
173
173
173
173
173
173
173
173
173
173
173
173
173
173
173
173
173
173
173
173
173
173
173
173
173
173
173
227
227
227
227
227
227
227
227
227
227
227
227
227
227
227
173
173
173
173
173
173
173
173
173
173
173
173
173
173
173
173
173
173
173
173
173
173
173
173
173
173
173
173
173
173
227
227
227
227
227
227
227
227
227
227
227
227
227
227
227
227
227
227
227
227
227
173
173
173
173
173
173
173
173
173
173
173
173
173
173
173
173
173
173
173
173
173
173
173
173
227
227
227
227
227
227
227
227
227
227
227
227
227
227
227
227
227
227
156
156
156
156
156
156
156
156
156
173
173
173
173
173
173
173
173
173
173
173
173
173
173
173
173
173
173
227
227
227
227
227
227
227
227
227
227
227
227
156
156
156
156
156
156
156
156
156
156
156
156
156
156
156
156
156
156
173
173
173
173
173
173
173
173
173
173
173
173
173
173
173
227
227
227
227
227
227
156
156
156
156
156
156
156
156
156
156
156
156
156
156
156
156
156
156
156
156
156
156
156
156
156
156
156
173
173
173
173
173
173
173
173
173
173
173
173
156
156
156
156
156
156
156
156
156
156
156
156
156
156
156
156
156
156
156
156
156
156
156
156
156
156
156
156
156
156
156
156
156
156
156
156
173
173
173
173
173
173
173
173
173
173
173
173
156
156
156
156
156
156
156
156
156
156
156
156
156
156
156
156
156
156
156
156
156
156
156
156
156
156
156
156
156
156
156
156
156
156
156
156
173
173
173
173
173
173
173
173
173
173
173
173
156
156
156
156
156
156
156
156
156
156
156
156
156
156
156
156
156
156
156
156
156
156
156
156
156
156
156
173
173
173
173
173
173
173
173
173
173
173
173
173
173
173
173
173
173
173
173
173
156
156
156
156
156
156
156
156
156
156
156
156
156
156
156
156
156
156
173
173
173
173
173
173
173
173
173
173
173
173
173
173
173
173
173
173
173
173
173
173
173
173
173
173
173
173
173
173
156
156
156
156
156
156
156
156
156
173
173
173
173
173
173
173
173
173
173
173
173
173
173
173
173
173
173
173
173
173
173
173
173
173
173
173
173
173
173
173
173
173
173
173
173
173
173
173
173
173
173
173
173
173
173
173
173
173
173
173
173
173
173
173
173
173
173
173
173
173
173
173
173
173
173
173
173
173
173
173
173
173
173
173
173
173
173
173
173
173
173
173
173
173
173
173
173
173
173
173
173
173
173
173
173
173
173
173
173
173
173
173
173
173
173
173
173
173
173
173
173
173
173
173
173
173
173
173
173
173
173
173
173
173
173
173
173
173
