P3
# Created by GIMP version 2.10.36 PNM plug-in
16 16
255
25
25
25
21
21
21
18
18
18
18
18
18
25
25
25
25
25
25
18
18
18
18
18
18
18
18
18
18
18
18
18
18
18
18
18
18
21
21
21
25
25
25
25
25
25
25
25
25
25
25
25
41
41
41
48
48
48
48
48
48
48
48
48
41
41
41
41
41
41
37
37
37
25
25
25
51
51
51
67
67
67
60
60
60
46
46
46
59
59
59
35
35
35
35
35
35
25
25
25
37
37
37
33
33
33
33
33
33
34
34
34
34
34
34
33
33
33
33
33
33
21
21
21
51
51
51
32
32
32
34
34
34
34
34
34
34
34
34
32
32
32
32
32
32
25
25
25
37
37
37
33
33
33
26
26
26
33
33
33
33
33
33
26
26
26
20
20
20
21
21
21
35
35
35
32
32
32
25
25
25
32
32
32
32
32
32
32
32
32
25
25
25
25
25
25
21
21
21
21
21
21
21
21
21
19
19
19
18
18
18
18
18
18
19
19
19
18
18
18
19
19
19
21
21
21
21
21
21
18
18
18
18
18
18
18
18
18
21
21
21
35
35
35
35
35
35
25
25
25
55
55
55
60
60
60
60
60
60
62
62
62
60
60
60
40
40
40
40
40
40
25
25
25
40
40
40
40
40
40
35
35
35
35
35
35
35
35
35
30
30
30
27
27
27
21
21
21
51
51
51
32
32
32
35
35
35
32
32
32
32
32
32
32
32
32
32
32
32
34
34
34
41
41
41
25
25
25
32
32
32
32
32
32
32
32
32
27
27
27
25
25
25
21
21
21
35
35
35
32
32
32
32
32
32
34
34
34
32
32
32
27
27
27
25
25
25
25
25
25
35
35
35
32
32
32
25
25
25
32
32
32
25
25
25
25
25
25
25
25
25
18
18
18
18
18
18
18
18
18
21
21
21
21
21
21
21
21
21
21
21
21
21
21
21
25
25
25
25
25
25
25
25
25
25
25
25
25
25
25
25
25
25
25
25
25
35
35
35
35
35
35
35
35
35
25
25
25
40
40
40
40
40
40
40
40
40
36
36
36
59
59
59
55
55
55
40
40
40
21
21
21
35
35
35
35
35
35
35
35
35
25
25
25
35
35
35
32
32
32
32
32
32
25
25
25
35
35
35
32
32
32
32
32
32
32
32
32
36
36
36
36
36
36
36
36
36
21
21
21
35
35
35
32
32
32
32
32
32
25
25
25
35
35
35
25
25
25
32
32
32
25
25
25
35
35
35
32
32
32
32
32
32
28
28
28
28
28
28
36
36
36
28
28
28
21
21
21
35
35
35
32
32
32
32
32
32
21
21
21
21
21
21
18
18
18
18
18
18
18
18
18
18
18
18
25
25
25
21
21
21
18
18
18
20
20
20
22
22
22
18
18
18
23
23
23
21
21
21
25
25
25
25
25
25
34
34
34
71
71
71
60
60
60
66
66
66
47
47
47
43
43
43
43
43
43
43
43
43
21
21
21
35
35
35
40
40
40
46
46
46
46
46
46
45
45
45
45
45
45
35
35
35
25
25
25
57
57
57
39
39
39
38
38
38
38
38
38
38
38
38
38
38
38
38
38
38
25
25
25
35
35
35
32
32
32
32
32
32
32
32
32
32
32
32
32
32
32
25
25
25
25
25
25
43
43
43
38
38
38
38
38
38
38
38
38
38
38
38
26
26
26
26
26
26
21
21
21
35
35
35
32
32
32
25
25
25
25
25
25
21
21
21
25
25
25
25
25
25
