P3
# Created by GIMP version 2.10.36 PNM plug-in
16 16
255
6
228
216
46
175
200
57
174
241
49
186
250
75
187
248
52
238
241
61
212
217
85
170
175
19
233
199
27
175
187
50
174
199
44
198
216
80
200
231
78
217
226
84
174
185
68
174
174
66
151
206
61
158
180
89
151
199
91
162
249
81
161
246
88
194
251
102
188
247
93
162
178
51
234
191
49
196
201
36
190
219
44
204
215
65
168
232
70
200
232
70
213
202
82
160
164
54
179
222
74
145
186
83
138
185
82
135
223
95
172
235
86
162
248
98
183
241
80
180
193
44
196
167
24
189
208
26
190
217
62
180
237
74
160
241
63
164
217
60
197
206
84
158
148
51
188
209
79
153
210
90
155
208
66
166
217
92
199
229
90
191
250
130
149
252
98
179
234
6
222
188
39
179
199
46
177
224
79
156
236
53
173
230
44
192
222
74
227
219
83
175
194
65
176
232
85
185
250
68
186
252
74
176
238
73
191
224
87
202
234
113
157
245
102
215
213
57
205
197
27
210
202
37
225
218
49
180
240
39
211
228
42
204
214
89
189
217
85
193
214
82
172
237
95
175
252
79
168
253
81
168
248
81
203
236
85
200
226
110
166
244
78
200
227
51
200
216
43
190
238
55
172
220
50
204
241
18
220
233
28
220
221
75
196
224
74
190
209
70
163
242
76
163
243
90
174
250
97
152
250
105
188
252
103
179
237
72
217
233
100
168
251
80
149
234
60
179
226
38
201
215
47
186
224
49
186
224
68
206
231
65
209
231
65
193
212
65
183
250
63
191
250
78
199
244
101
154
252
102
170
250
101
169
251
101
155
251
91
168
250
87
144
242
59
190
229
34
228
220
66
235
216
71
201
212
102
174
240
107
163
232
89
185
221
52
191
246
85
211
251
99
156
249
107
154
250
95
166
253
98
148
253
96
152
252
64
214
240
75
185
250
65
181
234
46
195
220
43
218
201
65
185
216
101
146
219
110
158
248
101
173
232
79
168
253
72
189
253
78
175
236
82
169
248
92
166
254
92
140
254
91
135
253
80
168
253
66
197
242
78
177
250
86
151
226
77
154
209
90
143
205
110
148
240
105
154
240
93
161
209
94
116
233
72
153
239
71
168
230
94
154
254
89
163
253
86
142
250
84
134
252
90
142
251
90
139
254
86
158
252
83
147
239
90
135
241
92
151
247
106
145
248
89
162
227
75
178
211
92
133
232
77
145
237
44
187
227
88
161
254
73
156
253
82
141
253
88
135
254
95
124
252
91
137
253
93
128
254
88
135
254
90
122
254
99
131
254
96
161
247
53
190
229
67
176
191
105
201
248
80
152
251
80
172
252
83
149
254
61
182
253
88
125
254
88
128
254
88
141
254
91
117
254
97
112
254
87
136
253
90
129
253
97
157
245
75
178
222
39
209
224
67
188
217
69
229
192
66
134
226
74
148
246
73
164
254
74
170
253
84
135
253
83
137
253
67
171
247
89
131
254
89
128
252
91
128
237
92
138
234
98
150
238
92
141
203
65
170
211
77
151
178
76
197
243
78
169
252
87
127
251
93
154
254
77
166
253
62
162
252
56
165
244
52
173
237
76
145
244
91
126
245
84
139
223
96
129
214
96
124
214
91
140
215
92
132
185
79
147
171
92
119
248
63
154
250
74
130
244
88
130
253
88
139
253
72
155
251
67
157
248
50
188
240
68
162
242
82
142
243
87
144
230
93
140
212
97
127
214
95
125
209
87
141
208
72
157
178
