P3
# Created by GIMP version 2.10.36 PNM plug-in
16 16
255
113
113
113
107
107
107
91
91
91
107
107
107
77
77
77
91
91
91
107
107
107
91
91
91
77
77
77
77
77
77
113
113
113
125
125
125
113
113
113
91
91
91
107
107
107
107
107
107
107
107
107
91
91
91
91
91
91
91
91
91
77
77
77
61
61
61
91
91
91
91
91
91
77
77
77
125
125
125
125
125
125
107
107
107
107
107
107
91
91
91
91
91
91
107
107
107
107
107
107
91
91
91
91
91
91
77
77
77
61
61
61
61
61
61
77
77
77
91
91
91
107
107
107
125
125
125
113
113
113
107
107
107
107
107
107
107
107
107
91
91
91
107
107
107
107
107
107
91
91
91
77
77
77
61
61
61
61
61
61
77
77
77
77
77
77
91
91
91
107
107
107
113
113
113
113
113
113
113
113
113
113
113
113
107
107
107
91
91
91
91
91
91
91
91
91
77
77
77
77
77
77
61
61
61
77
77
77
91
91
91
107
107
107
107
107
107
113
113
113
113
113
113
113
113
113
107
107
107
113
113
113
91
91
91
77
77
77
91
91
91
77
77
77
91
91
91
61
61
61
77
77
77
91
91
91
107
107
107
91
91
91
91
91
91
91
91
91
113
113
113
107
107
107
107
107
107
107
107
107
77
77
77
61
61
61
61
61
61
125
125
125
125
125
125
107
107
107
91
91
91
91
91
91
91
91
91
77
77
77
91
91
91
107
107
107
107
107
107
91
91
91
107
107
107
91
91
91
61
61
61
77
77
77
91
91
91
107
107
107
113
113
113
107
107
107
107
107
107
91
91
91
77
77
77
77
77
77
91
91
91
107
107
107
91
91
91
91
91
91
91
91
91
77
77
77
77
77
77
91
91
91
107
107
107
107
107
107
91
91
91
91
91
91
125
125
125
125
125
125
113
113
113
107
107
107
77
77
77
91
91
91
113
113
113
125
125
125
91
91
91
91
91
91
107
107
107
113
113
113
113
113
113
91
91
91
91
91
91
107
107
107
107
107
107
113
113
113
125
125
125
107
107
107
77
77
77
77
77
77
91
91
91
113
113
113
91
91
91
125
125
125
125
125
125
113
113
113
107
107
107
77
77
77
91
91
91
107
107
107
107
107
107
107
107
107
113
113
113
91
91
91
77
77
77
91
91
91
107
107
107
107
107
107
107
107
107
113
113
113
107
107
107
91
91
91
91
91
91
91
91
91
107
107
107
107
107
107
107
107
107
91
91
91
107
107
107
91
91
91
107
107
107
113
113
113
107
107
107
107
107
107
107
107
107
113
113
113
91
91
91
91
91
91
77
77
77
107
107
107
107
107
107
107
107
107
91
91
91
91
91
91
113
113
113
125
125
125
125
125
125
125
125
125
107
107
107
91
91
91
91
91
91
107
107
107
91
91
91
77
77
77
77
77
77
77
77
77
91
91
91
107
107
107
91
91
91
77
77
77
107
107
107
125
125
125
113
113
113
107
107
107
91
91
91
91
91
91
77
77
77
61
61
61
61
61
61
77
77
77
91
91
91
91
91
91
125
125
125
125
125
125
113
113
113
77
77
77
107
107
107
113
113
113
113
113
113
91
91
91
91
91
91
77
77
77
61
61
61
61
61
61
77
77
77
91
91
91
91
91
91
125
125
125
113
113
113
107
107
107
107
107
107
91
91
91
107
107
107
113
113
113
107
107
107
91
91
91
77
77
77
91
91
91
77
77
77
77
77
77
77
77
77
91
91
91
113
113
113
