P3
# Created by GIMP version 2.10.36 PNM plug-in
16 16
255
105
105
105
102
102
102
94
94
94
102
102
102
87
87
87
94
94
94
102
102
102
94
94
94
87
87
87
87
87
87
105
105
105
111
111
111
105
105
105
94
94
94
102
102
102
102
102
102
102
102
102
94
94
94
94
94
94
94
94
94
87
87
87
79
79
79
94
94
94
94
94
94
87
87
87
111
111
111
111
111
111
102
102
102
102
102
102
94
94
94
94
94
94
102
102
102
102
102
102
94
94
94
94
94
94
87
87
87
79
79
79
79
79
79
87
87
87
94
94
94
102
102
102
111
111
111
105
105
105
102
102
102
102
102
102
102
102
102
94
94
94
102
102
102
102
102
102
94
94
94
87
87
87
79
79
79
79
79
79
87
87
87
87
87
87
94
94
94
102
102
102
105
105
105
105
105
105
105
105
105
105
105
105
102
102
102
94
94
94
94
94
94
94
94
94
87
87
87
87
87
87
79
79
79
87
87
87
94
94
94
102
102
102
102
102
102
105
105
105
105
105
105
105
105
105
102
102
102
105
105
105
94
94
94
87
87
87
94
94
94
87
87
87
94
94
94
79
79
79
87
87
87
94
94
94
102
102
102
94
94
94
94
94
94
94
94
94
105
105
105
102
102
102
102
102
102
102
102
102
87
87
87
79
79
79
79
79
79
111
111
111
111
111
111
102
102
102
94
94
94
94
94
94
94
94
94
87
87
87
94
94
94
102
102
102
102
102
102
94
94
94
102
102
102
94
94
94
79
79
79
87
87
87
94
94
94
102
102
102
105
105
105
102
102
102
102
102
102
94
94
94
87
87
87
87
87
87
94
94
94
102
102
102
94
94
94
94
94
94
94
94
94
87
87
87
87
87
87
94
94
94
102
102
102
102
102
102
94
94
94
94
94
94
111
111
111
111
111
111
105
105
105
102
102
102
87
87
87
94
94
94
105
105
105
111
111
111
94
94
94
94
94
94
102
102
102
105
105
105
105
105
105
94
94
94
94
94
94
102
102
102
102
102
102
105
105
105
111
111
111
102
102
102
87
87
87
87
87
87
94
94
94
105
105
105
94
94
94
111
111
111
111
111
111
105
105
105
102
102
102
87
87
87
94
94
94
102
102
102
102
102
102
102
102
102
105
105
105
94
94
94
87
87
87
94
94
94
102
102
102
102
102
102
102
102
102
105
105
105
102
102
102
94
94
94
94
94
94
94
94
94
102
102
102
102
102
102
102
102
102
94
94
94
102
102
102
94
94
94
102
102
102
105
105
105
102
102
102
102
102
102
102
102
102
105
105
105
94
94
94
94
94
94
87
87
87
102
102
102
102
102
102
102
102
102
94
94
94
94
94
94
105
105
105
111
111
111
111
111
111
111
111
111
102
102
102
94
94
94
94
94
94
102
102
102
94
94
94
87
87
87
87
87
87
87
87
87
94
94
94
102
102
102
94
94
94
87
87
87
102
102
102
111
111
111
105
105
105
102
102
102
94
94
94
94
94
94
87
87
87
79
79
79
79
79
79
87
87
87
94
94
94
94
94
94
111
111
111
111
111
111
105
105
105
87
87
87
102
102
102
105
105
105
105
105
105
94
94
94
94
94
94
87
87
87
79
79
79
79
79
79
87
87
87
94
94
94
94
94
94
111
111
111
105
105
105
102
102
102
102
102
102
94
94
94
102
102
102
105
105
105
102
102
102
94
94
94
87
87
87
94
94
94
87
87
87
87
87
87
87
87
87
94
94
94
105
105
105
