P3
# Created by GIMP version 2.10.36 PNM plug-in
16 16
255
162
162
162
164
164
164
164
164
164
168
168
168
168
168
168
168
168
168
164
164
164
162
162
162
162
162
162
168
168
168
174
174
174
183
183
183
174
174
174
168
168
168
164
164
164
164
164
164
162
162
162
162
162
162
164
164
164
164
164
164
168
168
168
164
164
164
164
164
164
162
162
162
162
162
162
162
162
162
183
183
183
174
174
174
168
168
168
164
164
164
164
164
164
164
164
164
162
162
162
162
162
162
164
164
164
164
164
164
164
164
164
164
164
164
164
164
164
168
168
168
164
164
164
162
162
162
168
168
168
174
174
174
168
168
168
164
164
164
162
162
162
164
164
164
164
164
164
162
162
162
164
164
164
162
162
162
164
164
164
168
168
168
174
174
174
174
174
174
168
168
168
162
162
162
164
164
164
174
174
174
164
164
164
162
162
162
162
162
162
164
164
164
164
164
164
164
164
164
162
162
162
162
162
162
168
168
168
183
183
183
174
174
174
168
168
168
168
168
168
162
162
162
164
164
164
168
168
168
164
164
164
162
162
162
164
164
164
168
168
168
168
168
168
164
164
164
162
162
162
164
164
164
174
174
174
174
174
174
183
183
183
174
174
174
168
168
168
162
162
162
162
162
162
164
164
164
162
162
162
168
168
168
168
168
168
168
168
168
168
168
168
162
162
162
162
162
162
168
168
168
174
174
174
174
174
174
174
174
174
168
168
168
174
174
174
162
162
162
162
162
162
162
162
162
174
174
174
174
174
174
168
168
168
168
168
168
164
164
164
162
162
162
164
164
164
174
174
174
174
174
174
174
174
174
168
168
168
168
168
168
164
164
164
164
164
164
162
162
162
162
162
162
168
168
168
183
183
183
174
174
174
168
168
168
164
164
164
162
162
162
168
168
168
174
174
174
174
174
174
168
168
168
168
168
168
168
168
168
164
164
164
164
164
164
168
168
168
164
164
164
162
162
162
174
174
174
183
183
183
174
174
174
164
164
164
164
164
164
168
168
168
168
168
168
174
174
174
164
164
164
168
168
168
168
168
168
164
164
164
164
164
164
168
168
168
168
168
168
162
162
162
164
164
164
168
168
168
164
164
164
162
162
162
164
164
164
168
168
168
164
164
164
168
168
168
164
164
164
168
168
168
168
168
168
164
164
164
162
162
162
168
168
168
164
164
164
162
162
162
162
162
162
168
168
168
164
164
164
162
162
162
162
162
162
162
162
162
164
164
164
168
168
168
164
164
164
168
168
168
164
164
164
162
162
162
162
162
162
162
162
162
164
164
164
164
164
164
162
162
162
164
164
164
164
164
164
162
162
162
164
164
164
164
164
164
162
162
162
164
164
164
164
164
164
162
162
162
164
164
164
162
162
162
162
162
162
164
164
164
168
168
168
168
168
168
168
168
168
164
164
164
162
162
162
164
164
164
164
164
164
164
164
164
164
164
164
168
168
168
168
168
168
164
164
164
162
162
162
162
162
162
164
164
164
168
168
168
168
168
168
168
168
168
168
168
168
168
168
168
162
162
162
164
164
164
164
164
164
164
164
164
168
168
168
174
174
174
174
174
174
168
168
168
162
162
162
162
162
162
168
168
168
168
168
168
168
168
168
168
168
168
168
168
168
174
174
174
168
168
168
164
164
164
164
164
164
168
168
168
174
174
174
174
174
174
168
168
168
168
168
168
162
162
162
168
168
168
174
174
174
168
168
168
168
168
168
174
174
174
174
174
174
168
168
168
164
164
164
