P3
# Created by GIMP version 2.10.30 PNM plug-in
16 16
255
95
98
192
56
59
153
56
59
153
101
104
198
101
104
198
101
104
198
79
82
176
48
51
145
48
51
145
95
98
192
95
98
192
82
85
179
51
54
148
51
54
148
89
92
186
89
92
186
95
98
192
56
59
153
42
45
139
56
59
153
98
101
195
101
104
198
74
77
171
48
51
145
70
73
167
91
94
188
91
94
188
51
54
148
51
54
148
51
54
148
66
69
163
89
92
186
95
98
192
42
45
139
56
59
153
42
45
139
98
101
195
91
94
188
62
65
159
50
53
147
48
51
145
91
94
188
95
98
192
51
54
148
26
29
123
51
54
148
51
54
148
89
92
186
56
59
153
16
19
113
42
45
139
37
40
134
98
101
195
91
94
188
67
70
164
29
32
126
48
51
145
91
94
188
91
94
188
51
54
148
22
25
119
51
54
148
51
54
148
93
96
190
56
59
153
42
45
139
17
20
114
37
40
134
98
101
195
91
94
188
97
100
194
29
32
126
29
32
126
91
94
188
91
94
188
38
41
135
22
25
119
51
54
148
93
96
190
95
98
192
56
59
153
17
20
114
17
20
114
17
20
114
56
59
153
91
94
188
63
66
160
24
27
121
29
32
126
91
94
188
91
94
188
29
32
126
22
25
119
16
19
113
91
94
188
101
104
198
56
59
153
17
20
114
17
20
114
17
20
114
56
59
153
91
94
188
63
66
160
17
20
114
17
20
114
51
54
148
91
94
188
29
32
126
22
25
119
16
19
113
91
94
188
101
104
198
56
59
153
37
40
134
17
20
114
17
20
114
60
63
157
101
104
198
97
100
194
17
20
114
17
20
114
51
54
148
91
94
188
29
32
126
29
32
126
16
19
113
66
69
163
101
104
198
56
59
153
37
40
134
17
20
114
37
40
134
66
69
163
101
104
198
97
100
194
17
20
114
17
20
114
91
94
188
101
104
198
29
32
126
29
32
126
16
19
113
66
69
163
101
104
198
63
66
160
37
40
134
17
20
114
37
40
134
98
101
195
101
104
198
97
100
194
24
27
121
17
20
114
91
94
188
101
104
198
38
41
135
29
32
126
16
19
113
79
82
176
101
104
198
63
66
160
37
40
134
37
40
134
37
40
134
91
94
188
101
104
198
97
100
194
24
27
121
17
20
114
101
104
198
91
94
188
38
41
135
29
32
126
16
19
113
79
82
176
101
104
198
63
66
160
37
40
134
17
20
114
37
40
134
91
94
188
101
104
198
60
63
157
24
27
121
17
20
114
51
54
148
91
94
188
51
54
148
29
32
126
16
19
113
91
94
188
101
104
198
74
77
171
37
40
134
17
20
114
37
40
134
91
94
188
98
101
195
56
59
153
24
27
121
42
45
139
56
59
153
91
94
188
51
54
148
16
19
113
51
54
148
91
94
188
101
104
198
74
77
171
37
40
134
37
40
134
56
59
153
91
94
188
101
104
198
81
84
178
56
59
153
42
45
139
84
87
181
85
88
182
51
54
148
51
54
148
51
54
148
85
88
182
76
79
173
74
77
171
56
59
153
56
59
153
56
59
153
101
104
198
91
94
188
98
101
195
48
51
145
42
45
139
75
78
172
66
69
163
56
59
153
51
54
148
51
54
148
76
79
173
101
104
198
95
98
192
56
59
153
56
59
153
91
94
188
101
104
198
101
104
198
74
77
171
48
51
145
48
51
145
71
74
168
91
94
188
69
72
166
51
54
148
76
79
173
87
90
184
95
98
192
