P3
# Created by GIMP version 2.10.30 PNM plug-in
16 16
255
79
193
201
40
154
162
40
154
162
85
199
207
85
199
207
85
199
207
63
177
185
32
146
154
32
146
154
79
193
201
79
193
201
66
180
188
35
149
157
35
149
157
73
187
195
73
187
195
79
193
201
40
154
162
26
140
148
40
154
162
82
196
204
85
199
207
58
172
180
32
146
154
54
168
176
75
189
197
75
189
197
35
149
157
35
149
157
35
149
157
50
164
172
73
187
195
79
193
201
26
140
148
40
154
162
26
140
148
82
196
204
75
189
197
46
160
168
34
148
156
32
146
154
75
189
197
79
193
201
35
149
157
10
124
132
35
149
157
35
149
157
73
187
195
40
154
162
0
114
122
26
140
148
21
135
143
82
196
204
75
189
197
51
165
173
13
127
135
32
146
154
75
189
197
75
189
197
35
149
157
6
120
128
35
149
157
35
149
157
77
191
199
40
154
162
26
140
148
1
115
123
21
135
143
82
196
204
75
189
197
81
195
203
13
127
135
13
127
135
75
189
197
75
189
197
22
136
144
6
120
128
35
149
157
77
191
199
79
193
201
40
154
162
1
115
123
1
115
123
1
115
123
40
154
162
75
189
197
47
161
169
8
122
130
13
127
135
75
189
197
75
189
197
13
127
135
6
120
128
0
114
122
75
189
197
85
199
207
40
154
162
1
115
123
1
115
123
1
115
123
40
154
162
75
189
197
47
161
169
1
115
123
1
115
123
35
149
157
75
189
197
13
127
135
6
120
128
0
114
122
75
189
197
85
199
207
40
154
162
21
135
143
1
115
123
1
115
123
44
158
166
85
199
207
81
195
203
1
115
123
1
115
123
35
149
157
75
189
197
13
127
135
13
127
135
0
114
122
50
164
172
85
199
207
40
154
162
21
135
143
1
115
123
21
135
143
50
164
172
85
199
207
81
195
203
1
115
123
1
115
123
75
189
197
85
199
207
13
127
135
13
127
135
0
114
122
50
164
172
85
199
207
47
161
169
21
135
143
1
115
123
21
135
143
82
196
204
85
199
207
81
195
203
8
122
130
1
115
123
75
189
197
85
199
207
22
136
144
13
127
135
0
114
122
63
177
185
85
199
207
47
161
169
21
135
143
21
135
143
21
135
143
75
189
197
85
199
207
81
195
203
8
122
130
1
115
123
85
199
207
75
189
197
22
136
144
13
127
135
0
114
122
63
177
185
85
199
207
47
161
169
21
135
143
1
115
123
21
135
143
75
189
197
85
199
207
44
158
166
8
122
130
1
115
123
35
149
157
75
189
197
35
149
157
13
127
135
0
114
122
75
189
197
85
199
207
58
172
180
21
135
143
1
115
123
21
135
143
75
189
197
82
196
204
40
154
162
8
122
130
26
140
148
40
154
162
75
189
197
35
149
157
0
114
122
35
149
157
75
189
197
85
199
207
58
172
180
21
135
143
21
135
143
40
154
162
75
189
197
85
199
207
65
179
187
40
154
162
26
140
148
68
182
190
69
183
191
35
149
157
35
149
157
35
149
157
69
183
191
60
174
182
58
172
180
40
154
162
40
154
162
40
154
162
85
199
207
75
189
197
82
196
204
32
146
154
26
140
148
59
173
181
50
164
172
40
154
162
35
149
157
35
149
157
60
174
182
85
199
207
79
193
201
40
154
162
40
154
162
75
189
197
85
199
207
85
199
207
58
172
180
32
146
154
32
146
154
55
169
177
75
189
197
53
167
175
35
149
157
60
174
182
71
185
193
79
193
201
