P3
# Created by GIMP version 2.10.30 PNM plug-in
16 16
255
99
205
238
60
166
199
60
166
199
105
211
244
105
211
244
105
211
244
83
189
222
52
158
191
52
158
191
99
205
238
99
205
238
86
192
225
55
161
194
55
161
194
93
199
232
93
199
232
99
205
238
60
166
199
46
152
185
60
166
199
102
208
241
105
211
244
78
184
217
52
158
191
74
180
213
95
201
234
95
201
234
55
161
194
55
161
194
55
161
194
70
176
209
93
199
232
99
205
238
46
152
185
60
166
199
46
152
185
102
208
241
95
201
234
66
172
205
54
160
193
52
158
191
95
201
234
99
205
238
55
161
194
30
136
169
55
161
194
55
161
194
93
199
232
60
166
199
20
126
159
46
152
185
41
147
180
102
208
241
95
201
234
71
177
210
33
139
172
52
158
191
95
201
234
95
201
234
55
161
194
26
132
165
55
161
194
55
161
194
97
203
236
60
166
199
46
152
185
21
127
160
41
147
180
102
208
241
95
201
234
101
207
240
33
139
172
33
139
172
95
201
234
95
201
234
42
148
181
26
132
165
55
161
194
97
203
236
99
205
238
60
166
199
21
127
160
21
127
160
21
127
160
60
166
199
95
201
234
67
173
206
28
134
167
33
139
172
95
201
234
95
201
234
33
139
172
26
132
165
20
126
159
95
201
234
105
211
244
60
166
199
21
127
160
21
127
160
21
127
160
60
166
199
95
201
234
67
173
206
21
127
160
21
127
160
55
161
194
95
201
234
33
139
172
26
132
165
20
126
159
95
201
234
105
211
244
60
166
199
41
147
180
21
127
160
21
127
160
64
170
203
105
211
244
101
207
240
21
127
160
21
127
160
55
161
194
95
201
234
33
139
172
33
139
172
20
126
159
70
176
209
105
211
244
60
166
199
41
147
180
21
127
160
41
147
180
70
176
209
105
211
244
101
207
240
21
127
160
21
127
160
95
201
234
105
211
244
33
139
172
33
139
172
20
126
159
70
176
209
105
211
244
67
173
206
41
147
180
21
127
160
41
147
180
102
208
241
105
211
244
101
207
240
28
134
167
21
127
160
95
201
234
105
211
244
42
148
181
33
139
172
20
126
159
83
189
222
105
211
244
67
173
206
41
147
180
41
147
180
41
147
180
95
201
234
105
211
244
101
207
240
28
134
167
21
127
160
105
211
244
95
201
234
42
148
181
33
139
172
20
126
159
83
189
222
105
211
244
67
173
206
41
147
180
21
127
160
41
147
180
95
201
234
105
211
244
64
170
203
28
134
167
21
127
160
55
161
194
95
201
234
55
161
194
33
139
172
20
126
159
95
201
234
105
211
244
78
184
217
41
147
180
21
127
160
41
147
180
95
201
234
102
208
241
60
166
199
28
134
167
46
152
185
60
166
199
95
201
234
55
161
194
20
126
159
55
161
194
95
201
234
105
211
244
78
184
217
41
147
180
41
147
180
60
166
199
95
201
234
105
211
244
85
191
224
60
166
199
46
152
185
88
194
227
89
195
228
55
161
194
55
161
194
55
161
194
89
195
228
80
186
219
78
184
217
60
166
199
60
166
199
60
166
199
105
211
244
95
201
234
102
208
241
52
158
191
46
152
185
79
185
218
70
176
209
60
166
199
55
161
194
55
161
194
80
186
219
105
211
244
99
205
238
60
166
199
60
166
199
95
201
234
105
211
244
105
211
244
78
184
217
52
158
191
52
158
191
75
181
214
95
201
234
73
179
212
55
161
194
80
186
219
91
197
230
99
205
238
