P3
# Created by GIMP version 2.10.30 PNM plug-in
16 16
255
249
203
153
210
164
114
210
164
114
255
209
159
255
209
159
255
209
159
233
187
137
202
156
106
202
156
106
249
203
153
249
203
153
236
190
140
205
159
109
205
159
109
243
197
147
243
197
147
249
203
153
210
164
114
196
150
100
210
164
114
252
206
156
255
209
159
228
182
132
202
156
106
224
178
128
245
199
149
245
199
149
205
159
109
205
159
109
205
159
109
220
174
124
243
197
147
249
203
153
196
150
100
210
164
114
196
150
100
252
206
156
245
199
149
216
170
120
204
158
108
202
156
106
245
199
149
249
203
153
205
159
109
180
134
84
205
159
109
205
159
109
243
197
147
210
164
114
170
124
74
196
150
100
191
145
95
252
206
156
245
199
149
221
175
125
183
137
87
202
156
106
245
199
149
245
199
149
205
159
109
176
130
80
205
159
109
205
159
109
247
201
151
210
164
114
196
150
100
171
125
75
191
145
95
252
206
156
245
199
149
251
205
155
183
137
87
183
137
87
245
199
149
245
199
149
192
146
96
176
130
80
205
159
109
247
201
151
249
203
153
210
164
114
171
125
75
171
125
75
171
125
75
210
164
114
245
199
149
217
171
121
178
132
82
183
137
87
245
199
149
245
199
149
183
137
87
176
130
80
170
124
74
245
199
149
255
209
159
210
164
114
171
125
75
171
125
75
171
125
75
210
164
114
245
199
149
217
171
121
171
125
75
171
125
75
205
159
109
245
199
149
183
137
87
176
130
80
170
124
74
245
199
149
255
209
159
210
164
114
191
145
95
171
125
75
171
125
75
214
168
118
255
209
159
251
205
155
171
125
75
171
125
75
205
159
109
245
199
149
183
137
87
183
137
87
170
124
74
220
174
124
255
209
159
210
164
114
191
145
95
171
125
75
191
145
95
220
174
124
255
209
159
251
205
155
171
125
75
171
125
75
245
199
149
255
209
159
183
137
87
183
137
87
170
124
74
220
174
124
255
209
159
217
171
121
191
145
95
171
125
75
191
145
95
252
206
156
255
209
159
251
205
155
178
132
82
171
125
75
245
199
149
255
209
159
192
146
96
183
137
87
170
124
74
233
187
137
255
209
159
217
171
121
191
145
95
191
145
95
191
145
95
245
199
149
255
209
159
251
205
155
178
132
82
171
125
75
255
209
159
245
199
149
192
146
96
183
137
87
170
124
74
233
187
137
255
209
159
217
171
121
191
145
95
171
125
75
191
145
95
245
199
149
255
209
159
214
168
118
178
132
82
171
125
75
205
159
109
245
199
149
205
159
109
183
137
87
170
124
74
245
199
149
255
209
159
228
182
132
191
145
95
171
125
75
191
145
95
245
199
149
252
206
156
210
164
114
178
132
82
196
150
100
210
164
114
245
199
149
205
159
109
170
124
74
205
159
109
245
199
149
255
209
159
228
182
132
191
145
95
191
145
95
210
164
114
245
199
149
255
209
159
235
189
139
210
164
114
196
150
100
238
192
142
239
193
143
205
159
109
205
159
109
205
159
109
239
193
143
230
184
134
228
182
132
210
164
114
210
164
114
210
164
114
255
209
159
245
199
149
252
206
156
202
156
106
196
150
100
229
183
133
220
174
124
210
164
114
205
159
109
205
159
109
230
184
134
255
209
159
249
203
153
210
164
114
210
164
114
245
199
149
255
209
159
255
209
159
228
182
132
202
156
106
202
156
106
225
179
129
245
199
149
223
177
127
205
159
109
230
184
134
241
195
145
249
203
153
