P3
# Created by GIMP version 2.10.30 PNM plug-in
16 16
255
156
80
202
117
41
163
117
41
163
162
86
208
162
86
208
162
86
208
140
64
186
109
33
155
109
33
155
156
80
202
156
80
202
143
67
189
112
36
158
112
36
158
150
74
196
150
74
196
156
80
202
117
41
163
103
27
149
117
41
163
159
83
205
162
86
208
135
59
181
109
33
155
131
55
177
152
76
198
152
76
198
112
36
158
112
36
158
112
36
158
127
51
173
150
74
196
156
80
202
103
27
149
117
41
163
103
27
149
159
83
205
152
76
198
123
47
169
111
35
157
109
33
155
152
76
198
156
80
202
112
36
158
87
11
133
112
36
158
112
36
158
150
74
196
117
41
163
77
1
123
103
27
149
98
22
144
159
83
205
152
76
198
128
52
174
90
14
136
109
33
155
152
76
198
152
76
198
112
36
158
83
7
129
112
36
158
112
36
158
154
78
200
117
41
163
103
27
149
78
2
124
98
22
144
159
83
205
152
76
198
158
82
204
90
14
136
90
14
136
152
76
198
152
76
198
99
23
145
83
7
129
112
36
158
154
78
200
156
80
202
117
41
163
78
2
124
78
2
124
78
2
124
117
41
163
152
76
198
124
48
170
85
9
131
90
14
136
152
76
198
152
76
198
90
14
136
83
7
129
77
1
123
152
76
198
162
86
208
117
41
163
78
2
124
78
2
124
78
2
124
117
41
163
152
76
198
124
48
170
78
2
124
78
2
124
112
36
158
152
76
198
90
14
136
83
7
129
77
1
123
152
76
198
162
86
208
117
41
163
98
22
144
78
2
124
78
2
124
121
45
167
162
86
208
158
82
204
78
2
124
78
2
124
112
36
158
152
76
198
90
14
136
90
14
136
77
1
123
127
51
173
162
86
208
117
41
163
98
22
144
78
2
124
98
22
144
127
51
173
162
86
208
158
82
204
78
2
124
78
2
124
152
76
198
162
86
208
90
14
136
90
14
136
77
1
123
127
51
173
162
86
208
124
48
170
98
22
144
78
2
124
98
22
144
159
83
205
162
86
208
158
82
204
85
9
131
78
2
124
152
76
198
162
86
208
99
23
145
90
14
136
77
1
123
140
64
186
162
86
208
124
48
170
98
22
144
98
22
144
98
22
144
152
76
198
162
86
208
158
82
204
85
9
131
78
2
124
162
86
208
152
76
198
99
23
145
90
14
136
77
1
123
140
64
186
162
86
208
124
48
170
98
22
144
78
2
124
98
22
144
152
76
198
162
86
208
121
45
167
85
9
131
78
2
124
112
36
158
152
76
198
112
36
158
90
14
136
77
1
123
152
76
198
162
86
208
135
59
181
98
22
144
78
2
124
98
22
144
152
76
198
159
83
205
117
41
163
85
9
131
103
27
149
117
41
163
152
76
198
112
36
158
77
1
123
112
36
158
152
76
198
162
86
208
135
59
181
98
22
144
98
22
144
117
41
163
152
76
198
162
86
208
142
66
188
117
41
163
103
27
149
145
69
191
146
70
192
112
36
158
112
36
158
112
36
158
146
70
192
137
61
183
135
59
181
117
41
163
117
41
163
117
41
163
162
86
208
152
76
198
159
83
205
109
33
155
103
27
149
136
60
182
127
51
173
117
41
163
112
36
158
112
36
158
137
61
183
162
86
208
156
80
202
117
41
163
117
41
163
152
76
198
162
86
208
162
86
208
135
59
181
109
33
155
109
33
155
132
56
178
152
76
198
130
54
176
112
36
158
137
61
183
148
72
194
156
80
202
