P3
# Created by GIMP version 2.10.30 PNM plug-in
16 16
255
249
234
165
210
195
126
210
195
126
255
240
171
255
240
171
255
240
171
233
218
149
202
187
118
202
187
118
249
234
165
249
234
165
236
221
152
205
190
121
205
190
121
243
228
159
243
228
159
249
234
165
210
195
126
196
181
112
210
195
126
252
237
168
255
240
171
228
213
144
202
187
118
224
209
140
245
230
161
245
230
161
205
190
121
205
190
121
205
190
121
220
205
136
243
228
159
249
234
165
196
181
112
210
195
126
196
181
112
252
237
168
245
230
161
216
201
132
204
189
120
202
187
118
245
230
161
249
234
165
205
190
121
180
165
96
205
190
121
205
190
121
243
228
159
210
195
126
170
155
86
196
181
112
191
176
107
252
237
168
245
230
161
221
206
137
183
168
99
202
187
118
245
230
161
245
230
161
205
190
121
176
161
92
205
190
121
205
190
121
247
232
163
210
195
126
196
181
112
171
156
87
191
176
107
252
237
168
245
230
161
251
236
167
183
168
99
183
168
99
245
230
161
245
230
161
192
177
108
176
161
92
205
190
121
247
232
163
249
234
165
210
195
126
171
156
87
171
156
87
171
156
87
210
195
126
245
230
161
217
202
133
178
163
94
183
168
99
245
230
161
245
230
161
183
168
99
176
161
92
170
155
86
245
230
161
255
240
171
210
195
126
171
156
87
171
156
87
171
156
87
210
195
126
245
230
161
217
202
133
171
156
87
171
156
87
205
190
121
245
230
161
183
168
99
176
161
92
170
155
86
245
230
161
255
240
171
210
195
126
191
176
107
171
156
87
171
156
87
214
199
130
255
240
171
251
236
167
171
156
87
171
156
87
205
190
121
245
230
161
183
168
99
183
168
99
170
155
86
220
205
136
255
240
171
210
195
126
191
176
107
171
156
87
191
176
107
220
205
136
255
240
171
251
236
167
171
156
87
171
156
87
245
230
161
255
240
171
183
168
99
183
168
99
170
155
86
220
205
136
255
240
171
217
202
133
191
176
107
171
156
87
191
176
107
252
237
168
255
240
171
251
236
167
178
163
94
171
156
87
245
230
161
255
240
171
192
177
108
183
168
99
170
155
86
233
218
149
255
240
171
217
202
133
191
176
107
191
176
107
191
176
107
245
230
161
255
240
171
251
236
167
178
163
94
171
156
87
255
240
171
245
230
161
192
177
108
183
168
99
170
155
86
233
218
149
255
240
171
217
202
133
191
176
107
171
156
87
191
176
107
245
230
161
255
240
171
214
199
130
178
163
94
171
156
87
205
190
121
245
230
161
205
190
121
183
168
99
170
155
86
245
230
161
255
240
171
228
213
144
191
176
107
171
156
87
191
176
107
245
230
161
252
237
168
210
195
126
178
163
94
196
181
112
210
195
126
245
230
161
205
190
121
170
155
86
205
190
121
245
230
161
255
240
171
228
213
144
191
176
107
191
176
107
210
195
126
245
230
161
255
240
171
235
220
151
210
195
126
196
181
112
238
223
154
239
224
155
205
190
121
205
190
121
205
190
121
239
224
155
230
215
146
228
213
144
210
195
126
210
195
126
210
195
126
255
240
171
245
230
161
252
237
168
202
187
118
196
181
112
229
214
145
220
205
136
210
195
126
205
190
121
205
190
121
230
215
146
255
240
171
249
234
165
210
195
126
210
195
126
245
230
161
255
240
171
255
240
171
228
213
144
202
187
118
202
187
118
225
210
141
245
230
161
223
208
139
205
190
121
230
215
146
241
226
157
249
234
165
