P3
# Created by GIMP version 2.10.36 PNM plug-in
16 16
255
185
185
185
193
193
193
155
155
155
180
180
180
189
189
189
193
193
193
171
171
171
112
112
112
189
189
189
189
189
189
193
193
193
201
201
201
180
180
180
151
151
151
189
189
189
206
206
206
185
185
185
192
192
192
203
203
203
192
192
192
192
192
192
181
181
181
203
203
203
208
208
208
183
183
183
216
216
216
183
183
183
128
128
128
147
147
147
184
184
184
132
132
132
166
166
166
212
212
212
203
203
203
203
203
203
157
157
157
157
157
157
175
175
175
175
175
175
213
213
213
179
179
179
175
175
175
203
203
203
203
203
203
213
213
213
228
228
228
184
184
184
159
159
159
207
207
207
157
157
157
227
227
227
203
203
203
203
203
203
175
175
175
175
175
175
229
229
229
205
205
205
192
192
192
192
192
192
147
147
147
205
205
205
205
205
205
175
175
175
201
201
201
172
172
172
116
116
116
203
203
203
200
200
200
184
184
184
218
218
218
208
208
208
156
156
156
175
175
175
157
157
157
157
157
157
147
147
147
192
192
192
192
192
192
175
175
175
216
216
216
166
166
166
203
203
203
203
203
203
184
184
184
132
132
132
208
208
208
184
184
184
118
118
118
175
175
175
203
203
203
203
203
203
222
222
222
157
157
157
157
157
157
203
203
203
171
171
171
218
218
218
208
208
208
157
157
157
157
157
157
183
183
183
201
201
201
173
173
173
159
159
159
208
208
208
192
192
192
212
212
212
208
208
208
203
203
203
227
227
227
203
203
203
190
190
190
201
201
201
112
112
112
192
192
192
216
216
216
176
176
176
183
183
183
175
175
175
183
183
183
224
224
224
207
207
207
157
157
157
203
203
203
181
181
181
208
208
208
147
147
147
177
177
177
212
212
212
203
203
203
203
203
203
198
198
198
192
192
192
200
200
200
184
184
184
222
222
222
208
208
208
200
200
200
184
184
184
203
203
203
112
112
112
222
222
222
203
203
203
181
181
181
193
193
193
208
208
208
231
231
231
157
157
157
167
167
167
184
184
184
132
132
132
203
203
203
192
192
192
143
143
143
132
132
132
213
213
213
213
213
213
157
157
157
192
192
192
150
150
150
197
197
197
203
203
203
208
208
208
203
203
203
218
218
218
208
208
208
203
203
203
203
203
203
197
197
197
158
158
158
227
227
227
205
205
205
205
205
205
157
157
157
192
192
192
182
182
182
210
210
210
203
203
203
132
132
132
184
184
184
203
203
203
203
203
203
157
157
157
192
192
192
218
218
218
208
208
208
203
203
203
203
203
203
112
112
112
181
181
181
203
203
203
201
201
201
150
150
150
203
203
203
184
184
184
204
204
204
147
147
147
213
213
213
162
162
162
192
192
192
203
203
203
192
192
192
157
157
157
192
192
192
192
192
192
203
203
203
232
232
232
165
165
165
118
118
118
192
192
192
167
167
167
218
218
218
158
158
158
226
226
226
179
179
179
175
175
175
203
203
203
192
192
192
157
157
157
157
157
157
157
157
157
203
203
203
184
184
184
190
190
190
153
153
153
192
192
192
137
137
137
175
175
175
181
181
181
203
203
203
175
175
175
175
175
175
208
208
208
221
221
221
209
209
209
203
203
203
208
208
208
211
211
211
105
105
105
142
142
142
206
206
206
149
149
149
201
201
201
165
165
165
165
165
165
220
220
220
201
201
201
201
201
201
176
176
176
142
142
142
182
182
182
206
206
206
150
150
150
182
182
182
201
201
201
201
201
201
