P3
# Created by GIMP version 2.10.36 PNM plug-in
16 16
255
109
109
109
109
109
109
71
71
71
71
71
71
85
85
85
109
109
109
109
109
109
125
125
125
51
51
51
73
73
73
52
52
52
51
51
51
109
109
109
98
98
98
109
109
109
109
109
109
109
109
109
109
109
109
109
109
109
116
116
116
65
65
65
109
109
109
51
51
51
98
98
98
65
65
65
73
73
73
51
51
51
51
51
51
116
116
116
85
85
85
109
109
109
109
109
109
109
109
109
109
109
109
109
109
109
136
136
136
109
109
109
51
51
51
120
120
120
64
64
64
51
51
51
105
105
105
85
85
85
138
138
138
106
106
106
126
126
126
106
106
106
109
109
109
109
109
109
109
109
109
116
116
116
85
85
85
51
51
51
136
136
136
51
51
51
52
52
52
51
51
51
51
51
51
136
136
136
126
126
126
106
106
106
106
106
106
106
106
106
109
109
109
65
65
65
116
116
116
51
51
51
116
116
116
51
51
51
116
116
116
51
51
51
50
50
50
51
51
51
73
73
73
130
130
130
71
71
71
106
106
106
71
71
71
71
71
71
109
109
109
109
109
109
116
116
116
51
51
51
65
65
65
73
73
73
51
51
51
124
124
124
92
92
92
46
46
46
92
92
92
104
104
104
65
65
65
116
116
116
71
71
71
109
109
109
109
109
109
109
109
109
138
138
138
126
126
126
85
85
85
73
73
73
51
51
51
73
73
73
106
106
106
93
93
93
93
93
93
106
106
106
73
73
73
116
116
116
126
126
126
126
126
126
109
109
109
106
106
106
106
106
106
106
106
106
71
71
71
51
51
51
73
73
73
106
106
106
126
126
126
106
106
106
71
71
71
71
71
71
73
73
73
126
126
126
106
106
106
106
106
106
106
106
106
109
109
109
138
138
138
106
106
106
106
106
106
51
51
51
73
73
73
126
126
126
93
93
93
71
71
71
71
71
71
114
114
114
114
114
114
71
71
71
106
106
106
71
71
71
109
109
109
109
109
109
126
126
126
106
106
106
71
71
71
73
73
73
51
51
51
106
106
106
71
71
71
71
71
71
112
112
112
52
52
52
51
51
51
116
116
116
71
71
71
71
71
71
109
109
109
109
109
109
109
109
109
71
71
71
110
110
110
52
52
52
51
51
51
59
59
59
105
105
105
79
79
79
73
73
73
51
51
51
73
73
73
65
65
65
85
85
85
98
98
98
109
109
109
109
109
109
109
109
109
109
109
109
109
109
109
73
73
73
51
51
51
73
73
73
104
104
104
71
71
71
36
36
36
73
73
73
51
51
51
51
51
51
85
85
85
109
109
109
109
109
109
109
109
109
109
109
109
109
109
109
58
58
58
73
73
73
51
51
51
73
73
73
102
102
102
73
73
73
51
51
51
73
73
73
51
51
51
109
109
109
85
85
85
65
65
65
109
109
109
109
109
109
109
109
109
109
109
109
109
109
109
109
109
109
119
119
119
52
52
52
92
92
92
51
51
51
73
73
73
51
51
51
52
52
52
104
104
104
109
109
109
109
109
109
109
109
109
109
109
109
109
109
109
109
109
109
109
109
109
109
109
109
104
104
104
51
51
51
74
74
74
35
35
35
67
67
67
69
69
69
89
89
89
60
60
60
109
109
109
109
109
109
109
109
109
109
109
109
109
109
109
109
109
109
109
109
109
109
109
109
109
109
109
104
104
104
80
80
80
48
48
48
79
79
79
49
49
49
51
51
51
109
109
109
109
109
109
109
109
109
109
109
109
