P3
# Created by GIMP version 2.10.36 PNM plug-in
16 16
255
109
109
109
109
109
109
109
109
109
109
109
109
109
109
109
109
109
109
109
109
109
109
109
109
109
109
109
109
109
109
109
109
109
109
109
109
109
109
109
109
109
109
109
109
109
109
109
109
109
109
109
109
109
109
109
109
109
109
109
109
109
109
109
109
109
109
138
138
138
93
93
93
93
93
93
71
71
71
109
109
109
109
109
109
109
109
109
109
109
109
109
109
109
109
109
109
109
109
109
109
109
109
109
109
109
109
109
109
109
109
109
109
109
109
126
126
126
71
71
71
126
126
126
71
71
71
109
109
109
109
109
109
109
109
109
109
109
109
109
109
109
109
109
109
109
109
109
109
109
109
138
138
138
126
126
126
93
93
93
109
109
109
109
109
109
85
85
85
71
71
71
109
109
109
109
109
109
126
126
126
126
126
126
109
109
109
109
109
109
109
109
109
109
109
109
109
109
109
106
106
106
71
71
71
106
106
106
136
136
136
85
85
85
109
109
109
109
109
109
109
109
109
93
93
93
71
71
71
93
93
93
138
138
138
109
109
109
109
109
109
109
109
109
109
109
109
126
126
126
71
71
71
109
109
109
109
109
109
85
85
85
65
65
65
109
109
109
109
109
109
136
136
136
93
93
93
93
93
93
126
126
126
109
109
109
109
109
109
109
109
109
109
109
109
109
109
109
85
85
85
109
109
109
109
109
109
109
109
109
116
116
116
109
109
109
65
65
65
136
136
136
109
109
109
71
71
71
71
71
71
109
109
109
109
109
109
109
109
109
109
109
109
65
65
65
85
85
85
109
109
109
109
109
109
138
138
138
126
126
126
109
109
109
109
109
109
85
85
85
109
109
109
85
85
85
85
85
85
109
109
109
109
109
109
109
109
109
109
109
109
109
109
109
116
116
116
109
109
109
126
126
126
93
93
93
93
93
93
126
126
126
109
109
109
85
85
85
65
65
65
109
109
109
85
85
85
109
109
109
109
109
109
109
109
109
109
109
109
65
65
65
136
136
136
109
109
109
93
93
93
126
126
126
71
71
71
71
71
71
136
136
136
109
109
109
109
109
109
116
116
116
109
109
109
65
65
65
109
109
109
109
109
109
109
109
109
109
109
109
136
136
136
65
65
65
109
109
109
109
109
109
71
71
71
85
85
85
116
116
116
109
109
109
109
109
109
109
109
109
116
116
116
109
109
109
109
109
109
109
109
109
109
109
109
109
109
109
109
109
109
85
85
85
116
116
116
109
109
109
116
116
116
95
95
95
109
109
109
109
109
109
109
109
109
109
109
109
116
116
116
65
65
65
109
109
109
109
109
109
109
109
109
109
109
109
126
126
126
65
65
65
116
116
116
109
109
109
109
109
109
98
98
98
65
65
65
109
109
109
109
109
109
109
109
109
85
85
85
109
109
109
109
109
109
109
109
109
106
106
106
126
126
126
106
106
106
126
126
126
71
71
71
85
85
85
109
109
109
98
98
98
109
109
109
109
109
109
65
65
65
136
136
136
109
109
109
109
109
109
109
109
109
109
109
109
126
126
126
138
138
138
126
126
126
106
106
106
71
71
71
85
85
85
85
85
85
109
109
109
109
109
109
116
116
116
136
136
136
109
109
109
85
85
85
65
65
65
109
109
109
109
109
109
109
109
109
126
126
126
106
106
106
71
71
71
109
109
109
116
116
116
116
116
116
109
109
109
116
116
116
85
85
85
109
109
109
109
109
109
85
85
85
109
109
109
109
109
109
